niicovila/Q-Reps/lightning_research_framework/results/XTD3_TEST/td3_6/log.csv
time/steps,time/epochs,time/steps_per_second,time/dataset,time/preprocess,time/train_step,train/env_steps,train/reward,train/length,train/num_ep,eval/reward,eval/stddev,eval/length,eval/discount,eval/early_termination,step,train/q_loss,train/target_q,train/actor_loss
3000,0,120.35871989384866,0.00041413307189941406,0.00012135505676269531,0.009091377258300781,2975.5,1.4387074837322584,1000.0,3.0,0.25158367093523215,0.043112113238725436,1000.0,1000.0,0.0,3000,-1.9999742126464843,-0.02291237998753786,-0.014434532942250371
4000,0,117.24336493699116,0.0003764629364013672,0.0001647472381591797,0.008873462677001953,3975.5,3.1697060978325298,1000.0,4.0,1.4644696194196665,0.1670419192404128,1000.0,1000.0,0.0,4000,-1.9999899005889892,-0.059023597165942195,0.046160300225019456
5000,0,110.91165736123429,0.0006039142608642578,0.00016260147094726562,0.01275634765625,4975.5,8.443941569889608,1000.0,5.0,10.497218801473183,1.144682747768215,1000.0,1000.0,0.0,5000,-1.999991090297699,-0.02118394076824188,-0.00785365869058296
6000,0,118.46362069082389,0.0004220008850097656,0.0001201629638671875,0.00892329216003418,5975.5,6.548520321466868,1000.0,6.0,12.716935478733646,0.32009808683279006,1000.0,1000.0,0.0,6000,-1.999992470741272,-0.00045233074575662613,-0.005532509228214621
7000,0,113.9073077892395,0.0004177093505859375,0.00019621849060058594,0.008895397186279297,6975.5,16.39532715018213,1000.0,7.0,19.380484748032806,3.1928740129527036,1000.0,1000.0,0.0,7000,-1.999987654685974,-0.038603228610008956,0.020016930643469096
8000,0,123.65443419667001,0.0004324913024902344,0.00012087821960449219,0.009174823760986328,7975.5,16.79857000069577,1000.0,8.0,41.92066708129847,1.5538374031789148,1000.0,1000.0,0.0,8000,-1.9999831914901733,-0.053025246784091,0.043630432300269605
9000,0,120.00011444102711,0.0005342960357666016,0.00025177001953125,0.012353658676147461,8975.5,25.26116288272946,1000.0,9.0,17.36465230279014,0.6263586621027748,1000.0,1000.0,0.0,9000,-1.9999791264533997,-0.12348691269755363,0.13262598425149918
10000,0,124.29150973309191,0.0003590583801269531,0.00015687942504882812,0.008834123611450195,9975.5,24.682618642338447,1000.0,10.0,25.19877934568129,9.01415331026779,1000.0,1000.0,0.0,10000,-1.999963858127594,-0.11913562700152397,0.11047103613615036
11000,0,121.0833081696152,0.000423431396484375,0.00018024444580078125,0.009145259857177734,10975.5,46.000570084636074,1000.0,11.0,66.67883019656966,24.25533394305836,1000.0,1000.0,0.0,11000,-1.9999648976325988,-0.037502970928326246,0.0158393507450819
12000,0,108.27620460809126,0.0003864765167236328,0.00011348724365234375,0.008777618408203125,11975.5,117.55492520987598,1000.0,12.0,134.26240988373257,77.11131769781896,1000.0,1000.0,0.0,12000,-1.9999263405799865,0.06909529007971286,-0.06977478699758649
13000,0,110.01528141568966,0.0005478858947753906,0.0001461505889892578,0.011554956436157227,12975.5,53.71349702001271,1000.0,13.0,70.16959653202439,17.367194252884197,1000.0,1000.0,0.0,13000,-1.999932885169983,0.07294617801904678,-0.07950596459209919
14000,0,118.05928432098314,0.00043201446533203125,0.00011920928955078125,0.009740591049194336,13975.5,134.62235280983623,1000.0,14.0,75.97189562858955,31.44322207813729,1000.0,1000.0,0.0,14000,-1.999898066520691,0.20242269337177277,-0.235970598757267
15000,0,106.56346799567476,0.0005848407745361328,0.000244140625,0.01282811164855957,14975.5,48.23698138711622,1000.0,15.0,44.56089149115745,13.380903161306637,1000.0,1000.0,0.0,15000,-1.9998716163635253,0.21131392508745195,-0.24214662551879884
16000,0,90.62401150500146,0.0004131793975830078,0.0001239776611328125,0.009638071060180664,15975.5,33.51035978685839,1000.0,16.0,22.788562227751015,3.3536585702668154,1000.0,1000.0,0.0,16000,-1.999880886077881,0.14728379026055335,-0.17488687843084336
17000,0,116.05537714710405,0.0005652904510498047,0.00014972686767578125,0.011924028396606445,16975.5,18.219832396892702,1000.0,17.0,47.39831449368354,19.77574406269658,1000.0,1000.0,0.0,17000,-1.9998141503334046,0.05811391185969114,-0.12362959202378988
18000,0,121.87118272146462,0.0004322528839111328,0.00013303756713867188,0.008701324462890625,17975.5,30.65538561095409,1000.0,18.0,62.817142441746014,29.83548999844789,1000.0,1000.0,0.0,18000,-1.9998354816436767,-0.08573550537228584,0.0187252951413393
19000,0,117.31301621397864,0.0003986358642578125,0.00011348724365234375,0.008365631103515625,18975.5,70.06366210233622,1000.0,19.0,57.74469382066045,21.747789403449854,1000.0,1000.0,0.0,19000,-1.999782612323761,-0.16560494892299174,0.038563533276319506
20000,0,87.74745960855,0.00039386749267578125,0.00011515617370605469,0.00917506217956543,19975.5,59.56914289317826,1000.0,20.0,52.438287089609936,12.26789020217986,1000.0,1000.0,0.0,20000,-1.999757149219513,-0.19575388491153717,0.11204454571008682
21000,0,122.28213113501896,0.0006003379821777344,0.00016236305236816406,0.01313924789428711,20975.5,59.24592652859774,1000.0,21.0,39.95665835731616,17.997934194311302,1000.0,1000.0,0.0,21000,-1.9996948504447938,-0.3041491621732712,0.21485529839992523
22000,0,117.50093568116468,0.0004353523254394531,0.0001220703125,0.010071754455566406,21975.5,45.27457239359727,1000.0,22.0,55.18570107686686,29.38069231320353,1000.0,1000.0,0.0,22000,-1.999578902721405,-0.49298112839460373,0.2808633618056774
23000,0,117.04816654573868,0.00044608116149902344,0.00012135505676269531,0.008987903594970703,22975.5,49.82045910154472,1000.0,23.0,99.14203992303763,46.86551780714799,1000.0,1000.0,0.0,23000,-1.9995057582855225,-0.5739719480276108,0.3395319616794586
24000,0,89.89972427605316,0.00040459632873535156,0.0001220703125,0.009198665618896484,23975.5,26.029090962691612,1000.0,24.0,48.23513703949409,27.251168347321514,1000.0,1000.0,0.0,24000,-1.9995451879501343,-0.8070535802841187,0.5171219265460968
25000,0,120.31673652601854,0.0006196498870849609,0.00016999244689941406,0.013593912124633789,24975.5,56.853615730465215,1000.0,25.0,43.404507387338604,14.953498486864927,1000.0,1000.0,0.0,25000,-1.9994775915145875,-0.8781755727529525,0.4804563498497009
26000,0,117.45112018517513,0.0005660057067871094,0.00013875961303710938,0.011139392852783203,25975.5,28.174623816886427,1000.0,26.0,130.94061845029336,62.29247275440504,1000.0,1000.0,0.0,26000,-1.999421615600586,-0.9510052800178528,0.516631791293621
27000,0,120.7869879740128,0.0004508495330810547,0.00016999244689941406,0.00986480712890625,26975.5,44.45113327273275,1000.0,27.0,62.40644706946298,39.74686937136222,1000.0,1000.0,0.0,27000,-1.9993530249595641,-1.107245272397995,0.7119044089317321
28000,0,109.5220339018457,0.0004525184631347656,0.00012063980102539062,0.009440422058105469,27975.5,204.00012709593628,1000.0,28.0,125.05797386676272,77.71743949745132,1000.0,1000.0,0.0,28000,-1.9990474390983581,-1.0115763854980468,0.5642565953731536
29000,0,116.00382779354254,0.0004076957702636719,0.00014090538024902344,0.009711503982543945,28975.5,51.7924408261119,1000.0,29.0,82.19927033215667,46.77103541533134,1000.0,1000.0,0.0,29000,-1.9990467357635497,-1.174175102710724,0.5938268268108368
30000,0,115.8485581849609,0.00038361549377441406,0.0001304149627685547,0.011222362518310547,29975.5,44.7657703410713,1000.0,30.0,186.8787760707225,43.670701715313825,1000.0,1000.0,0.0,30000,-1.999000358581543,-1.389803967475891,0.8099597358703613
31000,0,116.64193465855368,0.0004076957702636719,0.00011467933654785156,0.008813142776489258,30975.5,29.431567320957935,1000.0,31.0,152.5531580380283,60.90002153947649,1000.0,1000.0,0.0,31000,-1.999002366065979,-1.4889797234535218,0.8673824644088746
32000,0,120.83347737806325,0.0007214546203613281,0.0001983642578125,0.013244867324829102,31975.5,212.4409765148455,1000.0,32.0,126.58411771392382,36.30124380447746,1000.0,1000.0,0.0,32000,-1.9986448502540588,-1.3590379714965821,0.7068753051757812
33000,0,115.07638279192274,0.00045371055603027344,0.00012254714965820312,0.009274005889892578,32975.5,118.57461808226377,1000.0,33.0,86.9585738231841,38.95463272925305,1000.0,1000.0,0.0,33000,-1.9984812331199646,-1.336159030199051,0.6341849088668823
34000,0,116.25011086474501,0.000469207763671875,0.00012183189392089844,0.009553909301757812,33975.5,62.79701736547881,1000.0,34.0,108.98497539940134,39.55340089637855,1000.0,1000.0,0.0,34000,-1.9984890127182007,-1.19926624417305,0.5339750081300736
35000,0,83.3359295276304,0.000484466552734375,0.00012826919555664062,0.009791374206542969,34975.5,173.41244404180628,1000.0,35.0,129.61583915540854,69.93066555179092,1000.0,1000.0,0.0,35000,-1.9982938838005067,-1.159084097146988,0.42372876793146136
36000,0,119.13964347049023,0.00038909912109375,0.00015664100646972656,0.008792638778686523,35975.5,167.53898940020073,1000.0,36.0,172.55763038951554,68.0736100035527,1000.0,1000.0,0.0,36000,-1.998449423313141,-1.064952404499054,0.35527532249689103
37000,0,119.3791142108343,0.0004551410675048828,0.00013566017150878906,0.009793281555175781,36975.5,161.30656533937633,1000.0,37.0,144.70520833862543,36.32925949700376,1000.0,1000.0,0.0,37000,-1.9980577206611634,-0.854539981558919,0.087244391143322
38000,0,116.19117797791031,0.0004780292510986328,0.0001266002655029297,0.009491920471191406,37975.5,130.7090875426516,1000.0,38.0,100.60581946990399,57.56433000088887,1000.0,1000.0,0.0,38000,-1.998200035095215,-0.7245987595617771,0.028465797603130342
39000,0,91.41342725378573,0.0003998279571533203,0.00011396408081054688,0.008944988250732422,38975.5,83.75047272027639,1000.0,39.0,125.50304570639271,53.18919488483264,1000.0,1000.0,0.0,39000,-1.9981399488449096,-0.8036604300141335,0.08733243197202682
40000,0,114.24717548826641,0.0003979206085205078,0.00015687942504882812,0.008661746978759766,39975.5,78.961204959213,1000.0,40.0,91.55460503675461,43.889505574141644,1000.0,1000.0,0.0,40000,-1.9979789638519287,-0.7555872172117233,-0.035949116200208665
41000,0,119.76423517775162,0.00041413307189941406,0.00012135505676269531,0.009063005447387695,40975.5,112.11219242827934,1000.0,41.0,123.08698965122285,54.572150575051175,1000.0,1000.0,0.0,41000,-1.9978588795661927,-0.8382907903194428,0.0614986951649189
42000,0,119.69997836766633,0.0004878044128417969,0.0001354217529296875,0.009316444396972656,41975.5,71.69361123957904,1000.0,42.0,124.02582913802148,41.65201107187699,1000.0,1000.0,0.0,42000,-1.9976124262809754,-0.9296986705064774,-0.0024614140391349794
43000,0,123.5072576603402,0.0005686283111572266,0.00019025802612304688,0.01212930679321289,42975.5,93.73143213934688,1000.0,43.0,152.68272428878015,73.79357687067892,1000.0,1000.0,0.0,43000,-1.9975618171691893,-1.0390848106145858,0.20074439078569412
44000,0,116.42313216037803,0.00047397613525390625,0.0001304149627685547,0.00969076156616211,43975.5,209.15751767039725,1000.0,44.0,164.4796279510747,69.89547404424411,1000.0,1000.0,0.0,44000,-1.9974379539489746,-0.9428297674655914,0.09866269111633301
45000,0,123.49663897959243,0.0004229545593261719,0.0001227855682373047,0.009384632110595703,44975.5,105.32779503865027,1000.0,45.0,162.77869383356523,62.06950082518139,1000.0,1000.0,0.0,45000,-1.997429392337799,-0.9164818835258484,0.08172651648521423
46000,0,84.076429035336,0.0006010532379150391,0.0002589225769042969,0.009223461151123047,45975.5,231.37632350885508,1000.0,46.0,182.19951375650302,49.48319387266077,1000.0,1000.0,0.0,46000,-1.997229323387146,-0.854195419549942,-0.09534503251314164
47000,0,119.53738906400515,0.0006463527679443359,0.000164031982421875,0.014500856399536133,46975.5,176.8970220632348,1000.0,47.0,144.46089762984283,24.749662474035095,1000.0,1000.0,0.0,47000,-1.9971668648719787,-0.6629850327968597,-0.21163361564278602
48000,0,117.41883178689886,0.00045108795166015625,0.00012087821960449219,0.009230852127075195,47975.5,182.86231210789404,1000.0,48.0,178.6918230720114,43.196931840886116,1000.0,1000.0,0.0,48000,-1.9969472837448121,-0.7889296782016754,-0.07559046566486359
49000,0,115.47481653113906,0.0004019737243652344,0.00012111663818359375,0.009119510650634766,48975.5,252.12196794346806,1000.0,49.0,165.60819315474447,55.819893935453436,1000.0,1000.0,0.0,49000,-1.99693838596344,-0.6108858381211758,-0.3247700509428978
50000,0,84.91635312924652,0.0004019737243652344,0.00016498565673828125,0.009589672088623047,49975.5,228.99928612591904,1000.0,50.0,104.0700327325264,45.610975390395396,1000.0,1000.0,0.0,50000,-1.997085897922516,-0.6725527980923652,-0.1631952965259552
51000,0,120.63316026768612,0.0003857612609863281,0.00011491775512695312,0.008745908737182617,50975.5,134.91971681500695,1000.0,51.0,246.91139095276694,92.49250075573758,1000.0,1000.0,0.0,51000,-1.9971091651916504,-0.6388036267459393,-0.25865780204534533
52000,0,115.61066341488154,0.0004420280456542969,0.0001685619354248047,0.008993387222290039,51975.5,240.7801025675783,1000.0,52.0,120.02221724131189,64.95859157657557,1000.0,1000.0,0.0,52000,-1.9969815921783447,-0.4977607449144125,-0.4593447640538216
53000,0,118.95677309604964,0.00044989585876464844,0.00012183189392089844,0.009157180786132812,52975.5,151.08699298266524,1000.0,53.0,102.46968117787404,35.45113425907,1000.0,1000.0,0.0,53000,-1.9971195244789124,-0.5732022535800934,-0.36979142934083936
54000,0,111.30021281902953,0.00043773651123046875,0.00011515617370605469,0.010196208953857422,53975.5,158.7758070049532,1000.0,54.0,160.69481944354737,92.8588533812695,1000.0,1000.0,0.0,54000,-1.9963920569419862,-0.550514177531004,-0.3462186528742313
55000,0,122.03152339815412,0.00044846534729003906,0.00012540817260742188,0.009366750717163086,54975.5,141.90550457223475,1000.0,55.0,184.2554733367247,71.61054385403374,1000.0,1000.0,0.0,55000,-1.9969100642204285,-0.6927107691764831,-0.18195110499858858
56000,0,112.54262974333876,0.0004420280456542969,0.000125885009765625,0.009788274765014648,55975.5,260.2635051806639,1000.0,56.0,222.83177531391775,77.95679188957772,1000.0,1000.0,0.0,56000,-1.9963875150680541,-0.5472816086560488,-0.37066147089004514
57000,0,107.59392879716962,0.0003981590270996094,0.00012040138244628906,0.00922703742980957,56975.5,187.93367132160208,1000.0,57.0,201.70951254964424,68.23887733907108,1000.0,1000.0,0.0,57000,-1.996285479068756,-0.43464139312505723,-0.3799122378230095
58000,0,106.92995601250026,0.0006260871887207031,0.0001742839813232422,0.014832258224487305,57975.5,184.04183319365092,1000.0,58.0,176.7728426217917,70.73428892421408,1000.0,1000.0,0.0,58000,-1.9962746167182923,-0.27369113609194756,-0.6586140391230583
59000,0,113.80080712948096,0.0004405975341796875,0.00012731552124023438,0.009226083755493164,58975.5,69.43114038541465,1000.0,59.0,186.49488211141386,58.79772474856093,1000.0,1000.0,0.0,59000,-1.996285367012024,-0.2733229212462902,-0.6291306430101394
60000,0,119.46350702801236,0.000415802001953125,0.00012087821960449219,0.00920724868774414,59975.5,219.78027066534503,1000.0,60.0,164.02523413626363,57.645802795782146,1000.0,1000.0,0.0,60000,-1.9960911750793457,-0.24128194510936737,-0.635358270406723
61000,0,89.62268464802462,0.00041222572326660156,0.00012135505676269531,0.008928298950195312,60975.5,269.1946593037483,1000.0,61.0,135.71524686996284,90.6856729833461,1000.0,1000.0,0.0,61000,-1.9962408661842346,-0.25669420674443244,-0.6748444539308548
62000,0,114.25358644180082,0.0004019737243652344,0.00012159347534179688,0.009157896041870117,61975.5,82.55344229010491,1000.0,62.0,136.63676631354184,70.97809722816923,1000.0,1000.0,0.0,62000,-1.9956420063972473,-0.16302890986204147,-0.7186558020114898
63000,0,112.16677996633636,0.00041174888610839844,0.00012159347534179688,0.009219884872436523,62975.5,103.26754982232329,1000.0,63.0,111.6292516161678,43.14615741920495,1000.0,1000.0,0.0,63000,-1.9958252835273742,-0.3916354015469551,-0.46775322914123535
64000,0,115.16093356513946,0.0004267692565917969,0.00016188621520996094,0.009618520736694336,63975.5,71.1253764455505,1000.0,64.0,307.4765422358811,74.79559617797204,1000.0,1000.0,0.0,64000,-1.996133725643158,-0.3521205934882164,-0.6063122802972793
65000,0,99.73240174074404,0.0004246234893798828,0.0001201629638671875,0.009371042251586914,64975.5,332.67928488912605,1000.0,65.0,319.0144322177795,83.01695437438833,1000.0,1000.0,0.0,65000,-1.9955325412750244,-0.31650469481945037,-0.5090028268098831
66000,0,118.5064634176663,0.0003910064697265625,0.0001220703125,0.008446931838989258,65975.5,158.03499657563827,1000.0,66.0,122.59803753661144,63.18741895615364,1000.0,1000.0,0.0,66000,-1.9956344866752624,-0.08926777854561806,-0.7680789881944656
67000,0,114.33013773684168,0.00043463706970214844,0.00012493133544921875,0.009586095809936523,66975.5,366.17408993840064,1000.0,67.0,215.08734830741895,96.75624834802427,1000.0,1000.0,0.0,67000,-1.9957086801528932,0.08286783933639526,-1.045741429924965
68000,0,122.65976343647041,0.0003809928894042969,0.00011157989501953125,0.008831977844238281,67975.5,376.7249826069634,1000.0,68.0,124.47319491979329,91.90663084021072,1000.0,1000.0,0.0,68000,-1.9957508277893066,0.1888090331107378,-1.2636755287647248
69000,0,115.0406535283708,0.0005786418914794922,0.00014638900756835938,0.011927604675292969,68975.5,51.72156976701078,1000.0,69.0,314.54739609889225,87.45338227857,1000.0,1000.0,0.0,69000,-1.9954118084907533,-0.003091709911823273,-1.0645293998718262
70000,0,117.41738547175748,0.0004429817199707031,0.00012540817260742188,0.008557796478271484,69975.5,350.1211503386899,1000.0,70.0,277.47050675939715,96.47108231202361,1000.0,1000.0,0.0,70000,-1.9949125695228576,0.24704126715660096,-1.3853937405347825
71000,0,118.1661181383959,0.0005195140838623047,0.00012564659118652344,0.009673357009887695,70975.5,244.25394595779449,1000.0,71.0,307.02725484833974,56.610439406793056,1000.0,1000.0,0.0,71000,-1.9949423789978027,0.33560846775770187,-1.4693461561203003
72000,0,90.62224928257184,0.0004773139953613281,0.0001392364501953125,0.00903773307800293,71975.5,127.51972637238048,1000.0,72.0,308.3912674348246,22.72081535696875,1000.0,1000.0,0.0,72000,-1.9950725102424622,0.3281571608781815,-1.3198326271772385
73000,0,117.04111154766582,0.00040912628173828125,0.00011992454528808594,0.00901484489440918,72975.5,318.22868199680335,1000.0,73.0,356.3593363458896,41.40905040921238,1000.0,1000.0,0.0,73000,-1.9948471093177795,0.4917410810291767,-1.622813675403595
74000,0,113.95812491883042,0.0004096031188964844,0.00012969970703125,0.00906991958618164,73975.5,372.6153204764608,1000.0,74.0,241.95989236646727,88.84655155649055,1000.0,1000.0,0.0,74000,-1.9946513962745667,0.5959774993360043,-1.694865345954895
75000,0,115.12850143419843,0.00045013427734375,0.0001251697540283203,0.009022235870361328,74975.5,332.14414852024277,1000.0,75.0,302.6645046790325,80.95490461457722,1000.0,1000.0,0.0,75000,-1.9945724296569824,0.6314063167572022,-1.6154910516738892
76000,0,87.36342383144789,0.00043272972106933594,0.00011658668518066406,0.009194612503051758,75975.5,367.6271877787251,1000.0,76.0,292.9785201665475,75.63682715460443,1000.0,1000.0,0.0,76000,-1.9947390818595887,0.8986983984708786,-1.9895851469039918
77000,0,115.47119238352819,0.00043010711669921875,0.00013494491577148438,0.009488582611083984,76975.5,406.0578607921668,1000.0,77.0,206.2109713475558,119.74282633621436,1000.0,1000.0,0.0,77000,-1.994493772983551,1.0132881411910057,-2.1733991432189943
78000,0,119.25800398066534,0.0004165172576904297,0.00012063980102539062,0.008944034576416016,77975.5,385.1327277624567,1000.0,78.0,264.71549190587035,96.49730461189141,1000.0,1000.0,0.0,78000,-1.993867793083191,1.1765546822547912,-2.287456946372986
79000,0,111.55443589569006,0.0004076957702636719,0.00014257431030273438,0.010224103927612305,78975.5,362.67947326675204,1000.0,79.0,161.91640684526888,145.16651153171736,1000.0,1000.0,0.0,79000,-1.9932829356193542,1.1616429889202118,-2.29412428855896
80000,0,113.4919543986986,0.0005805492401123047,0.00014591217041015625,0.012918949127197266,79975.5,295.91153189127533,1000.0,80.0,39.377693803460126,117.35951587516956,1000.0,1000.0,0.0,80000,-1.9924198579788208,1.1492055368423462,-2.354812319278717
81000,0,120.86934319737045,0.00047969818115234375,0.0001285076141357422,0.009292840957641602,80975.5,19.90125837728405,1000.0,81.0,99.5510244967031,100.42142671748694,1000.0,1000.0,0.0,81000,-1.992406620979309,1.1479182079434396,-2.5236998319625856
82000,0,115.40701273787558,0.0004439353942871094,0.0001304149627685547,0.009191274642944336,81975.5,258.2427131570066,1000.0,82.0,14.580049814783692,0.5085320606132848,1000.0,1000.0,0.0,82000,-1.992540466785431,0.9069883398711681,-2.288419954776764
83000,0,90.37691379822284,0.00041365623474121094,0.00012087821960449219,0.00948953628540039,82975.5,15.75054765447394,1000.0,83.0,5.279656242447947,0.5131677033089882,1000.0,1000.0,0.0,83000,-1.9919951629638672,0.8399890756607056,-2.4104361283779143
84000,0,121.92177108041487,0.0005807876586914062,0.00015664100646972656,0.012869596481323242,83975.5,1.7341061099421027,1000.0,84.0,0.11038930117249182,0.035311224031069594,1000.0,1000.0,0.0,84000,-1.991504237651825,0.6503687670826912,-2.2303167676925657
85000,0,117.50212071193168,0.0004477500915527344,0.00012302398681640625,0.01701211929321289,84975.5,2.626622276295847,1000.0,85.0,2.694693404718913,0.24089382835859582,1000.0,1000.0,0.0,85000,-1.9911577916145324,0.7344493560492993,-2.565555353164673
86000,0,119.81343138621577,0.0004425048828125,0.00013113021850585938,0.009272336959838867,85975.5,1.1032039972437304,1000.0,86.0,0.053431030611715655,0.042677076492580346,1000.0,1000.0,0.0,86000,-1.991045789718628,0.45170639783143995,-2.0659177541732787
87000,0,82.32981595496646,0.00044417381286621094,0.0001201629638671875,0.009368896484375,86975.5,2.7877801201750745,1000.0,87.0,3.2222121262037478,0.826072924489977,1000.0,1000.0,0.0,87000,-1.9906850624084473,0.13492682337760925,-1.9802666425704956
88000,0,115.74095332285466,0.0003757476806640625,0.00014400482177734375,0.009059429168701172,87975.5,5.9376768397262,1000.0,88.0,1.2534330026528981,0.5254628288500962,1000.0,1000.0,0.0,88000,-1.9908447122573854,0.2930107197165489,-2.3153334951400755
89000,0,120.616439341,0.00043010711669921875,0.00012087821960449219,0.010335683822631836,88975.5,1.847805406165532,1000.0,89.0,0.9555998070188394,0.3370035926003331,1000.0,1000.0,0.0,89000,-1.9910606598854066,0.33538376569747924,-2.1979701328277588
90000,0,116.01095081702411,0.00045180320739746094,0.00011968612670898438,0.009215116500854492,89975.5,1.379396367122491,1000.0,90.0,10.684193635115914,8.140292394147876,1000.0,1000.0,0.0,90000,-1.9909170150756836,0.24517257511615753,-2.1772558069229127
91000,0,94.23686924402524,0.0003960132598876953,0.0001289844512939453,0.010133028030395508,90975.5,56.18736751763648,1000.0,91.0,153.69535965487248,94.44004372130892,1000.0,1000.0,0.0,91000,-1.9911050820350646,0.3654282084107399,-2.2093838024139405
92000,0,120.08188108919026,0.00045108795166015625,0.00012946128845214844,0.00976419448852539,91975.5,301.59499179179915,1000.0,92.0,43.87238927434881,75.63558786017566,1000.0,1000.0,0.0,92000,-1.9910345911979674,0.19795145809650422,-1.862914868593216
93000,0,114.87416794843142,0.00045752525329589844,0.0001308917999267578,0.01009225845336914,92975.5,13.511106872006874,1000.0,93.0,19.45800177524034,28.268055086441247,1000.0,1000.0,0.0,93000,-1.9908571100234986,0.2563354144990444,-1.9648657274246215
94000,0,116.84372101056643,0.00047707557678222656,0.00012040138244628906,0.008885383605957031,93975.5,0.06933611759350666,1000.0,94.0,0.549609379227363,0.234550844772115,1000.0,1000.0,0.0,94000,-1.9912761926651001,-0.0328180992603302,-1.6771982383728028
95000,0,118.58935826714882,0.0006058216094970703,0.00014734268188476562,0.013262510299682617,94975.5,1.224555871216592,1000.0,95.0,0.5879872437022213,0.24025715756588958,1000.0,1000.0,0.0,95000,-1.991072723865509,-0.030531434714794158,-1.5559927010536194
96000,0,118.39112644633325,0.0004162788391113281,0.0001239776611328125,0.00944066047668457,95975.5,0.2008309445312505,1000.0,96.0,0.048288842760656134,0.06536709187804313,1000.0,1000.0,0.0,96000,-1.991114661693573,-0.24202052727341652,-1.4426659536361695
97000,0,116.97393572310254,0.00045180320739746094,0.00012755393981933594,0.009576082229614258,96975.5,1.2620764340679695,1000.0,97.0,0.008528383104591641,0.007189536407529304,1000.0,1000.0,0.0,97000,-1.9916073632240296,-0.23093488052487374,-1.6246288657188415
98000,0,92.56137650020656,0.0005116462707519531,0.00011873245239257812,0.008765220642089844,97975.5,0.5178548348041364,1000.0,98.0,0.045958985364641936,0.13094927555931915,1000.0,1000.0,0.0,98000,-1.9910597133636474,-0.37854248031973836,-1.4819952368736267
99000,0,113.53496374398937,0.0005555152893066406,0.00015234947204589844,0.01234126091003418,98975.5,0.15014563077701404,1000.0,99.0,2.1105651105514283,4.487208726015325,1000.0,1000.0,0.0,99000,-1.9907079243659973,-0.24824819222092628,-1.6065083789825438
100000,0,114.24169873863862,0.00041604042053222656,0.0001220703125,0.008992195129394531,99975.5,0.7582809550099315,1000.0,100.0,4.300562923871199,5.051239087616596,1000.0,1000.0,0.0,100000,-1.9911445689201355,-0.2901973444223404,-1.3507640087604522
101000,0,117.20712916440783,0.0005047321319580078,0.00018739700317382812,0.009336233139038086,100975.5,18.402516992436965,1000.0,101.0,79.73787384748414,43.07992072366726,1000.0,1000.0,0.0,101000,-1.9912076783180237,-0.34002099335193636,-1.0448473000526428
102000,0,88.35288373106101,0.0004475116729736328,0.00011563301086425781,0.008941888809204102,101975.5,310.90446957847814,1000.0,102.0,23.91543282895129,44.19807106373324,1000.0,1000.0,0.0,102000,-1.9916995716094972,-0.37049281924962996,-1.0322786998748779
103000,0,116.70301430329121,0.0004379749298095703,0.00011873245239257812,0.009454727172851562,102975.5,11.387186563103002,1000.0,103.0,2.744570807002364,4.913886417793929,1000.0,1000.0,0.0,103000,-1.9920023202896118,-0.43349236011505127,-0.890017169713974
104000,0,123.06204529904198,0.00043511390686035156,0.00011992454528808594,0.008759021759033203,103975.5,1.0107937973474002,1000.0,104.0,1.0180598842508994,0.15500608192048304,1000.0,1000.0,0.0,104000,-1.9891603016853332,-0.5329072427749634,-0.6395133903622627
105000,0,121.21277976766055,0.0004069805145263672,0.00011944770812988281,0.009096860885620117,104975.5,2.3776364402151255,1000.0,105.0,0.7050195835088292,0.7556831980303873,1000.0,1000.0,0.0,105000,-1.9930017876625061,-0.7708533926308155,-0.28991625010967254
106000,0,86.30439828342006,0.0004532337188720703,0.00013017654418945312,0.009793519973754883,105975.5,4.268836515249368,1000.0,106.0,2.4691265854575986,1.7867034002559803,1000.0,1000.0,0.0,106000,-1.9932943296432495,-0.9478195033967495,-0.2917806199193001
107000,0,119.14573529520378,0.0007452964782714844,0.00015234947204589844,0.009360790252685547,106975.5,8.227557930785851,1000.0,107.0,16.6055864614759,6.69234525821072,1000.0,1000.0,0.0,107000,-1.9938307309150696,-0.9554909810423851,-0.2508301466703415
108000,0,116.70892444131809,0.00037932395935058594,0.00011444091796875,0.008794069290161133,107975.5,3.503522160646286,1000.0,108.0,0.24929239579909304,0.27326493999168955,1000.0,1000.0,0.0,108000,-1.9937142968177795,-0.8055402311682701,-0.24906640619039536
109000,0,119.33665691519175,0.0004127025604248047,0.0001850128173828125,0.009633064270019531,108975.5,1.1316413682710935,1000.0,109.0,1.9303869063194934,0.7570797842832981,1000.0,1000.0,0.0,109000,-1.993818726539612,-0.9627173748612404,-0.008737034201622008
110000,0,121.27951311279449,0.0005254745483398438,0.00013947486877441406,0.01127934455871582,109975.5,1.8303608189386626,1000.0,110.0,2.234150288007491,1.388846767466649,1000.0,1000.0,0.0,110000,-1.9941253399848937,-0.8883805537223816,-0.06867483735084534
111000,0,117.49329938954973,0.0004642009735107422,0.00015354156494140625,0.009479522705078125,110975.5,10.375873175152984,1000.0,111.0,136.40557664020622,110.04861914806551,1000.0,1000.0,0.0,111000,-1.9942152714729309,-0.9333779768645764,0.1534184330701828
112000,0,117.55118879527453,0.0004000663757324219,0.00011277198791503906,0.009181499481201172,111975.5,121.44834782438843,1000.0,112.0,75.07089360458818,75.5579813468039,1000.0,1000.0,0.0,112000,-1.9942658710479737,-0.9270605230331421,-0.01546742469072342
113000,0,91.65165107419574,0.0004596710205078125,0.0001316070556640625,0.010414600372314453,112975.5,89.44477269085074,1000.0,113.0,25.357054938331768,26.409647786994334,1000.0,1000.0,0.0,113000,-1.9942826914787293,-0.9301997563242912,-0.04888206601142883
114000,0,117.29562843975123,0.0005910396575927734,0.0001666545867919922,0.013076543807983398,113975.5,14.696871294300125,1000.0,114.0,31.204450956316464,12.471929039943367,1000.0,1000.0,0.0,114000,-1.9934161972999573,-1.1074281442165375,0.22265290796756745
115000,0,114.74356098367006,0.000438690185546875,0.000125885009765625,0.010067939758300781,114975.5,20.64413826850081,1000.0,115.0,17.905635507920543,37.590135558422666,1000.0,1000.0,0.0,115000,-1.9942676472663878,-1.133066528737545,-0.04671865701675415
116000,0,106.82423415071466,0.0004284381866455078,0.00012493133544921875,0.008700132369995117,115975.5,5.073988558639618,1000.0,116.0,3.819677521655118,0.8751999829192644,1000.0,1000.0,0.0,116000,-1.994767189025879,-1.0197514599561692,0.023186038732528686
117000,0,83.87567941575244,0.00041556358337402344,0.00012373924255371094,0.00937795639038086,116975.5,17.854223275813098,1000.0,117.0,50.01681484513297,33.86803896013488,1000.0,1000.0,0.0,117000,-1.9944783568382263,-1.0666103932261466,-0.05334701120853424
118000,0,115.74165597361922,0.0004673004150390625,0.00011897087097167969,0.008779764175415039,117975.5,49.65692566859224,1000.0,118.0,48.19176821533807,22.105851345554132,1000.0,1000.0,0.0,118000,-1.994549036026001,-1.0691843947768211,0.21774694710969925
119000,0,114.12587656143032,0.00044345855712890625,0.00012063980102539062,0.009383678436279297,118975.5,11.790082505326252,1000.0,119.0,6.689638488058217,0.5238291447088873,1000.0,1000.0,0.0,119000,-1.9948314642906189,-0.9360074555873871,-0.04476666629314423
120000,0,118.05170819192455,0.0004696846008300781,0.0001354217529296875,0.010969161987304688,119975.5,15.130067316424192,1000.0,120.0,25.056804712190093,24.678391155265093,1000.0,1000.0,0.0,120000,-1.9947119569778442,-0.9883446776866913,-0.07908629268407821
121000,0,113.44216572823564,0.0005750656127929688,0.00014710426330566406,0.013754844665527344,120975.5,25.049543335629036,1000.0,121.0,35.725126500669575,9.311398536530639,1000.0,1000.0,0.0,121000,-1.9948929977416991,-0.7664735502004624,-0.29628951728343966
122000,0,114.76139349743515,0.00039696693420410156,0.00013637542724609375,0.009137868881225586,121975.5,45.146546058031355,1000.0,122.0,43.76261628910359,13.222699447674207,1000.0,1000.0,0.0,122000,-1.9952074265480042,-0.8516550780832768,-0.27125868648290635
123000,0,117.00036598320048,0.0006139278411865234,0.00016427040100097656,0.011798620223999023,122975.5,54.11104876390885,1000.0,123.0,17.406690416354373,20.66057159479931,1000.0,1000.0,0.0,123000,-1.9951724076271058,-0.7783523470163345,-0.2964789387583733
124000,0,89.19109497631526,0.00041985511779785156,0.00012612342834472656,0.010002613067626953,123975.5,47.894005546687715,1000.0,124.0,88.14970624459849,37.542715708062204,1000.0,1000.0,0.0,124000,-1.994909281730652,-0.8649930992722511,-0.11470582425594329
125000,0,119.37456134309132,0.0006229877471923828,0.00021576881408691406,0.01407623291015625,124975.5,65.91779117455579,1000.0,125.0,71.00491182937792,15.011151081215065,1000.0,1000.0,0.0,125000,-1.994866306781769,-0.8397211658954621,-0.22128746628761292
126000,0,119.61716156557648,0.00043129920959472656,0.0001518726348876953,0.009833335876464844,125975.5,88.42606068032285,1000.0,126.0,80.88554595971037,47.23267376694545,1000.0,1000.0,0.0,126000,-1.994532494544983,-0.735467987805605,-0.5358613097667694
127000,0,114.48736090002271,0.00040340423583984375,0.00011968612670898438,0.008791685104370117,126975.5,159.70829958703243,1000.0,127.0,247.13501354708347,91.37140751013028,1000.0,1000.0,0.0,127000,-1.9946362972259521,-0.5827093473076821,-0.5334367841482163
128000,0,83.00986111006658,0.0003750324249267578,0.0001621246337890625,0.008854866027832031,127975.5,80.6680675384508,1000.0,128.0,159.5892509968021,81.12159969727468,1000.0,1000.0,0.0,128000,-1.9944507694244384,-0.5649396523833274,-0.580796549320221
129000,0,115.1350116828587,0.00040149688720703125,0.0001418590545654297,0.009202718734741211,128975.5,145.05718271169658,1000.0,129.0,110.06922657958123,39.726971025642705,1000.0,1000.0,0.0,129000,-1.9943641829490661,-0.3684649804234505,-0.8961851328611374
130000,0,117.40358152939412,0.00043201446533203125,0.00012421607971191406,0.009233951568603516,129975.5,73.10078828662343,1000.0,130.0,124.8741944681417,30.13646415523673,1000.0,1000.0,0.0,130000,-1.9939555525779724,-0.5042237189412117,-0.6162049329280853
131000,0,115.95565805457427,0.0003952980041503906,0.00011587142944335938,0.009126663208007812,130975.5,160.33262809549728,1000.0,131.0,178.5628703902583,48.732759515395145,1000.0,1000.0,0.0,131000,-1.9934963297843933,-0.6240027816593647,-0.7308420506119728
132000,0,122.51415645740678,0.0006003379821777344,0.00015234947204589844,0.012514114379882812,131975.5,142.83184166945784,1000.0,132.0,125.67494687367078,36.57487918116765,1000.0,1000.0,0.0,132000,-1.9931651329994202,-0.5238621404767037,-0.8928965020179749
133000,0,119.35139466537365,0.0004277229309082031,0.00012445449829101562,0.009522199630737305,132975.5,100.4981059558121,1000.0,133.0,119.99424761725649,49.38607489622835,1000.0,1000.0,0.0,133000,-1.9930843615531921,-0.6922379073500633,-0.5331874716281891
134000,0,108.31579849866694,0.00038433074951171875,0.00011301040649414062,0.009125947952270508,133975.5,265.1974525535916,1000.0,134.0,144.49383125306463,56.82860182750333,1000.0,1000.0,0.0,134000,-1.9919495606422424,-0.46840785562992093,-0.7464423453807831
135000,0,88.08528154165371,0.00042319297790527344,0.00013375282287597656,0.009010791778564453,134975.5,231.01927646527835,1000.0,135.0,203.90137773209773,73.24442151441022,1000.0,1000.0,0.0,135000,-1.9925330662727356,-0.4404249431192875,-0.8711422067880631
136000,0,115.5436549258139,0.0004496574401855469,0.0001251697540283203,0.009848833084106445,135975.5,199.18070223507095,1000.0,136.0,158.76688267661444,43.06609938376903,1000.0,1000.0,0.0,136000,-1.9918122792243957,-0.32412793979048726,-0.9902592957019806
137000,0,112.51334557281076,0.00039958953857421875,0.00011444091796875,0.009235858917236328,136975.5,362.29003572064903,1000.0,137.0,186.31072921307629,53.61591848408259,1000.0,1000.0,0.0,137000,-1.9908352875709534,-0.35824130788445474,-0.8913159936666488
138000,0,111.6566527261256,0.0004096031188964844,0.00011968612670898438,0.009343147277832031,137975.5,87.36969270436826,1000.0,138.0,117.24859460399789,35.61166070242093,1000.0,1000.0,0.0,138000,-1.992250111103058,-0.2904261374473572,-1.0053857910633086
139000,0,118.74937713472916,0.0005948543548583984,0.00015616416931152344,0.01204371452331543,138975.5,74.82778198479875,1000.0,139.0,270.1671439523785,105.13669240282569,1000.0,1000.0,0.0,139000,-1.9914856195449828,-0.27752795815467834,-1.1282490003108978
140000,0,114.66325781889877,0.00040650367736816406,0.00012111663818359375,0.009252548217773438,139975.5,63.199382102352864,1000.0,140.0,297.03784596262375,117.75467709385106,1000.0,1000.0,0.0,140000,-1.9916681003570558,-0.385526260137558,-0.7984866034984589
141000,0,114.1709216796336,0.00041961669921875,0.0001125335693359375,0.00896596908569336,140975.5,115.37554235456795,1000.0,141.0,358.20939215244005,79.87797575983244,1000.0,1000.0,0.0,141000,-1.9920007395744324,-0.369690757393837,-0.9070614600181579
142000,0,100.64191160662182,0.00042176246643066406,0.00012350082397460938,0.009469270706176758,141975.5,212.36794297884967,1000.0,142.0,450.5735782795681,75.30885334082039,1000.0,1000.0,0.0,142000,-1.990828402042389,-0.46125745683908465,-1.0321050357818604
143000,0,114.41072382314704,0.0006098747253417969,0.0001506805419921875,0.015411853790283203,142975.5,441.7412355739776,1000.0,143.0,419.4464713348866,85.01562405948162,1000.0,1000.0,0.0,143000,-1.9913147354125977,-0.4057405403256416,-1.08400239109993
144000,0,117.12707058893835,0.0004057884216308594,0.00011467933654785156,0.00857686996459961,143975.5,320.0077009472715,1000.0,144.0,354.64075363484505,207.9697288122842,1000.0,1000.0,0.0,144000,-1.9914743494987488,-0.23806748479604722,-1.0918908178806306
145000,0,104.453937757536,0.00044274330139160156,0.00012063980102539062,0.009638071060180664,144975.5,351.7050506234791,1000.0,145.0,392.36560287270197,176.4728292442265,1000.0,1000.0,0.0,145000,-1.9904008412361145,-0.09565939962863922,-1.2291548669338226
146000,0,89.35732157100686,0.0004572868347167969,0.00012063980102539062,0.009338617324829102,145975.5,91.14858862612098,1000.0,146.0,556.4571684214133,30.683527340575335,1000.0,1000.0,0.0,146000,-1.990908489227295,-0.36632080107927323,-0.9153967595100403
147000,0,121.87054532099258,0.0004363059997558594,0.0001289844512939453,0.009070396423339844,146975.5,529.9568784785212,1000.0,147.0,481.6276630347488,98.73826626316355,1000.0,1000.0,0.0,147000,-1.9902223253250122,-0.2596178326010704,-1.2517213380336762
148000,0,119.41051806857095,0.0003933906555175781,0.00011420249938964844,0.008601188659667969,147975.5,495.8408182141185,1000.0,148.0,413.88781237048806,68.94305241256804,1000.0,1000.0,0.0,148000,-1.9893230700492859,0.17942102372646332,-1.65648193359375
149000,0,116.49485337821699,0.0004329681396484375,0.00012183189392089844,0.009912967681884766,148975.5,470.29298654904613,1000.0,149.0,450.8996375278656,73.01373546057559,1000.0,1000.0,0.0,149000,-1.9900534987449645,0.21199194476008415,-1.7048275971412659
150000,0,85.78677171409754,0.0003790855407714844,0.00011539459228515625,0.008516311645507812,149975.5,509.6171671747727,1000.0,150.0,425.64666880383993,112.1970640497272,1000.0,1000.0,0.0,150000,-1.9901838493347168,0.5107241415977478,-2.11999351978302
151000,0,124.22178942230688,0.0004181861877441406,0.0001647472381591797,0.009287118911743164,150975.5,496.7398383471114,1000.0,151.0,449.0895861643818,109.10553961652946,1000.0,1000.0,0.0,151000,-1.9905436420440674,0.6311378990113735,-2.1018989610672
152000,0,121.01092481536641,0.00041484832763671875,0.00016355514526367188,0.009185552597045898,151975.5,523.5057777860158,1000.0,152.0,530.5875156360064,19.049664381221923,1000.0,1000.0,0.0,152000,-1.9902086353302002,0.6418697394430637,-2.0878179717063903
153000,0,117.1814566102426,0.0004279613494873047,0.0001220703125,0.009028196334838867,152975.5,487.33250996869754,1000.0,153.0,540.8951595630094,21.764933757011246,1000.0,1000.0,0.0,153000,-1.9908123779296876,1.0003805965185166,-2.501805145740509
154000,0,117.88143572217523,0.0006220340728759766,0.00021123886108398438,0.014492034912109375,153975.5,277.8531953389904,1000.0,154.0,239.0933968063544,77.47213954302472,1000.0,1000.0,0.0,154000,-1.991056182384491,0.9252545392513275,-2.4906814098358154
155000,0,119.16225404323964,0.00038909912109375,0.00011444091796875,0.008867025375366211,154975.5,490.8533041732392,1000.0,155.0,435.35062854199214,183.28591388412772,1000.0,1000.0,0.0,155000,-1.990562882423401,1.174168336391449,-2.6010176515579224
156000,0,116.94836521158201,0.0004525184631347656,0.00012111663818359375,0.00915670394897461,155975.5,151.20825958066172,1000.0,156.0,323.35548267511894,130.85752123556446,1000.0,1000.0,0.0,156000,-1.9914897274971008,0.9288683125376701,-2.513953604698181
157000,0,120.81071536996104,0.0004029273986816406,0.00011968612670898438,0.009414434432983398,156975.5,545.6380047281843,1000.0,157.0,430.4375345613744,160.14585610407687,1000.0,1000.0,0.0,157000,-1.990296378135681,1.3810828393697738,-3.131409537792206
158000,0,116.81267657098041,0.0005528926849365234,0.00013756752014160156,0.011274099349975586,157975.5,78.11949413063525,1000.0,158.0,591.4353321797187,64.15336466228557,1000.0,1000.0,0.0,158000,-1.9916645002365112,1.0234607967734337,-2.6220738315582275
159000,0,112.69527461100915,0.0004277229309082031,0.0001220703125,0.009444713592529297,158975.5,243.57374869409105,1000.0,159.0,536.4236220143903,31.5748503134684,1000.0,1000.0,0.0,159000,-1.9904753804206847,0.9868459695577622,-2.672435975074768
160000,0,109.69940252944198,0.0003814697265625,0.00011181831359863281,0.009340524673461914,159975.5,381.0617560158328,1000.0,160.0,546.9450345903721,69.69866959857082,1000.0,1000.0,0.0,160000,-1.9915441727638246,0.8420456090569496,-2.4007383298873903
161000,0,87.36316907442995,0.0005443096160888672,0.00012040138244628906,0.009119272232055664,160975.5,479.6427478222768,1000.0,161.0,484.3123056378984,107.26736668354498,1000.0,1000.0,0.0,161000,-1.9916175627708435,1.176468240916729,-2.7530051183700563
162000,0,118.56488653195989,0.0005795955657958984,0.00019621849060058594,0.014017581939697266,161975.5,560.5612814869188,1000.0,162.0,536.0080710656904,46.16569522743061,1000.0,1000.0,0.0,162000,-1.9909928369522094,1.462234765291214,-3.2178600072860717
163000,0,121.8485944850803,0.0004343986511230469,0.0001506805419921875,0.009241819381713867,162975.5,198.1159056900507,1000.0,163.0,469.22912720810916,69.89938112828972,1000.0,1000.0,0.0,163000,-1.9916080832481384,1.063238699734211,-2.6460656213760374
164000,0,117.8344088619437,0.0003871917724609375,0.00011444091796875,0.009021282196044922,163975.5,276.172151756872,1000.0,164.0,375.3780738881302,146.78458659124016,1000.0,1000.0,0.0,164000,-1.9917993235588074,1.2610904210805893,-2.70505317568779
165000,0,83.30547416724397,0.00043582916259765625,0.0001366138458251953,0.00921630859375,164975.5,508.7608840526735,1000.0,165.0,533.4223472346201,71.94471697524776,1000.0,1000.0,0.0,165000,-1.991070637702942,1.3702383008599281,-3.0518788385391233
166000,0,119.32273749876248,0.00043320655822753906,0.00014543533325195312,0.009304046630859375,165975.5,154.87570937691737,1000.0,166.0,397.005364419998,140.42155745587806,1000.0,1000.0,0.0,166000,-1.9901245164871215,1.2133215975761413,-2.9439611339569094
167000,0,111.06031880527459,0.00038623809814453125,0.00011372566223144531,0.008584976196289062,166975.5,520.8914062050184,1000.0,167.0,304.0467651671618,132.39338639060028,1000.0,1000.0,0.0,167000,-1.9905212664604186,1.7259709173440934,-3.1594301366806032
168000,0,118.42221319987283,0.00044798851013183594,0.00012183189392089844,0.009045124053955078,167975.5,279.810577848872,1000.0,168.0,217.81238337496166,136.68574550342456,1000.0,1000.0,0.0,168000,-1.989524929523468,1.93368982732296,-3.6561823511123657
169000,0,104.19657691604462,0.0004341602325439453,0.0001308917999267578,0.008842945098876953,168975.5,261.78774209184905,1000.0,169.0,370.64743847639477,130.20442569540697,1000.0,1000.0,0.0,169000,-1.9904848194122315,1.5560183861851693,-3.481073331832886
170000,0,122.52088458691487,0.00044035911560058594,0.00011897087097167969,0.009017467498779297,169975.5,530.2571891622697,1000.0,170.0,352.284811157677,167.07394737352612,1000.0,1000.0,0.0,170000,-1.99002685546875,1.9934066557884216,-3.7381122970581053
171000,0,122.77782103604792,0.00047206878662109375,0.0001251697540283203,0.009533882141113281,170975.5,137.6024769450981,1000.0,171.0,331.97585850332933,135.08080421776202,1000.0,1000.0,0.0,171000,-1.9895787143707275,1.7838790985941886,-3.5436943769454956
172000,0,113.54227857476599,0.0004601478576660156,0.0001201629638671875,0.009303569793701172,171975.5,517.1943303727282,1000.0,172.0,552.5737530578608,26.303829522106277,1000.0,1000.0,0.0,172000,-1.9899473333358764,1.6986821117997168,-3.5968027973175047
173000,0,118.1940891458123,0.0006127357482910156,0.00015306472778320312,0.012193918228149414,172975.5,457.1842183539315,1000.0,173.0,342.4522907517963,171.55800518932466,1000.0,1000.0,0.0,173000,-1.989109935760498,1.962913348674774,-3.6798724937438965
174000,0,113.20676902580679,0.0004172325134277344,0.00012254714965820312,0.009191274642944336,173975.5,486.61209804021615,1000.0,174.0,373.4225480088249,182.9453447617936,1000.0,1000.0,0.0,174000,-1.9887139105796814,1.9356460386514664,-3.90057354927063
175000,0,123.39607032301302,0.0004010200500488281,0.00012969970703125,0.00926971435546875,174975.5,284.0392118582142,1000.0,175.0,411.8894969823652,149.51763464517967,1000.0,1000.0,0.0,175000,-1.9889104127883912,1.9230613780021668,-4.023974332809448
176000,0,76.52079996205252,0.0004603862762451172,0.00014400482177734375,0.00957036018371582,175975.5,447.8809639225574,1000.0,176.0,473.9695694619315,116.46399331666078,1000.0,1000.0,0.0,176000,-1.9893340969085693,2.100835226178169,-4.093090896606445
177000,0,115.02778128205269,0.00041556358337402344,0.00011920928955078125,0.009140253067016602,176975.5,501.1711310110423,1000.0,177.0,372.42361798543845,165.74693001788827,1000.0,1000.0,0.0,177000,-1.9878384137153626,2.1451299744844436,-4.240529804229737
178000,0,120.45162928169624,0.00045752525329589844,0.00012254714965820312,0.008654117584228516,177975.5,543.4804890722663,1000.0,178.0,392.1314380066315,132.04037357427134,1000.0,1000.0,0.0,178000,-1.989100079536438,2.4703382557630538,-4.711415872573853
179000,0,119.90104449853037,0.00045752525329589844,0.0001220703125,0.008922338485717773,178975.5,235.32612955447235,1000.0,179.0,349.1598196643843,125.553886828083,1000.0,1000.0,0.0,179000,-1.9881418704986573,2.579644682407379,-4.616866998672485
180000,0,119.8612978946063,0.0005466938018798828,0.0001475811004638672,0.014198780059814453,179975.5,381.0494397581547,1000.0,180.0,278.7517870455578,110.2492335945676,1000.0,1000.0,0.0,180000,-1.9872273445129394,2.5893901669979096,-4.519400625228882
181000,0,118.55644109975319,0.00046181678771972656,0.00011444091796875,0.008563995361328125,180975.5,347.55399890499285,1000.0,181.0,343.6149072974701,135.579927946415,1000.0,1000.0,0.0,181000,-1.9886657500267029,2.564166102409363,-4.414927682876587
182000,0,116.64589218740527,0.0005981922149658203,0.00020813941955566406,0.009173154830932617,181975.5,367.4608150832802,1000.0,182.0,279.0382948799082,108.30650159305907,1000.0,1000.0,0.0,182000,-1.9833018159866334,2.583662294149399,-4.444435033798218
183000,0,103.04007609771244,0.00043964385986328125,0.00011777877807617188,0.009326457977294922,182975.5,539.0512461083961,1000.0,183.0,361.3194814763168,181.65512486923916,1000.0,1000.0,0.0,183000,-1.988679711818695,2.6119149434566498,-4.586389694213867
184000,0,116.46198905103408,0.0005471706390380859,0.0001518726348876953,0.012840986251831055,183975.5,138.58588608205812,1000.0,184.0,435.268453820369,102.55354704929945,1000.0,1000.0,0.0,184000,-1.988656027317047,2.5718599170446397,-4.393251876831055
185000,0,119.70230134825137,0.0003898143768310547,0.00011348724365234375,0.008816719055175781,184975.5,277.16200941620616,1000.0,185.0,361.3038954103527,192.977028404759,1000.0,1000.0,0.0,185000,-1.9888805270195007,2.475615150928497,-4.160955228805542
186000,0,113.16706122072345,0.00044274330139160156,0.00013399124145507812,0.009279727935791016,185975.5,593.0399265624498,1000.0,186.0,297.79188815461805,143.3018479664681,1000.0,1000.0,0.0,186000,-1.9898616528511048,2.7638211822509766,-4.547858810424804
187000,0,88.72297254990887,0.0004153251647949219,0.00016236305236816406,0.011481285095214844,186975.5,393.7258304826751,1000.0,187.0,282.44482316315504,110.14406993168468,1000.0,1000.0,0.0,187000,-1.9876156330108643,2.746051969528198,-4.911455526351928
188000,0,115.3474721373817,0.00045680999755859375,0.00014162063598632812,0.009516477584838867,187975.5,34.592549455825754,1000.0,188.0,265.07229195487525,129.02657729583362,1000.0,1000.0,0.0,188000,-1.9882956409454347,2.4966776716709136,-4.609675664901733
189000,0,118.40910797597209,0.0004119873046875,0.00013208389282226562,0.009326934814453125,188975.5,211.4128578532536,1000.0,189.0,328.8365193312917,77.17397951376213,1000.0,1000.0,0.0,189000,-1.9878238177299499,2.703349742591381,-4.6850119972229
190000,0,122.93082901660706,0.00043320655822753906,0.0001621246337890625,0.008987188339233398,189975.5,182.03856587558084,1000.0,190.0,194.83585342629812,106.03415220033105,1000.0,1000.0,0.0,190000,-1.988867280483246,2.4728450238704682,-4.485576992034912
191000,0,111.76578743869182,0.0004780292510986328,0.00011897087097167969,0.009027957916259766,190975.5,206.14066604143898,1000.0,191.0,155.05850560113646,81.88224560454066,1000.0,1000.0,0.0,191000,-1.988287196159363,2.9768269383907318,-4.991033267974854
192000,0,118.99396391969596,0.0004687309265136719,0.00016188621520996094,0.01085805892944336,191975.5,168.75578634598554,1000.0,192.0,481.17371924844326,81.88423774033122,1000.0,1000.0,0.0,192000,-1.9865700483322144,2.610160458087921,-4.840713701248169
193000,0,120.02044262986536,0.00040435791015625,0.0001163482666015625,0.009006500244140625,192975.5,390.39975613774357,1000.0,193.0,355.18599992434457,166.52644037925074,1000.0,1000.0,0.0,193000,-1.9883115100860596,2.896265443563461,-4.963959217071533
194000,0,105.88762184146283,0.00048804283142089844,0.00011491775512695312,0.008844614028930664,193975.5,260.54576390965616,1000.0,194.0,169.51363668570974,60.84801305078076,1000.0,1000.0,0.0,194000,-1.9877029991149902,3.0136064371466635,-4.686166467666626
195000,0,113.1284186904595,0.0006718635559082031,0.00023674964904785156,0.013323783874511719,194975.5,271.74573619851554,1000.0,195.0,192.50323248832302,91.33114048936451,1000.0,1000.0,0.0,195000,-1.9883423399925233,3.013688158988953,-4.852877426147461
196000,0,120.93632647788819,0.0004792213439941406,0.00019407272338867188,0.010154008865356445,195975.5,441.9354537283489,1000.0,196.0,364.69514876676794,117.01684825849942,1000.0,1000.0,0.0,196000,-1.9878204822540284,3.1807899379730227,-4.7758286094665525
197000,0,118.6641769931534,0.0004909038543701172,0.00012564659118652344,0.009270906448364258,196975.5,201.46693045082,1000.0,197.0,400.70318480482905,173.48479715583719,1000.0,1000.0,0.0,197000,-1.986592137813568,3.182982876300812,-4.787629051208496
198000,0,81.50052697522439,0.000396728515625,0.00011467933654785156,0.009217977523803711,197975.5,577.9971402521314,1000.0,198.0,482.19185477247464,93.83796180316165,1000.0,1000.0,0.0,198000,-1.9884348893165589,3.0561687928438186,-4.910078859329223
199000,0,117.46585643318403,0.0004646778106689453,0.0001201629638671875,0.00928497314453125,198975.5,206.96606885978514,1000.0,199.0,175.90109251396396,54.53697701774324,1000.0,1000.0,0.0,199000,-1.9876908087730407,3.286287133693695,-5.125873250961304
200000,0,121.4506773410426,0.0004439353942871094,0.00012302398681640625,0.010937690734863281,199975.5,137.33506224466817,1000.0,200.0,528.8217365779378,152.5357710823246,1000.0,1000.0,0.0,200000,-1.9885762739181518,3.201336216330528,-4.970738115310669
