niicovila/Q-Reps/lightning_research_framework/results/XSAC_TEST/sac_5_tuned/log_5_.csv
time/steps,time/epochs,time/steps_per_second,time/dataset,time/preprocess,time/train_step,train/env_steps,train/q_loss,train/target_q,train/alpha_loss,train/actor_loss,train/entropy,train/alpha,train/reward,train/length,train/num_ep,eval/reward,eval/stddev,eval/length,eval/discount,eval/early_termination,step
1000,0,79.23738131312177,0.0005042552947998047,0.0001583099365234375,0.01473379135131836,988.0,-23.71076347351074,-0.021934111416339875,0.9710823943217596,-0.36084231237570447,3.955601473649343,0.0975313987582922,3.1914743532340744,1000.0,1.0,0.13518757848041374,0.07234853042287888,1000.0,1000.0,0.0,1000
2000,0,75.58584697228,0.000453948974609375,0.00018525123596191406,0.014627218246459961,1988.0,-22.409011459350587,-0.017714374028146268,0.9348452091217041,-0.350907139480114,4.0743221044540405,0.09278575082619984,4.804558103832744,1000.0,2.0,0.17673076012935157,0.05757739293561779,1000.0,1000.0,0.0,2000
3000,0,75.9313314790583,0.0004928112030029297,0.00013637542724609375,0.014527320861816406,2988.0,-25.246029510498047,-0.01523927304893732,0.8913834790388743,-0.341341865559419,4.082651058832805,0.08839916251599789,4.318906968636803,1000.0,3.0,0.1764570426243207,0.06297163763276174,1000.0,1000.0,0.0,3000
4000,0,74.17240279238679,0.0005047321319580078,0.0001392364501953125,0.015388965606689453,3988.0,-24.506641998291016,-0.013753384947776795,0.8496761272350947,-0.3261061857144038,4.078664859135945,0.08429646988709767,3.3618706422946696,1000.0,4.0,0.29583313679329754,0.09685574923685875,1000.0,1000.0,0.0,4000
5000,0,74.34452520795107,0.0005695819854736328,0.0001480579376220703,0.015089750289916992,4988.0,-24.2408447265625,-0.011325910575687886,0.8109001119931539,-0.3127712085843086,4.080259283383687,0.0804368748019139,4.559592646597066,1000.0,5.0,0.29359225840008646,0.04980775325015702,1000.0,1000.0,0.0,5000
6000,0,74.71539310559082,0.0005869865417480469,0.00014281272888183594,0.015185356140136719,5988.0,-23.626865768432616,-0.009070515055209399,0.7739975949128469,-0.29928720990816754,4.0786270300547285,0.07678882715602715,3.9555146475664107,1000.0,6.0,0.9119387711465938,0.826714299830197,1000.0,1000.0,0.0,6000
7000,0,74.39954306310909,0.0007243156433105469,0.0001819133758544922,0.017059326171875,6988.0,-23.41011444091797,-0.006350845349952578,0.73888298869133,-0.2874243805805842,4.075163880983989,0.07333033593992393,5.007389842475831,1000.0,7.0,0.9183725140526192,0.19047116675104137,1000.0,1000.0,0.0,7000
8000,0,74.1754984642505,0.0006134510040283203,0.00014543533325195312,0.015436172485351562,7988.0,-23.066128158569335,-0.0002624311950057745,0.7054889798164368,-0.2805895258982976,4.07099974155426,0.07004513156910737,6.855517696097784,1000.0,8.0,5.027821767459703,3.260134348670863,1000.0,1000.0,0.0,8000
9000,0,74.36725042677396,0.0006563663482666016,0.0001475811004638672,0.0160219669342041,8988.0,-23.143245849609375,0.005673657194711268,0.6737725635369619,-0.2720935121178627,4.067620555559794,0.06691860842208068,7.420741516111776,1000.0,9.0,23.059686131981653,0.20357383968778156,1000.0,1000.0,0.0,9000
10000,0,74.29569456302632,0.0006275177001953125,0.00017571449279785156,0.014846324920654297,9988.0,-22.971561279296875,0.010913074016571045,0.6432789166768392,-0.26717441777388257,4.059581160545349,0.06394107391436894,8.222844000200627,1000.0,10.0,28.07313676421514,0.28932506161424826,1000.0,1000.0,0.0,10000
11000,0,74.97218686991464,0.0006442070007324219,0.00019049644470214844,0.0163116455078125,10988.0,-22.353294219970703,0.018278123699128627,0.6141937623421351,-0.2617653136452039,4.051040728886922,0.06110192866375049,9.478105764396695,1000.0,11.0,30.65216435632588,0.2394706853138423,1000.0,1000.0,0.0,11000
12000,0,75.09842301161166,0.0005376338958740234,0.0001876354217529297,0.01500082015991211,11988.0,-22.074475631713867,0.02399042874574661,0.5866026729345322,-0.2562270884712537,4.044718702634175,0.058393839125831924,10.749998425524458,1000.0,12.0,35.113074055637945,0.54881556474868,1000.0,1000.0,0.0,12000
13000,0,73.81484200826581,0.0005340576171875,0.00014352798461914062,0.015656471252441406,12988.0,-21.81746795654297,0.030034460574388504,0.5601376394430796,-0.2525945094724496,4.036022901535034,0.0558076457430919,9.553035601635147,1000.0,13.0,37.9774186663843,0.953059034013354,1000.0,1000.0,0.0,13000
14000,0,75.33149562232525,0.0007417201995849609,0.0001678466796875,0.015738964080810547,13988.0,-21.299835510253907,0.044253751039505004,0.5338917622963587,-0.25328483805060387,4.008701980113983,0.053337921388447285,20.87275269725216,1000.0,14.0,36.55179743375179,2.3387923583916885,1000.0,1000.0,0.0,14000
15000,0,74.49680116799108,0.0005781650543212891,0.00014400482177734375,0.015370607376098633,14988.0,-21.12516700744629,0.054930423498153684,0.5097774912913641,-0.2548694387078285,3.9983613888422647,0.05098150049646696,20.524592378818994,1000.0,15.0,38.87158741822823,1.5963641651024758,1000.0,1000.0,0.0,15000
16000,0,75.49235663791421,0.0005216598510742188,0.00015091896057128906,0.015257120132446289,15988.0,-20.43052276611328,0.07224069938063621,0.4858507191141446,-0.2620013828078906,3.96921835343043,0.04873068196078142,30.11577182861263,1000.0,16.0,37.62091928054422,3.1067576255684273,1000.0,1000.0,0.0,16000
17000,0,75.26671629052785,0.0005784034729003906,0.00014495849609375,0.01505732536315918,16988.0,-20.455842742919923,0.07982155203819274,0.462619053820769,-0.2606948638955752,3.930102447668711,0.04658332901696364,24.15047955962092,1000.0,17.0,45.11867088930759,1.110768130980733,1000.0,1000.0,0.0,17000
18000,0,73.9740851970136,0.0006773471832275391,0.00015401840209960938,0.015970945358276367,17988.0,-20.112998962402344,0.0943892765045166,0.44082840035359067,-0.2664077952504158,3.898361921310425,0.04453149903565645,33.58915364008631,1000.0,18.0,39.30264279625205,1.4011037011619176,1000.0,1000.0,0.0,18000
19000,0,75.48724800712992,0.0005888938903808594,0.00012922286987304688,0.015168905258178711,18988.0,-19.47091743469238,0.12262339979410171,0.4190777813394864,-0.2840643400947253,3.8424745400746665,0.04257468072076639,42.59227828777078,1000.0,19.0,89.72656518326647,23.7181003793195,1000.0,1000.0,0.0,19000
20000,0,75.31131448041474,0.0005655288696289062,0.0001609325408935547,0.015225648880004883,19988.0,-18.739449157714844,0.18456342160701752,0.3973720669746399,-0.33786074817180634,3.760262370109558,0.04070964672913154,83.1070766893483,1000.0,20.0,123.63441382369106,9.048959573305204,1000.0,1000.0,0.0,20000
21000,0,74.47711761417754,0.0005733966827392578,0.00013589859008789062,0.014950990676879883,20988.0,-18.43028106689453,0.23654893219470977,0.3736221492290497,-0.38840832312901813,3.594896833101908,0.03893621638417244,79.22602731346554,1000.0,21.0,76.28301359537596,20.645525421638997,1000.0,1000.0,0.0,21000
22000,0,74.69378480203842,0.0006415843963623047,0.00015044212341308594,0.015398979187011719,21988.0,-17.708055953979493,0.1854552835226059,0.351925790309906,-0.3235854183634122,3.4460774064064026,0.03725302778184414,36.840456703609036,1000.0,22.0,48.69766195158215,23.95461510875146,1000.0,1000.0,0.0,22000
23000,0,75.06417754666384,0.0006656646728515625,0.0001404285430908203,0.015111446380615234,22988.0,-17.46581848144531,0.18152618646621704,0.33190224568049115,-0.31942737847566605,3.3099181056022644,0.03564722339312235,75.50014254473103,1000.0,23.0,87.08194603462123,32.42940710944818,1000.0,1000.0,0.0,23000
24000,0,75.17034868341347,0.0009057521820068359,0.00020074844360351562,0.016190767288208008,23988.0,-17.29456153869629,0.15092796117067336,0.31268328924973804,-0.2873697405060132,3.1654082536697388,0.034112581983208656,66.97559559423436,1000.0,24.0,75.39360559989086,31.682476117439865,1000.0,1000.0,0.0,24000
25000,0,74.38576777432064,0.0005927085876464844,0.0001373291015625,0.015259981155395508,24988.0,-17.02398094177246,0.1794049882888794,0.2978483885526657,-0.2950104574362437,3.1241289178530374,0.03264117737611135,88.56275593517708,1000.0,25.0,87.33046449844181,16.697894739065788,1000.0,1000.0,0.0,25000
26000,0,74.92204670624112,0.0006651878356933594,0.0002143383026123047,0.015397071838378906,25988.0,-17.05706771850586,0.19751443445682526,0.2847392236193021,-0.31926972915728885,3.11794779698054,0.031225668421636026,109.0386438031466,1000.0,26.0,62.7229158864899,28.878673149936635,1000.0,1000.0,0.0,26000
27000,0,74.51750128273096,0.0005185604095458984,0.00016379356384277344,0.01472926139831543,26988.0,-16.982300262451172,0.22515225172042846,0.2696985925237338,-0.3389482796192169,3.029415547847748,0.02986627273882429,101.70904957947491,1000.0,27.0,80.1027275588934,31.135739308160375,1000.0,1000.0,0.0,27000
28000,0,74.50897631305003,0.0006997585296630859,0.00014781951904296875,0.015949010848999023,27988.0,-16.719106979370117,0.24784134268760682,0.25365636746088666,-0.3623332579930623,2.877656022707621,0.028569880096862715,95.3201350188355,1000.0,28.0,40.58407319098999,24.111862225890736,1000.0,1000.0,0.0,28000
29000,0,74.59617122084131,0.0006093978881835938,0.00018215179443359375,0.01527857780456543,28988.0,-16.37886787414551,0.28491192281246186,0.24055789038538933,-0.3833574006954829,2.7998705903689065,0.02733411795149247,105.91672065494397,1000.0,29.0,54.79287326185302,30.717232067092368,1000.0,1000.0,0.0,29000
30000,0,75.15440117715443,0.0009250640869140625,0.0002014636993408203,0.016196489334106445,29988.0,-16.444514923095703,0.2312259203195572,0.2294883852203687,-0.33973055829604465,2.774053156375885,0.02615297492593527,25.809824174271515,1000.0,30.0,88.11544803150936,44.26284089757262,1000.0,1000.0,0.0,30000
31000,0,74.09949317782872,0.0008604526519775391,0.0001862049102783203,0.015666961669921875,30988.0,-16.066537322998048,0.26978336632251737,0.2150088051954905,-0.36562859763701755,2.591659426689148,0.02502310136333108,120.62360013612941,1000.0,31.0,120.17208873703184,21.899677658532536,1000.0,1000.0,0.0,31000
32000,0,74.36883274573093,0.0006318092346191406,0.00015020370483398438,0.014744758605957031,31988.0,-16.042906761169434,0.30065723836421965,0.20271681870023409,-0.39150891204675037,2.4660796523094177,0.02394249119485418,125.12442042165077,1000.0,32.0,146.69306170432247,42.420075118298485,1000.0,1000.0,0.0,32000
33000,0,74.9222608377538,0.000732421875,0.0001556873321533203,0.015246391296386719,32988.0,-15.869100494384766,0.34160612225532533,0.1911881019671758,-0.4212673058112462,2.3446841637293496,0.02290934883058071,144.34323113305524,1000.0,33.0,120.39674239875558,42.995011023448804,1000.0,1000.0,0.0,33000
34000,0,74.10064519776407,0.0006802082061767578,0.00014901161193847656,0.015145540237426758,33988.0,-15.96731128692627,0.32419457137584684,0.18168393149971962,-0.3988853345314662,2.287278890609741,0.021921299397945404,87.1390796154931,1000.0,34.0,99.04269700061387,45.45631555071999,1000.0,1000.0,0.0,34000
35000,0,75.37757943725029,0.0005850791931152344,0.0001494884490966797,0.014856338500976562,34988.0,-15.952028503417969,0.28648304045200346,0.1708745757738749,-0.36961307873328525,2.14606303970019,0.020974529286225636,61.22376966734925,1000.0,35.0,176.52584726107048,9.184022700730909,1000.0,1000.0,0.0,35000
36000,0,75.4529728547292,0.0005784034729003906,0.0001392364501953125,0.015268564224243164,35988.0,-15.798228034973144,0.315538694858551,0.16213316346208254,-0.3869618624448776,2.078102082014084,0.02006897423416376,146.09222172504187,1000.0,36.0,89.3318528540268,49.48096190039372,1000.0,1000.0,0.0,36000
37000,0,75.21720667056893,0.0006396770477294922,0.00013947486877441406,0.015591621398925781,36988.0,-15.710978775024413,0.3339163041114807,0.15248870849609375,-0.4081409772237142,1.9383550981680553,0.019207409117370844,163.0128147829017,1000.0,37.0,107.4721208188192,38.369381876622256,1000.0,1000.0,0.0,37000
38000,0,74.9844106659649,0.0006163120269775391,0.000141143798828125,0.015316247940063477,37988.0,-15.536822052001954,0.35117774724960327,0.14143773540854454,-0.4354156106710434,1.6914730568726857,0.018387317812691133,145.4619030388734,1000.0,38.0,156.4814597047034,49.727926338590336,1000.0,1000.0,0.0,38000
39000,0,75.46774374638342,0.000675201416015625,0.00014281272888183594,0.015591144561767578,38988.0,-15.323725624084473,0.37605846524238584,0.13426954175035158,-0.45542072504758835,1.6261501908302307,0.017604954075068235,168.39776879814363,1000.0,39.0,163.51889885962777,30.01714403729324,1000.0,1000.0,0.0,39000
40000,0,74.98811075838701,0.0006277561187744141,0.00018215179443359375,0.015536308288574219,39988.0,-15.399427528381347,0.4129307246208191,0.1258401988695065,-0.4907130350669225,1.4646496772766113,0.016856725172450144,168.15427303886293,1000.0,40.0,200.6526875320896,8.026210383541924,1000.0,1000.0,0.0,40000
41000,0,75.16479861451604,0.0006289482116699219,0.00013780593872070312,0.014867544174194336,40988.0,-15.37575927734375,0.44050048828125,0.11872731832166512,-0.5166924297809601,1.3547349969546,0.016141561170419056,184.05442645330757,1000.0,41.0,183.8406558064815,9.595709003822238,1000.0,1000.0,0.0,41000
42000,0,74.50887042507125,0.000698089599609375,0.0001456737518310547,0.014832735061645508,41988.0,-15.26292079925537,0.47190083146095274,0.10996258879701297,-0.5370281512538592,1.1127330859502156,0.015458604088053107,151.4153107809187,1000.0,42.0,155.7253562818294,7.846103053054797,1000.0,1000.0,0.0,42000
43000,0,74.06113043631805,0.0006649494171142578,0.00014638900756835938,0.018088340759277344,42988.0,-15.33040843963623,0.5082437062263488,0.10367852635681629,-0.5695343712965647,1.002485419313113,0.014804700699945291,122.1048176514039,1000.0,43.0,144.43038936970896,9.866291928303774,1000.0,1000.0,0.0,43000
44000,0,74.45813178666681,0.0006399154663085938,0.00016832351684570312,0.015372276306152344,43988.0,-15.184486503601073,0.510935788154602,0.09631883725523949,-0.588865727186203,0.7921523650487264,0.014179683290421963,140.13607890127605,1000.0,44.0,124.77201428790309,14.045198020569082,1000.0,1000.0,0.0,44000
45000,0,74.3838153684197,0.0006692409515380859,0.000141143798828125,0.015627622604370117,44988.0,-15.230268859863282,0.531916139125824,0.09132529981434345,-0.602862074971199,0.7241940647363663,0.013580358975256482,130.53343771243632,1000.0,45.0,149.33539220053225,8.282234291606294,1000.0,1000.0,0.0,45000
46000,0,74.26044156441989,0.0006551742553710938,0.0001437664031982422,0.015099287033081055,45988.0,-15.112371330261231,0.5231325578689575,0.0846833058943351,-0.5704030692577362,0.5097533402343591,0.013007485152532658,123.08094479898149,1000.0,46.0,116.83068736331515,13.069830704439372,1000.0,1000.0,0.0,46000
47000,0,74.87849639738069,0.0006403923034667969,0.00018477439880371094,0.015341043472290039,46988.0,-15.19142433166504,0.5474316143989563,0.07860511355102062,-0.6222272763649622,0.3086373247206211,0.012458878879745802,144.14121484723637,1000.0,47.0,141.38586413758648,8.791177453771558,1000.0,1000.0,0.0,47000
48000,0,75.49469379526833,0.0007567405700683594,0.00013947486877441406,0.015092611312866211,47988.0,-15.207556495666504,0.5763336420059204,0.07369978291292985,-0.6399570951859156,0.17505072553952536,0.011934048340966305,149.5387203698447,1000.0,48.0,212.67036806643856,9.184132964893365,1000.0,1000.0,0.0,48000
49000,0,73.5239652523649,0.001010894775390625,0.00024175643920898438,0.01665496826171875,48988.0,-15.076582298278808,0.5778570377826691,0.07039287065466245,-0.6452386031548182,0.1573216294248899,0.011431344396745166,173.97900125056398,1000.0,49.0,186.53735880955344,12.070823817512975,1000.0,1000.0,0.0,49000
50000,0,75.32651696322164,0.0006396770477294922,0.0002067089080810547,0.015264034271240234,49988.0,-15.22059226989746,0.5986530900001525,0.06557988747954369,-0.6578952421744665,-0.010769551464666923,0.010948760900646448,156.7849092658469,1000.0,50.0,147.7104228830426,5.5107638328372275,1000.0,1000.0,0.0,50000
51000,0,75.59816270486986,0.0007178783416748047,0.0001544952392578125,0.015353918075561523,50988.0,-15.23426052093506,0.5896082615852356,0.06031129819651445,-0.647025023897489,-0.25073084731896716,0.010489324030155936,155.56129343691435,1000.0,51.0,186.68396358125153,8.035841952250331,1000.0,1000.0,0.0,51000
52000,0,74.65432604168521,0.0009462833404541016,0.00019407272338867188,0.017082691192626953,51988.0,-15.066830520629884,0.5959262895584106,0.05719470915695032,-0.6445465385913849,-0.3099156928559144,0.010050722863525152,164.37992964071364,1000.0,52.0,179.34682643229752,10.972097989808,1000.0,1000.0,0.0,52000
53000,0,75.39985633000093,0.0009264945983886719,0.00019884109497070312,0.016290664672851562,52988.0,-15.035469093322753,0.6173690795898438,0.052688480354845524,-0.6599318981170654,-0.5286760379870733,0.009629082788402835,157.24827393380846,1000.0,53.0,201.0002269266079,17.326629506667576,1000.0,1000.0,0.0,53000
54000,0,75.14449127247632,0.0008573532104492188,0.0001575946807861328,0.01559138298034668,53988.0,-15.0983931350708,0.6148227024078369,0.049775079203148685,-0.67263230184714,-0.6049893995126089,0.00922537773537139,173.1872562320175,1000.0,54.0,166.03210400120795,26.335776402620606,1000.0,1000.0,0.0,54000
55000,0,74.24482518859014,0.0008502006530761719,0.00018787384033203125,0.015717267990112305,54988.0,-15.036530952453614,0.6241822385787964,0.04636472618828217,-0.6737227439880371,-0.7543233931064606,0.008837900590151548,160.2905558803426,1000.0,55.0,171.89652159940937,38.09278449855107,1000.0,1000.0,0.0,55000
56000,0,74.58184559796292,0.0009276866912841797,0.00018215179443359375,0.015610456466674805,55988.0,-15.024186897277833,0.6229718279838562,0.04351717295746008,-0.6679482708374659,-0.8613099753856659,0.008467798742155233,187.93306468493054,1000.0,56.0,167.18493519798858,5.36007955998001,1000.0,1000.0,0.0,56000
57000,0,75.37118607031546,0.0009059906005859375,0.00018858909606933594,0.016089439392089844,56988.0,-15.063122024536133,0.6326415133476258,0.04020011549194654,-0.6877863456805547,-1.0457217792669933,0.008113547461107373,153.32370567718883,1000.0,57.0,178.51306457787229,8.24041640395931,1000.0,1000.0,0.0,57000
58000,0,75.03608412305742,0.0008451938629150391,0.00015544891357421875,0.01562952995300293,57988.0,-14.98256175994873,0.651706736087799,0.03819155848274628,-0.7150984853506088,-1.0897453775008519,0.007777279514508943,181.03381948683534,1000.0,58.0,178.03989158325334,51.39806367012236,1000.0,1000.0,0.0,58000
59000,0,75.03345312055002,0.0008530616760253906,0.00017023086547851562,0.015211105346679688,58988.0,-14.948601226806641,0.6810959243774414,0.03489460485676924,-0.7210522691408793,-1.3198489546775818,0.007455219243032237,197.54605328351505,1000.0,59.0,208.8214507996786,8.6789846322267,1000.0,1000.0,0.0,59000
60000,0,74.8431690662091,0.0008029937744140625,0.00015211105346679688,0.015369653701782227,59988.0,-14.957533569335938,0.6896631574630737,0.03152822113285462,-0.7451936304569244,-1.5898592968781788,0.007148412560733656,178.08619626969147,1000.0,60.0,167.81210290791185,5.268067676297125,1000.0,1000.0,0.0,60000
61000,0,74.63737477702944,0.0008180141448974609,0.00015306472778320312,0.015952348709106445,60988.0,-14.983110122680664,0.6931946849822999,0.02936171383286516,-0.7361877808968226,-1.7180946469306946,0.00685665151104331,190.1679390722443,1000.0,61.0,152.8834714528548,2.4225471570793458,1000.0,1000.0,0.0,61000
62000,0,74.24240707804198,0.0009000301361083984,0.00017905235290527344,0.0161283016204834,61988.0,-14.934077339172363,0.6927671957015992,0.026825324166566133,-0.7441017081340154,-1.9227779905001323,0.006578777373457949,196.4964627417553,1000.0,62.0,167.45640915645714,4.705617706253366,1000.0,1000.0,0.0,62000
63000,0,75.17929517976837,0.0009450912475585938,0.0001575946807861328,0.01629161834716797,62988.0,-15.0364595413208,0.697791383266449,0.024158465365568798,-0.7547125816345215,-2.173633426427841,0.006313234528837104,184.3403728136032,1000.0,63.0,173.07158273940902,5.284143796160257,1000.0,1000.0,0.0,63000
64000,0,74.84434432612495,0.0008337497711181641,0.00015211105346679688,0.01564168930053711,63988.0,-14.939900131225587,0.7096251893043518,0.023442852310836315,-0.7674678613742193,-2.1319956382115683,0.006060155729452769,178.08768879136167,1000.0,64.0,191.1850241943335,1.6908578630869777,1000.0,1000.0,0.0,64000
65000,0,74.381810301471,0.0009562969207763672,0.00022912025451660156,0.01625680923461914,64988.0,-14.936573181152344,0.7237879967689514,0.02020030856753389,-0.7709802488485972,-2.528147836526235,0.005817799945361912,184.88593083266824,1000.0,65.0,192.0728475189964,4.720645697778448,1000.0,1000.0,0.0,65000
66000,0,75.07395877782582,0.0009076595306396484,0.0002548694610595703,0.015766143798828125,65988.0,-15.018558120727539,0.7027834367752075,0.018967506165305775,-0.7763787011305491,-2.6051772038141885,0.005586790929858883,192.11662422165017,1000.0,66.0,216.38766056632716,15.418162515546227,1000.0,1000.0,0.0,66000
67000,0,74.1344886681787,0.0009465217590332031,0.00021004676818847656,0.015496492385864258,66988.0,-15.048900871276855,0.7310652041435242,0.01784161167840163,-0.7828429043292999,-2.6756370663642883,0.005366457315782706,198.87404903790497,1000.0,67.0,208.04726945940678,18.648985084356365,1000.0,1000.0,0.0,67000
68000,0,73.8567993339635,0.0010075569152832031,0.0001556873321533203,0.016033411026000977,67988.0,-15.03864284515381,0.7198805618286133,0.014686029326791564,-0.766810675462087,-3.1519463857014975,0.005156204182033737,193.46489881586797,1000.0,68.0,207.89366284572685,14.59400012547896,1000.0,1000.0,0.0,68000
69000,0,75.5384198666413,0.0011570453643798828,0.00020265579223632812,0.01686263084411621,68988.0,-15.004326972961426,0.7310978651046753,0.013947916449978948,-0.7951336801052094,-3.1857728958129883,0.00495573893810312,179.40495161640365,1000.0,69.0,196.01781737246702,6.176790167391543,1000.0,1000.0,0.0,69000
70000,0,73.91630756824162,0.0010724067687988281,0.00018978118896484375,0.015986919403076172,69988.0,-14.925991096496581,0.7233103680610656,0.013719440127412478,-0.7810773551464081,-3.1177040537198386,0.004759570040429632,207.49135474882658,1000.0,70.0,209.2407111337523,10.065221564600346,1000.0,1000.0,0.0,70000
71000,0,74.24771661449287,0.0010600090026855469,0.00020194053649902344,0.016310930252075195,70988.0,-14.994740409851074,0.7161062335968018,0.011821225207919875,-0.7542457580566406,-3.4153307477633157,0.004573215381242335,201.02943011259507,1000.0,71.0,203.98183302078414,8.563866329112134,1000.0,1000.0,0.0,71000
72000,0,74.56598771617058,0.0010204315185546875,0.00019097328186035156,0.015999794006347656,71988.0,-15.025193939208984,0.7174442601203919,0.01079743898784121,-0.7791378696759542,-3.54357119401296,0.004395224658461909,200.6028320458264,1000.0,72.0,211.63326373800845,5.686129768891458,1000.0,1000.0,0.0,72000
73000,0,73.50525610361352,0.000736236572265625,0.00022530555725097656,0.015980005264282227,72988.0,-15.009838142395019,0.7341588735580444,0.00890222804931303,-0.7984052648146948,-3.894041379292806,0.004226911424969633,202.11558599628168,1000.0,73.0,213.71066706029234,18.543705878779537,1000.0,1000.0,0.0,73000
74000,0,75.31017859823334,0.0007607936859130859,0.00015401840209960938,0.015592575073242188,73988.0,-15.040950927734375,0.7215489554405212,0.008828713713834683,-0.7837809373935064,-3.829769412676493,0.004067770011412601,214.4934396880378,1000.0,74.0,183.1594184341458,8.10953833164262,1000.0,1000.0,0.0,74000
75000,0,75.0593953450084,0.0006799697875976562,0.00020933151245117188,0.015064001083374023,74988.0,-14.96873073577881,0.7280181980133057,0.0073030002337569995,-0.8054373363653818,-4.135016918182373,0.003915606959102054,209.57913629660862,1000.0,75.0,195.30629767457873,29.97010279621004,1000.0,1000.0,0.0,75000
76000,0,75.36631050250628,0.0006334781646728516,0.0001804828643798828,0.014710426330566406,75988.0,-14.978283424377441,0.7511089754104614,0.006841505838868518,-0.8160157948732376,-4.18582699696223,0.003770890432254722,199.14974590698722,1000.0,76.0,185.5597813710641,9.215134532248769,1000.0,1000.0,0.0,76000
77000,0,74.83521032272799,0.0006608963012695312,0.00014400482177734375,0.014864921569824219,76988.0,-15.047548904418946,0.741075472831726,0.006280904286541045,-0.7982738018035889,-4.271356066068013,0.0036331892867262163,168.26712857252582,1000.0,77.0,184.28532721596315,6.111761877657094,1000.0,1000.0,0.0,77000
78000,0,74.33909641120968,0.0006804466247558594,0.00015115737915039062,0.01540684700012207,77988.0,-15.03366641998291,0.7410413241386413,0.004807963812102874,-0.7866388310988744,-4.627615451812744,0.0035030663517924645,195.07875997738242,1000.0,78.0,208.2020887619164,7.177795297910195,1000.0,1000.0,0.0,78000
79000,0,74.85770214576526,0.0006086826324462891,0.00020766258239746094,0.015047311782836914,78988.0,-14.974193000793457,0.7314932298660278,0.0045659996491546435,-0.7944654921690623,-4.649042884508769,0.0033794428454712033,190.94268007219222,1000.0,79.0,198.20545015866992,7.239500812892814,1000.0,1000.0,0.0,79000
80000,0,75.2807657764054,0.0010192394256591797,0.00019121170043945312,0.01629352569580078,79988.0,-14.957924766540527,0.7356938004493714,0.004437145505410929,-0.7965962837139765,-4.638737201690674,0.0032594398168536523,190.80270029633817,1000.0,80.0,201.7046034825088,5.44187167031038,1000.0,1000.0,0.0,80000
81000,0,74.69112454527905,0.0009677410125732422,0.0001976490020751953,0.0172269344329834,80988.0,-15.029508438110351,0.7395201015472412,0.003416404807164023,-0.8005141367514929,-4.9142065445582075,0.003146165399812162,204.29339660196578,1000.0,81.0,210.55902351005943,8.677697189840432,1000.0,1000.0,0.0,81000
82000,0,74.60864429874024,0.0007297992706298828,0.00015044212341308594,0.01536703109741211,81988.0,-14.919315376281737,0.7624284839630127,0.00295704744833832,-0.8231304436922073,-5.027562220891316,0.0030406098812818527,209.74422274498872,1000.0,82.0,218.71452535673825,3.643921435430409,1000.0,1000.0,0.0,82000
83000,0,75.09465824559796,0.0006897449493408203,0.00014257431030273438,0.015196084976196289,82988.0,-14.987672080993653,0.7363464593887329,0.0025254395635177693,-0.7972797105709711,-5.1418895324071245,0.0029428838558184602,212.3110337835172,1000.0,83.0,211.374047110848,2.884084927843359,1000.0,1000.0,0.0,83000
84000,0,74.2869044903303,0.0006692409515380859,0.0002391338348388672,0.015207290649414062,83988.0,-14.905966835021973,0.7448543262481689,0.0020991961258308343,-0.8153809408346812,-5.263510505358378,0.0028501039487309754,208.54381379441972,1000.0,84.0,208.8128810963437,2.9053041215554276,1000.0,1000.0,0.0,84000
85000,0,74.52120839978281,0.0006566047668457031,0.00018286705017089844,0.01586604118347168,84988.0,-14.966481018066407,0.7604890084266662,0.001459929917473346,-0.8400195688009262,-5.472437381744385,0.002767165812353293,217.4384706272421,1000.0,85.0,217.63451176120833,5.177524289102897,1000.0,1000.0,0.0,85000
86000,0,73.88661956398427,0.00102996826171875,0.00019049644470214844,0.015992164611816406,85988.0,-14.943763847351073,0.7731725645065307,0.001629263172314192,-0.8383365621169409,-5.395035068194072,0.002692997397389263,207.9456123315367,1000.0,86.0,217.44181001726406,6.07566489713659,1000.0,1000.0,0.0,86000
87000,0,74.02479315505606,0.0009324550628662109,0.00018095970153808594,0.01614212989807129,86988.0,-14.889288940429687,0.7909823155403137,0.0007078054325878232,-0.8552614549795786,-5.730627417564392,0.0026272825974350176,220.92114722003876,1000.0,87.0,225.77072152687506,10.364107419446762,1000.0,1000.0,0.0,87000
88000,0,73.92391570252944,0.0009317398071289062,0.00017571449279785156,0.0163576602935791,87988.0,-14.954640617370606,0.8052796030044556,0.0008478834157964835,-0.8905961513519287,-5.670926332473755,0.002576438884716481,205.17029027465935,1000.0,88.0,216.6258434395251,7.143099244192039,1000.0,1000.0,0.0,88000
89000,0,73.8118802820768,0.0009644031524658203,0.00017547607421875,0.016504287719726562,88988.0,-14.945769996643067,0.8105751180648804,0.00043642600818808813,-0.8719073583682379,-5.827233036359151,0.0025259388494305313,197.32690023338168,1000.0,89.0,194.80056959619702,6.026669832898947,1000.0,1000.0,0.0,89000
90000,0,74.69452970788969,0.0009174346923828125,0.00017380714416503906,0.016608238220214844,89988.0,-14.999928321838379,0.8113153553009034,0.0001556133562795973,-0.8880244841178259,-5.937819520632426,0.002502423245459795,202.7109571747471,1000.0,90.0,203.19823883142644,4.676300950336163,1000.0,1000.0,0.0,90000
91000,0,75.87001806711531,0.0009891986846923828,0.0001785755157470703,0.016864776611328125,90988.0,-14.956466445922851,0.8189654970169067,-0.0001560771464331386,-0.8934364517529806,-6.062519868214925,0.00249646536152189,202.81995860212857,1000.0,91.0,206.96668994313964,3.1169396427721314,1000.0,1000.0,0.0,91000
92000,0,74.73610835914637,0.0010097026824951172,0.00019669532775878906,0.016263484954833984,91988.0,-14.87329273223877,0.8122425961494446,-0.00021461154271188812,-0.8965750883022944,-6.085657238960266,0.002505458736171325,197.4883805014506,1000.0,92.0,188.33181529188178,3.3784157360172857,1000.0,1000.0,0.0,92000
93000,0,74.08153677138124,0.0009272098541259766,0.0001685619354248047,0.016184329986572266,92988.0,-14.941772041320801,0.8431284403800965,-0.00037047120652763016,-0.9174457440773646,-6.146009008089702,0.0025377407243164876,190.30851338027216,1000.0,93.0,206.6768782123458,5.132616401357057,1000.0,1000.0,0.0,93000
94000,0,74.74793558100278,0.0006976127624511719,0.0002033710479736328,0.015424489974975586,93988.0,-14.863147087097168,0.8331541514396668,-0.0004868675544760966,-0.9018032997846603,-6.189515590667725,0.002569141836526493,181.92154205136907,1000.0,94.0,202.77320514305313,1.8357853979401981,1000.0,1000.0,0.0,94000
95000,0,74.74255426372338,0.0008940696716308594,0.00017309188842773438,0.015043258666992188,94988.0,-15.016118850708008,0.8432645463943481,-0.00021847556551316907,-0.912031297882398,-6.08396852016449,0.002601931725318233,198.88733333091602,1000.0,95.0,199.97862252093583,2.9752220381205197,1000.0,1000.0,0.0,95000
96000,0,74.940627168636,0.0010426044464111328,0.00020360946655273438,0.01656365394592285,95988.0,-14.93711742401123,0.84275381565094,-0.00022595727083777697,-0.9164555817842484,-6.085301637649536,0.0026490076173407338,202.9344688408829,1000.0,96.0,210.26199354148417,3.999234224171491,1000.0,1000.0,0.0,96000
97000,0,74.10169251969896,0.000982522964477539,0.00020074844360351562,0.016377925872802734,96988.0,-14.778942031860351,0.8469844961166382,-0.0005563621319500575,-0.9255015601714452,-6.208759705225627,0.0026654960432400308,205.8906112487417,1000.0,97.0,200.35457333683308,5.92397747203999,1000.0,1000.0,0.0,97000
98000,0,75.2943879767491,0.0010404586791992188,0.00018858909606933594,0.01529550552368164,97988.0,-14.932265129089355,0.8589750909805298,0.00027033145852328744,-0.9273761014143626,-5.899477481842041,0.0026893121345589557,202.35306821083736,1000.0,98.0,191.11310417420125,5.03358766195725,1000.0,1000.0,0.0,98000
99000,0,74.91198390562846,0.0009431838989257812,0.0001823902130126953,0.016179323196411133,98988.0,-14.964709129333496,0.8505537223815918,-0.00026180950771959033,-0.913740262389183,-6.097788055737813,0.0026774643920361996,200.54946451838833,1000.0,99.0,200.93290260194775,5.8142203369079235,1000.0,1000.0,0.0,99000
100000,0,74.83291381885681,0.0008749961853027344,0.00015473365783691406,0.015598297119140625,99988.0,-14.900287513732911,0.8797684240341187,-0.0002909276530166001,-0.9417704194784164,-6.107390880584717,0.0027092015952803195,197.89879306133085,1000.0,100.0,196.86111493853778,6.571523072096431,1000.0,1000.0,0.0,100000
101000,0,75.4644306536826,0.0009112358093261719,0.00017142295837402344,0.016338348388671875,100988.0,-14.865811767578125,0.8830763816833496,-8.244579900444175e-05,-0.9602651993433634,-6.03015140692393,0.0027343298424966633,197.00620825488187,1000.0,101.0,197.21903783678098,5.975977848277781,1000.0,1000.0,0.0,101000
102000,0,74.75870054056212,0.0008592605590820312,0.0001552104949951172,0.0156862735748291,101988.0,-15.035233497619629,0.8919311881065368,0.0001577939668398661,-0.9707838694254557,-5.942791740099589,0.002758194187966486,210.05344092403007,1000.0,102.0,205.97918710416985,6.063357031913549,1000.0,1000.0,0.0,102000
103000,0,74.79629562261174,0.0009562969207763672,0.00017023086547851562,0.016362667083740234,102988.0,-14.922458610534669,0.8953455090522766,0.00036454660281985224,-0.9704703837633133,-5.868600567181905,0.002774218621198088,211.78132066515116,1000.0,103.0,219.18271080399887,5.992554782395628,1000.0,1000.0,0.0,103000
104000,0,75.59385719167368,0.0008852481842041016,0.00015544891357421875,0.015469074249267578,103988.0,-15.084986267089844,0.8937364220619202,-0.00015238057252039047,-0.9712609002987543,-6.055092453956604,0.002765920440045496,210.01625806766623,1000.0,104.0,207.62786884213853,4.576082481137939,1000.0,1000.0,0.0,104000
105000,0,74.52375063608892,0.0009109973907470703,0.0001628398895263672,0.015751123428344727,104988.0,-14.92975070953369,0.9062512803077698,-0.00016806308000620143,-0.9805887142817179,-6.061031421025594,0.0027540604933165014,192.16996358516272,1000.0,105.0,201.9317517615458,4.734372333838663,1000.0,1000.0,0.0,105000
106000,0,75.28125219868502,0.0008866786956787109,0.00015211105346679688,0.01600933074951172,105988.0,-15.021999816894532,0.9126868963241577,0.00025876738800434396,-0.9853307455778122,-5.906654159228007,0.0027720091165974736,208.2216098150295,1000.0,106.0,198.92588752758758,3.460048818248149,1000.0,1000.0,0.0,106000
107000,0,74.4632607076231,0.0011501312255859375,0.00016832351684570312,0.015481233596801758,106988.0,-14.977269897460937,0.9389376807212829,0.00010641363041941077,-1.0146028995513916,-5.961978356043498,0.0027979198882045844,210.89551256779987,1000.0,107.0,205.43672351356435,6.858525968163165,1000.0,1000.0,0.0,107000
108000,0,74.72306013826149,0.0008752346038818359,0.00016927719116210938,0.015559196472167969,107988.0,-15.057996597290039,0.9271173071861267,1.50173758205104e-05,-0.9853914529085159,-5.994677702585856,0.0028213267602647343,201.2756434624866,1000.0,108.0,198.25886164869377,5.048928748571152,1000.0,1000.0,0.0,108000
109000,0,74.70480028155649,0.0009036064147949219,0.00016689300537109375,0.01560354232788086,108988.0,-14.9413130569458,0.9310561180114746,-6.892503491447617e-05,-1.0008567521969478,-6.024324059486389,0.00283446671285977,191.828612390251,1000.0,109.0,212.94756156151888,4.344775824509634,1000.0,1000.0,0.0,109000
110000,0,74.03587355292775,0.0010688304901123047,0.000179290771484375,0.017187118530273438,109988.0,-14.998706779479981,0.941333782672882,-7.812472176738083e-06,-1.014834965268771,-6.0027685562769575,0.0028283518234578273,209.12448963639508,1000.0,110.0,220.33916917058178,4.447260259303483,1000.0,1000.0,0.0,110000
111000,0,73.6860450081235,0.0009655952453613281,0.00020575523376464844,0.018347740173339844,110988.0,-15.036896362304688,0.9549462699890137,-0.00022347601194875702,-1.0257351249456406,-6.078670144081116,0.0028413626132532954,221.31720133323475,1000.0,111.0,218.68123855648074,4.621335802274735,1000.0,1000.0,0.0,111000
112000,0,74.29737912582732,0.0007140636444091797,0.00015687942504882812,0.015307426452636719,111988.0,-15.090725173950196,0.9678934502601624,0.00012088847567307918,-1.027896245320638,-5.9576899607976275,0.002856815292034298,221.21390248351625,1000.0,112.0,220.19863856146972,8.095846882618716,1000.0,1000.0,0.0,112000
113000,0,74.44528614807469,0.0007419586181640625,0.00020313262939453125,0.015182256698608398,112988.0,-15.12138557434082,0.9844638514518738,-0.00016677116946084425,-1.0687463581562042,-6.057716925938924,0.002889966630997757,215.41552047611532,1000.0,113.0,224.67284855070807,5.999773716458069,1000.0,1000.0,0.0,113000
114000,0,74.3704678793931,0.0009236335754394531,0.0002148151397705078,0.015573501586914062,113988.0,-15.093759765625,0.9842429542541504,5.821598794379194e-05,-1.0633181432882945,-5.980016231536865,0.002912979204362879,222.7036514400173,1000.0,114.0,246.42843684349177,10.660395980933284,1000.0,1000.0,0.0,114000
115000,0,74.59362404123729,0.0006394386291503906,0.00013875961303710938,0.015691757202148438,114988.0,-15.090016021728516,0.9878464770317078,-8.163279259557991e-05,-1.041304926077525,-6.028122027715047,0.0029028732872878513,239.5058365468051,1000.0,115.0,231.54899950245763,4.765203330779695,1000.0,1000.0,0.0,115000
116000,0,75.03753393797919,0.0006127357482910156,0.0001895427703857422,0.015076637268066406,115988.0,-15.134718475341797,1.0075173997879028,-0.00037720784287860926,-1.0637173751990001,-6.130359053611755,0.002893833094276488,210.8049931023326,1000.0,116.0,227.12112843386663,9.08891051151467,1000.0,1000.0,0.0,116000
117000,0,74.25791726065154,0.0006842613220214844,0.00020647048950195312,0.015267133712768555,116988.0,-15.124370040893554,1.0307387733459472,-9.370887346449308e-05,-1.1155448655287425,-6.032073736190796,0.0029214987492499254,230.73896085078619,1000.0,117.0,242.50098816594527,8.24299512768027,1000.0,1000.0,0.0,117000
118000,0,75.09014102460358,0.0005762577056884766,0.00017952919006347656,0.015120744705200195,117988.0,-15.245441551208495,1.0378996419906616,9.387346047636432e-05,-1.1005943218866985,-5.967912634213765,0.0029248431674204767,233.58340246773614,1000.0,118.0,230.49441782325295,13.749730100521694,1000.0,1000.0,0.0,118000
119000,0,75.94029504848673,0.0007023811340332031,0.00019121170043945312,0.015535116195678711,118988.0,-15.150955886840821,1.049034399986267,0.00020417845613944033,-1.1032377779483795,-5.930311918258667,0.00292922742664814,235.9792579977337,1000.0,119.0,238.21800685722093,9.149426306180434,1000.0,1000.0,0.0,119000
120000,0,74.96221777716138,0.0006737709045410156,0.00015020370483398438,0.017738819122314453,119988.0,-15.176334571838378,1.0636529397964478,4.416867007724553e-05,-1.1314265131950378,-5.984942674636841,0.0029331582287947335,224.44564960561695,1000.0,120.0,234.20405702880666,3.995197762516612,1000.0,1000.0,0.0,120000
121000,0,71.72796106928138,0.0008668899536132812,0.00016045570373535156,0.015494823455810547,120988.0,-15.171841468811035,1.0869192600250244,0.0002980099319150516,-1.1617442866166432,-5.898477911949158,0.0029352547717280686,253.5285145076091,1000.0,121.0,241.55816095407963,10.733615695382435,1000.0,1000.0,0.0,121000
122000,0,68.73181459158826,0.0006248950958251953,0.0001418590545654297,0.014992237091064453,121988.0,-15.166969528198242,1.11846435546875,0.00012805564347218024,-1.184928447008133,-5.956587076187134,0.002948740147985518,215.96167045722814,1000.0,122.0,238.72697547897133,9.041004653073632,1000.0,1000.0,0.0,122000
123000,0,69.38716089772603,0.0006287097930908203,0.0001373291015625,0.015091657638549805,122988.0,-15.180857353210449,1.1330636978149413,0.00017307466138542318,-1.1929819981257122,-5.941617886225383,0.0029638930961179235,231.5195855699709,1000.0,123.0,232.29841548714617,10.306424573168663,1000.0,1000.0,0.0,123000
124000,0,69.57149454084151,0.00058746337890625,0.0001392364501953125,0.015282869338989258,123988.0,-15.117647590637207,1.1536688995361328,-0.0002293433841866014,-1.2196514407793682,-6.076870918273926,0.002983495534863323,243.67799103835821,1000.0,124.0,229.51871295004426,12.17596497911243,1000.0,1000.0,0.0,124000
125000,0,69.78554728601482,0.0007443428039550781,0.00014519691467285156,0.015282869338989258,124988.0,-15.17745132446289,1.1456701946258545,-0.00023869977849244606,-1.2094627817471821,-6.079753557840983,0.0029928253885979452,248.8310761748552,1000.0,125.0,252.31550523248742,8.790988237764426,1000.0,1000.0,0.0,125000
126000,0,70.4346412560572,0.0007770061492919922,0.000148773193359375,0.015337944030761719,125988.0,-15.179069862365722,1.1830181360244751,-0.00041871404816144303,-1.2514371971289318,-6.139349540074666,0.003005097348553439,248.81942415487342,1000.0,126.0,248.17097396506725,7.895426206578814,1000.0,1000.0,0.0,126000
127000,0,69.59947855615279,0.0006377696990966797,0.00015473365783691406,0.015431642532348633,126988.0,-15.24885456085205,1.195247368812561,0.0002479324830346741,-1.2663973271846771,-5.917599717775981,0.003008712451749792,221.91156006926946,1000.0,127.0,260.67266923971107,6.816028102617386,1000.0,1000.0,0.0,127000
128000,0,70.5525034735422,0.0006592273712158203,0.00015163421630859375,0.015468358993530273,127988.0,-15.184295806884766,1.216355414390564,-0.00016510298458645897,-1.2738601962725322,-6.055081009864807,0.0029977710219100118,246.04719573436685,1000.0,128.0,263.14665684601385,11.511311301053926,1000.0,1000.0,0.0,128000
129000,0,74.31612504048641,0.0008459091186523438,0.0001392364501953125,0.015319585800170898,128988.0,-15.151944351196288,1.2430600357055663,-0.0005464004837752631,-1.2912669777870178,-6.180396318435669,0.003028897161129862,257.35976755411843,1000.0,129.0,240.11530049486925,9.732110457799285,1000.0,1000.0,0.0,129000
130000,0,74.59298727351626,0.0006289482116699219,0.00014281272888183594,0.014972209930419922,129988.0,-15.084608917236329,1.2490455627441406,-0.00012256808380091874,-1.3177022735277812,-6.0402512947718305,0.003046960453502834,248.12715734187404,1000.0,130.0,249.82449579634834,6.689445416238508,1000.0,1000.0,0.0,130000
131000,0,75.14906889276213,0.0006606578826904297,0.00017261505126953125,0.015597820281982422,130988.0,-15.182260322570801,1.2871190261840821,-0.00013992854898485044,-1.3536221086978912,-6.045807401339213,0.0030557376254970827,253.44594926101078,1000.0,131.0,271.0439848158303,8.85911874160397,1000.0,1000.0,0.0,131000
132000,0,75.80283005637268,0.0006630420684814453,0.00015974044799804688,0.015088081359863281,131988.0,-15.196222877502441,1.32443452835083,-0.0004150248278165236,-1.3738930026690166,-6.135916113853455,0.00305375485913828,247.17237833227284,1000.0,132.0,267.5648434819072,8.66814590536031,1000.0,1000.0,0.0,132000
133000,0,74.80344563143157,0.000728607177734375,0.0001399517059326172,0.015154838562011719,132988.0,-15.156673469543456,1.3434348106384277,-0.00041013364110161393,-1.426469127337138,-6.1339207490285235,0.0030626458077070615,269.76682674874115,1000.0,133.0,275.1764297603487,12.883312996883953,1000.0,1000.0,0.0,133000
134000,0,74.30453937004805,0.0007224082946777344,0.0001399517059326172,0.01559138298034668,133988.0,-15.147118911743163,1.3653515672683716,4.807492587133311e-05,-1.4253455897172291,-5.984461307525635,0.0030913336474138,282.5109030359884,1000.0,134.0,260.741796206535,7.551005449348355,1000.0,1000.0,0.0,134000
135000,0,74.52745837497139,0.0006449222564697266,0.0001354217529296875,0.014672994613647461,134988.0,-15.177480697631836,1.383978853225708,2.2951779707606573e-05,-1.440998117129008,-5.99262793858846,0.0031127744975189366,257.26469977856823,1000.0,135.0,276.61138996886484,10.793165758927957,1000.0,1000.0,0.0,135000
136000,0,74.56932844821701,0.0007109642028808594,0.00014591217041015625,0.015694379806518555,135988.0,-15.004319763183593,1.4206353282928468,0.00012923917044342184,-1.4782969256242116,-5.9587011734644575,0.0031292081306067607,269.6681661853689,1000.0,136.0,255.0808390999651,49.92920222993999,1000.0,1000.0,0.0,136000
137000,0,73.65690382447255,0.0006823539733886719,0.00016641616821289062,0.01513361930847168,136988.0,-15.106188316345214,1.4263314533233642,-1.5344980056397617e-05,-1.4850660959879558,-6.004907409350078,0.0031268528934257724,252.88030398979,1000.0,137.0,279.60938397956113,9.742096159651808,1000.0,1000.0,0.0,137000
138000,0,74.5541119816163,0.0006084442138671875,0.00017952919006347656,0.014973878860473633,137988.0,-15.08856658935547,1.4357732248306274,-0.0003434444157998466,-1.4903355141480763,-6.1091228723526,0.003147540943852315,268.97812495909955,1000.0,138.0,279.70820787971235,37.14935420558693,1000.0,1000.0,0.0,138000
139000,0,74.62823810411753,0.0007312297821044922,0.00015163421630859375,0.01624274253845215,138988.0,-15.098598937988282,1.4742838430404663,-0.0002861788658871471,-1.53024826447169,-6.090378642082214,0.003166366135701537,279.50779927398764,1000.0,139.0,269.60715035039436,66.72202725757398,1000.0,1000.0,0.0,139000
140000,0,74.67931529337193,0.0006732940673828125,0.00014162063598632812,0.015069246292114258,139988.0,-15.110626602172852,1.4754203319549561,-2.278691499668639e-05,-1.5366066296895344,-6.007147431373596,0.0031884553221364817,309.7746999934925,1000.0,140.0,299.21048244721186,6.839818546511011,1000.0,1000.0,0.0,140000
141000,0,75.27228142111807,0.0006597042083740234,0.00013828277587890625,0.014972686767578125,140988.0,-15.047891845703125,1.5252004766464233,-0.00012350246106507257,-1.6061386962731679,-6.038741946220398,0.0031880520400591195,288.2312440086919,1000.0,141.0,239.22558622338715,92.29085757771522,1000.0,1000.0,0.0,141000
142000,0,75.63382465909542,0.0007369518280029297,0.0001811981201171875,0.015410184860229492,141988.0,-15.046290016174316,1.517925033569336,-4.390597920670795e-05,-1.5623985628286998,-6.0137593348821,0.003191655424113075,308.8331296502172,1000.0,142.0,271.6210797510341,61.64856099223873,1000.0,1000.0,0.0,142000
143000,0,75.48605246998234,0.0006585121154785156,0.00014400482177734375,0.015280008316040039,142988.0,-14.992824745178222,1.5525900840759277,-9.468923114278975e-05,-1.6149779955546062,-6.029266079266866,0.003235653139806042,285.68331720763,1000.0,143.0,294.7904272500781,50.76562992012406,1000.0,1000.0,0.0,143000
144000,0,75.4413014246113,0.0006783008575439453,0.00013637542724609375,0.014995336532592773,143988.0,-15.010277290344238,1.5748451900482179,0.00048147504579295247,-1.6313035786151886,-5.850677490234375,0.003224314442680528,86.62673426178684,1000.0,144.0,273.59623510848917,78.07310622614604,1000.0,1000.0,0.0,144000
145000,0,74.86716236535955,0.0006041526794433594,0.00013136863708496094,0.015152692794799805,144988.0,-15.040710639953613,1.582266435623169,0.0002559770085402609,-1.6376527547836304,-5.920508503913879,0.003219430063230296,316.07189500207744,1000.0,145.0,284.8389805507137,66.20525780748302,1000.0,1000.0,0.0,145000
146000,0,74.35269625100956,0.0008192062377929688,0.00019669532775878906,0.015484333038330078,145988.0,-14.940929908752441,1.6389825010299683,-0.0002513487312777822,-1.6976158519585927,-6.078319748242696,0.003210420332228144,321.7125139599877,1000.0,146.0,250.00571116055886,75.03225417676573,1000.0,1000.0,0.0,146000
147000,0,74.71187957474672,0.0007250308990478516,0.00016069412231445312,0.015189170837402344,146988.0,-14.981278381347657,1.6567231273651124,1.741829328238964e-05,-1.6996828218301137,-5.994578242301941,0.003207481097585211,305.5538783241425,1000.0,147.0,326.97311779463365,8.950778785144314,1000.0,1000.0,0.0,147000
148000,0,74.21166875331309,0.0006539821624755859,0.00014257431030273438,0.016077041625976562,147988.0,-14.902157287597657,1.690194034576416,-3.644002936198376e-05,-1.7280806998411815,-6.011324485143025,0.0032189523917622864,317.36159868310375,1000.0,148.0,269.4460881271876,62.83441215793495,1000.0,1000.0,0.0,148000
149000,0,75.30595990724069,0.0006449222564697266,0.00014781951904296875,0.015011310577392578,148988.0,-14.957167510986329,1.721543731689453,-0.0007704286254011095,-1.793298989534378,-6.239100178082784,0.0032223815796896815,261.5743222223459,1000.0,149.0,282.731010613742,84.03638955383097,1000.0,1000.0,0.0,149000
150000,0,75.24835179660808,0.0007321834564208984,0.0001518726348876953,0.015530109405517578,149988.0,-14.855585403442383,1.7398362064361572,-0.00016054478934772,-1.7895415325959523,-6.049448808034261,0.0032468454834694662,284.0430136395514,1000.0,150.0,319.2361103567064,21.979365540999122,1000.0,1000.0,0.0,150000
151000,0,74.16411396044442,0.0006535053253173828,0.0001385211944580078,0.015753507614135742,150988.0,-14.8116654586792,1.7816568660736083,-0.00028981944524275605,-1.8495112260182698,-6.089063048362732,0.00325426992882664,311.0751022311432,1000.0,151.0,286.00173673228176,62.78078107558229,1000.0,1000.0,0.0,151000
152000,0,75.6181161672579,0.0007748603820800781,0.00014281272888183594,0.014955520629882812,151988.0,-14.811401596069336,1.7878418111801146,-0.0004368746637434621,-1.840728372335434,-6.1331175565719604,0.0032819427045372627,303.8600832312186,1000.0,152.0,320.63381302580876,28.99125850561371,1000.0,1000.0,0.0,152000
153000,0,74.06625712443147,0.0007586479187011719,0.0001876354217529297,0.016007423400878906,152988.0,-14.776926879882813,1.7795229148864746,-0.00033453002652095165,-1.838403731584549,-6.10154660542806,0.0032949683954939246,327.1800548498623,1000.0,153.0,346.1680974562631,9.49790982229113,1000.0,1000.0,0.0,153000
154000,0,74.37405487605932,0.0007653236389160156,0.00016117095947265625,0.015236377716064453,153988.0,-14.825997352600098,1.8663168811798097,0.00010320734872948378,-1.9219778776168823,-5.96884282430013,0.0033121688563066223,320.84967409347604,1000.0,154.0,329.510104056055,18.06607909443311,1000.0,1000.0,0.0,154000
155000,0,75.4249132334694,0.0006377696990966797,0.000377655029296875,0.015104293823242188,154988.0,-14.842245864868165,1.8731343412399293,0.0002843944530468434,-1.9426201780637105,-5.914813995361328,0.0033381133689545095,358.06379070002595,1000.0,155.0,230.8800816363552,140.28749106544262,1000.0,1000.0,0.0,155000
156000,0,75.75316012631113,0.0006127357482910156,0.00017523765563964844,0.015241384506225586,155988.0,-14.799215202331544,1.8952200937271118,-0.00036239430361699004,-1.9582552413145702,-6.107260068257649,0.003379165990433345,364.82339726066505,1000.0,156.0,288.2736878472122,131.92735587000024,1000.0,1000.0,0.0,156000
157000,0,74.96007423261746,0.0006456375122070312,0.00017523765563964844,0.015168190002441406,156988.0,-14.780401191711427,1.8955783653259277,-0.000537356983841164,-1.975788841644923,-6.158308068911235,0.0033946046023629606,328.7212526259694,1000.0,157.0,272.05626037770287,148.57057787239648,1000.0,1000.0,0.0,157000
158000,0,75.66187617750859,0.0006394386291503906,0.00014495849609375,0.014861345291137695,157988.0,-14.747012329101562,1.9486963748931885,2.014044366660528e-05,-2.0153636435667672,-5.994105776151021,0.003415301189913104,330.50455850361567,1000.0,158.0,299.4213067138877,114.13105076506962,1000.0,1000.0,0.0,158000
159000,0,75.36614799444264,0.0007300376892089844,0.00015664100646972656,0.014690399169921875,158988.0,-14.751883583068848,1.9710008811950683,0.0003528523120621685,-2.0437726080417633,-5.896667083104451,0.003413052899607768,146.49003822699092,1000.0,159.0,198.023249173127,132.27182309663294,1000.0,1000.0,0.0,159000
160000,0,75.77779528253276,0.0006136894226074219,0.00014138221740722656,0.01562976837158203,159988.0,-14.731051368713379,2.0072289323806762,-0.00038813199231905554,-2.064194401105245,-6.113123814264934,0.0034311419197668633,237.53779911499987,1000.0,160.0,345.27085112509593,5.936574354165933,1000.0,1000.0,0.0,160000
161000,0,75.32673341297681,0.0007312297821044922,0.00021123886108398438,0.014698505401611328,160988.0,-14.704159049987792,2.033456230163574,4.3268859978221975e-05,-2.084612319866816,-5.987406889597575,0.003435173751010249,245.0088448542124,1000.0,161.0,273.83129052880946,123.28972896036937,1000.0,1000.0,0.0,161000
162000,0,73.89463818211928,0.0008885860443115234,0.00017571449279785156,0.01488351821899414,161988.0,-14.701234817504883,2.031388454437256,-0.00017762033894541673,-2.0892003774642944,-6.051594177881877,0.003442850119123856,361.7182293474265,1000.0,162.0,344.9272636190237,10.99906688801191,1000.0,1000.0,0.0,162000
163000,0,75.42578130338676,0.0006744861602783203,0.00020003318786621094,0.015599966049194336,162988.0,-14.69667179107666,2.0432131910324096,-8.140068651603845e-05,-2.1079978942871094,-6.0235956112543745,0.0034503014758229256,133.0982102232538,1000.0,163.0,241.60570632121016,151.425023084591,1000.0,1000.0,0.0,163000
164000,0,74.95852023947815,0.000766754150390625,0.00015497207641601562,0.015047311782836914,163988.0,-14.509341659545898,2.0576791763305664,-0.00045831391495691304,-2.1355395317077637,-6.1325483322143555,0.003458331416671475,344.35721047147536,1000.0,164.0,360.22515170722335,15.330071607377656,1000.0,1000.0,0.0,164000
165000,0,74.17360954899206,0.0006585121154785156,0.0001404285430908203,0.015868425369262695,164988.0,-14.474615097045898,2.087282824516296,-0.00029953136860664625,-2.1554913322130838,-6.0858369668324785,0.0034893155680038035,369.73055341326244,1000.0,165.0,289.46118682077565,128.33523047454835,1000.0,1000.0,0.0,165000
166000,0,75.12403343475717,0.0006291866302490234,0.0001366138458251953,0.015236854553222656,165988.0,-14.46296890258789,2.105906677246094,-6.105755104120665e-05,-2.1466206510861716,-6.017398317654927,0.0035101057728752494,343.6383584537267,1000.0,166.0,316.4201113137974,74.96367091305605,1000.0,1000.0,0.0,166000
167000,0,75.03221822381522,0.0006780624389648438,0.00013899803161621094,0.015163183212280273,166988.0,-14.491109161376952,2.1314503955841064,0.00030557352389829856,-2.1991092761357627,-5.913598418235779,0.0035362604927892485,359.2078733885812,1000.0,167.0,325.32065128408857,69.77923438808486,1000.0,1000.0,0.0,167000
168000,0,74.41163363034327,0.0006773471832275391,0.000141143798828125,0.01542043685913086,167988.0,-14.444346046447754,2.1509236812591555,-0.00037932698493629385,-2.2141339778900146,-6.1065354347229,0.003560745894598464,352.3349378237351,1000.0,168.0,353.4519510771621,8.3794428940153,1000.0,1000.0,0.0,168000
169000,0,73.63300766753017,0.0007252693176269531,0.00015091896057128906,0.015615701675415039,168988.0,-14.446127967834473,2.1818669700622557,0.00015614001798288277,-2.252810617287954,-5.956261436144511,0.003570060847171893,370.98382086199433,1000.0,169.0,344.55367550301924,16.435920830642804,1000.0,1000.0,0.0,169000
170000,0,74.49209098387792,0.0006194114685058594,0.00021386146545410156,0.015126466751098633,169988.0,-14.386715621948243,2.1771743583679197,0.000468361528570919,-2.242817481358846,-5.869550943374634,0.0035900000172356763,322.4784763590846,1000.0,170.0,329.5401238055787,84.56037942646813,1000.0,1000.0,0.0,170000
171000,0,75.35287886779815,0.0006976127624511719,0.0001537799835205078,0.015344858169555664,170988.0,-14.462533912658692,2.19837721824646,-0.0005272904478867227,-2.2745752135912576,-6.148345152537028,0.0035546093519466617,351.3726728870652,1000.0,171.0,313.24060010327855,78.6314389127992,1000.0,1000.0,0.0,171000
172000,0,74.5066468470376,0.0006511211395263672,0.00020623207092285156,0.01541280746459961,171988.0,-14.361476593017578,2.1977418804168702,5.995741351701629e-06,-2.256677766640981,-5.998309930165608,0.003530235573028525,340.14353733839073,1000.0,172.0,340.24713066573884,17.210789249818912,1000.0,1000.0,0.0,172000
173000,0,74.04005569724649,0.0006334781646728516,0.00013637542724609375,0.015217781066894531,172988.0,-14.456707763671876,2.2231593132019043,-0.000311352177959634,-2.2598677277565002,-6.08783491452535,0.003546842005259047,344.1726475594597,1000.0,173.0,350.9428873499479,8.918474532834711,1000.0,1000.0,0.0,173000
174000,0,75.6502491912467,0.000736236572265625,0.00014472007751464844,0.014968395233154297,173988.0,-14.41591381072998,2.2505440807342527,-0.00034398812931613065,-2.3059409856796265,-6.09594730536143,0.003584933622429768,333.52188314507606,1000.0,174.0,338.74860339179435,16.546823766852203,1000.0,1000.0,0.0,174000
175000,0,75.64490088603084,0.0006945133209228516,0.00014472007751464844,0.01598525047302246,174988.0,-14.430144195556641,2.2991120433807373,0.00045163678866326035,-2.3694480260213218,-5.875187714894612,0.0036184174047472575,324.67345660421165,1000.0,175.0,336.8233600275081,11.354806586708197,1000.0,1000.0,0.0,175000
176000,0,74.89208037048358,0.0006327629089355469,0.0001747608184814453,0.01504206657409668,175988.0,-14.471698532104492,2.2775126934051513,0.00015425504201023918,-2.3403438329696655,-5.957590699195862,0.003636426447580258,346.7688985193132,1000.0,176.0,358.43811621193754,14.907111504690349,1000.0,1000.0,0.0,176000
177000,0,75.32061918615092,0.0006971359252929688,0.00014781951904296875,0.014335155487060547,176988.0,-14.330572090148927,2.3082910060882567,-0.0003026783100115911,-2.3762070139249167,-6.083049853642781,0.0036446741626908383,335.26668566594867,1000.0,177.0,333.1165805612376,15.944357875359023,1000.0,1000.0,0.0,177000
178000,0,74.36920196317627,0.0006392002105712891,0.000186920166015625,0.015410423278808594,177988.0,-14.421692771911621,2.3612409019470215,-1.176372582752568e-05,-2.441860616207123,-6.003207325935364,0.003680559379669527,343.58237553530654,1000.0,178.0,338.2518692356592,10.361108635235178,1000.0,1000.0,0.0,178000
179000,0,75.82535905062106,0.0006406307220458984,0.0001366138458251953,0.015195369720458984,178988.0,-14.373319664001464,2.3321574974060058,0.0007619297751565076,-2.4027311404546103,-5.794445474942525,0.003706295664111773,219.55608991224352,1000.0,179.0,344.84195019574975,19.103743306767345,1000.0,1000.0,0.0,179000
180000,0,74.96328959540631,0.0006377696990966797,0.00018215179443359375,0.015552520751953125,179988.0,-14.271598358154296,2.3608783531188964,-0.0003416773894665918,-2.4277387062708535,-6.091970523198445,0.0037157703773118556,326.8235085607406,1000.0,180.0,357.66502927586953,11.386218126258365,1000.0,1000.0,0.0,180000
181000,0,75.34876368000116,0.0006945133209228516,0.00013566017150878906,0.01493978500366211,180988.0,-14.322915000915527,2.36849308013916,-0.0005908370688606132,-2.441612263520559,-6.155621727307637,0.0037967267562635243,342.89998763407107,1000.0,181.0,319.1849663576048,28.038773153985233,1000.0,1000.0,0.0,181000
182000,0,75.08078565255403,0.0006392002105712891,0.00016760826110839844,0.015251398086547852,181988.0,-14.289105377197266,2.397257881164551,-0.0002524185226017532,-2.455977439880371,-6.066022117932637,0.0038239497031706073,356.8045588249733,1000.0,182.0,343.34338487006937,8.874899498589954,1000.0,1000.0,0.0,182000
183000,0,74.86678818696991,0.0006775856018066406,0.00014591217041015625,0.015127420425415039,182988.0,-14.343408241271973,2.378763189315796,-0.000578208222577814,-2.4630139470100403,-6.149952570597331,0.0038567164835209646,334.7376335983311,1000.0,183.0,331.91583194596,20.053778123909762,1000.0,1000.0,0.0,183000
184000,0,73.91641177867992,0.0007278919219970703,0.00019860267639160156,0.015593290328979492,183988.0,-14.309245567321778,2.3871693420410156,-0.00029862287495537504,-2.4621695081392923,-6.077331304550171,0.003861430062291523,345.35324152753003,1000.0,184.0,343.6019825115065,4.475953409319586,1000.0,1000.0,0.0,184000
185000,0,74.32866269850552,0.0009081363677978516,0.00014972686767578125,0.015115737915039062,184988.0,-14.298373832702637,2.3980788135528566,0.00030710151137706515,-2.4790154695510864,-5.921048800150554,0.0038890387901725867,339.0616017137408,1000.0,185.0,339.2266856107893,3.7970064016065614,1000.0,1000.0,0.0,185000
186000,0,74.84413063975852,0.0008378028869628906,0.0001671314239501953,0.015357255935668945,185988.0,-14.186283378601074,2.417319507598877,-0.00015732974922381496,-2.468647559483846,-6.040075302124023,0.003926698778135081,346.1321927454748,1000.0,186.0,331.66508778028447,10.671687693373483,1000.0,1000.0,0.0,186000
187000,0,75.91577398793544,0.0007228851318359375,0.0001537799835205078,0.015144109725952148,186988.0,-14.136344757080078,2.4361061573028566,-9.278359357267618e-05,-2.510212779045105,-6.023491541544597,0.0039539734134450555,327.4993610700233,1000.0,187.0,328.79915693631193,6.016119705823643,1000.0,1000.0,0.0,187000
188000,0,75.04365599647316,0.0006780624389648438,0.0001430511474609375,0.014690160751342773,187988.0,-14.23048095703125,2.4384548473358154,-0.00015266568516381085,-2.472171366214752,-6.038308342297872,0.0039859544873858494,338.1297434578688,1000.0,188.0,333.6669018980127,7.538685526054323,1000.0,1000.0,0.0,188000
189000,0,74.14544464596968,0.0006315708160400391,0.00013780593872070312,0.01527857780456543,188988.0,-14.163478965759277,2.459678907394409,-0.00024949514166413184,-2.5328025420506797,-6.062613248825073,0.003984647880618771,330.53760212711956,1000.0,189.0,325.6751978505589,75.21180466991137,1000.0,1000.0,0.0,189000
190000,0,75.09218446202158,0.0007011890411376953,0.0001537799835205078,0.01497650146484375,189988.0,-14.217333755493165,2.44568696975708,-0.00011910814100701828,-2.511564393838247,-6.029863158861796,0.003988682913283507,322.0598312748153,1000.0,190.0,327.3067177280604,7.127843594582294,1000.0,1000.0,0.0,190000
191000,0,75.31905020834246,0.0006413459777832031,0.00013947486877441406,0.015344381332397461,190988.0,-14.144281768798828,2.4417982387542723,-0.00044862056771914166,-2.5217448472976685,-6.111690481503804,0.004016723677826424,338.63320672065385,1000.0,191.0,356.3216929170394,6.7655665814564845,1000.0,1000.0,0.0,191000
192000,0,74.7081002362557,0.0006616115570068359,0.00014352798461914062,0.014859676361083984,191988.0,-14.040809669494628,2.470525598526001,0.00011003297428639296,-2.541547656059265,-5.972709099451701,0.004031186806969345,349.2593533535705,1000.0,192.0,340.39991483583043,5.938051082166734,1000.0,1000.0,0.0,192000
193000,0,73.5839708745086,0.0006031990051269531,0.0001697540283203125,0.014825820922851562,192988.0,-14.145517272949219,2.455919370651245,-0.00014005423872731626,-2.5094745556513467,-6.034520506858826,0.004058730478088061,344.00137334420987,1000.0,193.0,316.58558523738986,6.728699194592353,1000.0,1000.0,0.0,193000
194000,0,75.00489982188968,0.0006358623504638672,0.00015473365783691406,0.014962911605834961,193988.0,-14.093292808532714,2.468457384109497,-0.00018117738242532747,-2.5336267749468484,-6.044259349505107,0.004093469159367184,338.73835496189605,1000.0,194.0,345.73125398407814,6.638591397335506,1000.0,1000.0,0.0,194000
195000,0,74.93714597712814,0.0006210803985595703,0.00015354156494140625,0.01486063003540039,194988.0,-14.048906669616699,2.4671925926208496,1.1799386508452395e-05,-2.5257111191749573,-5.997127532958984,0.004104141456385453,345.21649072166787,1000.0,195.0,335.5538438343477,5.207277863371831,1000.0,1000.0,0.0,195000
196000,0,74.10279223959368,0.0007047653198242188,0.0001327991485595703,0.015362977981567383,195988.0,-14.028543548583984,2.474712619781494,0.00042139493840901804,-2.527875542640686,-5.897044936815898,0.0040927150985226035,342.3404122779226,1000.0,196.0,350.91517547168786,7.300824663202894,1000.0,1000.0,0.0,196000
197000,0,75.10455501000963,0.0006878376007080078,0.00013780593872070312,0.015102148056030273,196988.0,-13.986375465393067,2.477398567199707,0.0003516469793491221,-2.53746368487676,-5.914802630742391,0.004127061731802921,342.4397237896678,1000.0,197.0,357.89561898212816,7.95832616501992,1000.0,1000.0,0.0,197000
198000,0,74.32834657111364,0.0006458759307861328,0.00013875961303710938,0.014873504638671875,197988.0,-14.053073272705078,2.4456048107147215,-0.00017142813400520632,-2.5064376990000405,-6.041383703549703,0.004142349663500984,336.63628032410725,1000.0,198.0,352.25292615102984,6.187350258369823,1000.0,1000.0,0.0,198000
199000,0,74.6565052892988,0.0006952285766601562,0.00018644332885742188,0.015522241592407227,198988.0,-13.974556427001954,2.4518159294128417,-0.0004161292781645898,-2.5216753085454306,-6.1001594463984175,0.0041556825550893945,341.3481726214843,1000.0,199.0,358.8061387868596,4.945731310404049,1000.0,1000.0,0.0,199000
200000,0,74.80387254087162,0.0006592273712158203,0.00018167495727539062,0.01523137092590332,199988.0,-14.031582069396972,2.461492795944214,0.00023178087940323167,-2.493849515914917,-5.943951487541199,0.0041351469699293375,348.9821011025809,1000.0,200.0,363.0803171751402,4.6829394822057075,1000.0,1000.0,0.0,200000
