niicovila/Q-Reps/lightning_research_framework/results/XSAC_TEST/sac_1_v2/log.csv
time/steps,time/epochs,time/steps_per_second,time/dataset,time/preprocess,time/train_step,train/env_steps,train/q_loss,train/target_q,train/value_loss,train/target_v,train/alpha_loss,train/actor_loss,train/entropy,train/alpha,train/reward,train/length,train/num_ep,eval/reward,eval/stddev,eval/length,eval/discount,eval/early_termination,step
1000,0,72.98554315823176,0.00048422813415527344,0.0001430511474609375,0.015099525451660156,988.0,4.9307641020277516e-05,-0.022083660438656807,-0.9998641800880432,-0.0242911159992218,0.9664564977089564,-0.3562466974059741,3.908495525519053,0.09752820804715157,3.1006293538641128,1000.0,1.0,0.1318354278933436,0.07278320166527326,1000.0,1000.0,0.0,1000
2000,0,72.86681106939322,0.0005218982696533203,0.00013327598571777344,0.014853715896606445,1988.0,5.126408570504282e-05,-0.0115235935151577,-0.9999734091758729,-0.01830886710435152,0.9352306127548218,-0.3587353304028511,4.08092733224233,0.09276317556699117,3.0010849429765525,1000.0,2.0,0.15631871811292583,0.08395048687532276,1000.0,1000.0,0.0,2000
3000,0,71.44168199071088,0.0004487037658691406,0.00016260147094726562,0.01523447036743164,2988.0,3.970539211877622e-05,-0.007817293107509614,-0.9999846935272216,-0.01354527298361063,0.8911731292804083,-0.3471282447377841,4.083673357963562,0.08836933846275012,3.2421051484522496,1000.0,3.0,0.24220138499237645,0.10720830951526578,1000.0,1000.0,0.0,3000
4000,0,70.7414666068483,0.0004353523254394531,0.00013375282287597656,0.016359329223632812,3988.0,6.678456506051589e-05,-0.008388346564024686,-0.9999783611297608,-0.01308169323951006,0.849380373954773,-0.3297043442726135,4.078980962435405,0.08426450006663799,2.6266688997133016,1000.0,4.0,0.2722345751118143,0.0777573116446814,1000.0,1000.0,0.0,4000
5000,0,67.39808265227745,0.0004994869232177734,0.00013303756713867188,0.016468286514282227,4988.0,2.3742611665511505e-05,-0.008559434469789266,-0.9999789047241211,-0.012740708962082863,0.8103961199522018,-0.3157954240838687,4.078210790952046,0.08040322363376617,3.2314450196911784,1000.0,5.0,0.27242029667333,0.13747656928164662,1000.0,1000.0,0.0,5000
6000,0,68.65117582396718,0.0005190372467041016,0.0001442432403564453,0.016661643981933594,5988.0,2.7056399703724308e-05,-0.008331074751913548,-0.9999791836738586,-0.012853592671453952,0.7736633519331614,-0.30042662223180133,4.078722318013509,0.07675494750340779,4.956303401891877,1000.0,6.0,0.3384756761691605,0.15354939389257297,1000.0,1000.0,0.0,6000
7000,0,67.55479046969886,0.0006978511810302734,0.0001819133758544922,0.017023801803588867,6988.0,4.812724408111535e-05,-0.00825038854032755,-0.9999767017364501,-0.012942938879132272,0.7388199667135874,-0.28642535706361133,4.079033374786377,0.07329591487844785,3.2789003835616093,1000.0,7.0,0.41927843874057535,0.1956034948675099,1000.0,1000.0,0.0,7000
8000,0,66.45936987013316,0.0004699230194091797,0.00013637542724609375,0.017100095748901367,7988.0,4.206320336379577e-05,-0.005970512432977557,-0.9999754548072814,-0.010352315194904805,0.7058979372183481,-0.27503520001967746,4.081674416859944,0.07001151827474435,4.266583801930979,1000.0,8.0,0.7217467726953426,0.17563823949158913,1000.0,1000.0,0.0,8000
9000,0,68.1107568872295,0.0005021095275878906,0.00014162063598632812,0.016675949096679688,8988.0,6.822280236519874e-05,-0.002293898620409891,-0.9999717664718628,-0.007038932108553126,0.6745101511478424,-0.26698463906844455,4.08374039332072,0.06688475360472997,6.2081597748173705,1000.0,9.0,0.6337401813573996,0.08504974405199486,1000.0,1000.0,0.0,9000
10000,0,66.41727420713593,0.0005626678466796875,0.0001361370086669922,0.01681804656982422,9988.0,5.075116889202036e-05,0.0032184682483784853,-0.9999673342704773,-0.0017737136012874544,0.6440723488728205,-0.25867119431495667,4.077378908793132,0.06390686705708504,6.318894524507188,1000.0,10.0,1.5170641961575777,0.2727730674797416,1000.0,1000.0,0.0,10000
11000,0,62.70431244038738,0.0004780292510986328,0.0001537799835205078,0.01727771759033203,10988.0,8.303177848574706e-05,0.00949387351050973,-0.999960880279541,0.004630002225749195,0.6153096805016199,-0.25397997473677,4.075025161107381,0.061067236587405205,7.132950684180093,1000.0,11.0,5.843812634774665,0.42937777569944713,1000.0,1000.0,0.0,11000
12000,0,61.495982964178914,0.00048065185546875,0.00018930435180664062,0.017144441604614258,11988.0,8.962900610640646e-05,0.017285218983888625,-0.9999554753303528,0.01238475326448679,0.5879105925559998,-0.2498290774722894,4.073652267456055,0.05835592125852903,5.710606917656777,1000.0,12.0,8.50301279505125,1.0000239664111004,1000.0,1000.0,0.0,12000
13000,0,66.3004441207118,0.0004787445068359375,0.00014448165893554688,0.016828298568725586,12988.0,8.127344539389014e-05,0.02432591550052166,-0.9999493956565857,0.01941951472312212,0.5615596324205399,-0.24598162372907004,4.068311293919881,0.055769896445175014,6.9230663007040105,1000.0,13.0,13.976398231504461,0.6063879513317731,1000.0,1000.0,0.0,13000
14000,0,67.39370754857651,0.00047898292541503906,0.00013446807861328125,0.01689624786376953,13988.0,0.00014607782155508177,0.031042548716068267,-0.9999420428276062,0.025476815700531005,0.5362018495798111,-0.2412008692820867,4.059176802635193,0.05329991194109122,6.8733317664229485,1000.0,14.0,20.290026582225856,0.5723080335853741,1000.0,1000.0,0.0,14000
15000,0,67.6317821182532,0.0005052089691162109,0.00014066696166992188,0.01688671112060547,14988.0,0.00018285658239619807,0.04224355712532997,-0.9999312114715576,0.03767153762280941,0.5117427359024683,-0.24393233905235925,4.045021454493205,0.05094031120340029,16.66155348241435,1000.0,15.0,23.868576037903054,0.42227048906810316,1000.0,1000.0,0.0,15000
16000,0,67.42044353456839,0.0007157325744628906,0.00015878677368164062,0.017290353775024414,15988.0,0.0001614034638623707,0.055089081525802615,-0.9999160146713257,0.05071168258786202,0.48845893889665604,-0.24692949280142784,4.031274914741516,0.048689206751684345,15.351260224209282,1000.0,16.0,27.941377779951885,1.0720778524277357,1000.0,1000.0,0.0,16000
17000,0,66.92054423487951,0.0008761882781982422,0.000202178955078125,0.018149137496948242,16988.0,0.00024043886456638576,0.06255528405308723,-0.9998978042602539,0.05833203956484795,0.4659713804721832,-0.24421663085619608,4.011704285939534,0.04653845479091009,17.00504379711245,1000.0,17.0,36.228310695955756,1.6562621176658223,1000.0,1000.0,0.0,17000
18000,0,67.69924474166395,0.0005462169647216797,0.00015211105346679688,0.016830921173095703,17988.0,0.000330514392699115,0.07996324688196182,-0.999871723651886,0.07739399999380112,0.4436734914779663,-0.2543976344168186,3.9723430474599204,0.044486373042066894,20.40956612401908,1000.0,18.0,44.00393096897542,3.220434396458695,1000.0,1000.0,0.0,18000
19000,0,68.2234939868781,0.0005035400390625,0.0001823902130126953,0.01649165153503418,18988.0,0.00044846577337011697,0.10698187500238418,-0.9998336887359619,0.10630643874406814,0.4219261755545934,-0.2722582096854846,3.9201399882634482,0.042528445832431316,22.622753767918695,1000.0,19.0,61.098785883365075,7.790671217881952,1000.0,1000.0,0.0,19000
20000,0,67.52725204933736,0.0005736351013183594,0.00014162063598632812,0.016880273818969727,19988.0,0.0005328033887781203,0.14187289416790008,-0.9997962069511414,0.14452006340026854,0.3998735348383586,-0.30101194729407627,3.8329442938168845,0.040663051108519234,29.164841451498003,1000.0,20.0,67.74852122723662,4.751581001036658,1000.0,1000.0,0.0,20000
21000,0,67.32361015873994,0.0005049705505371094,0.00013566017150878906,0.016815662384033203,20988.0,0.0009348198166117072,0.19483980894088745,-0.9997246479988098,0.2022552967071533,0.377357542514801,-0.34831106662750244,3.7026968201001487,0.03888857892404,48.57312791056939,1000.0,21.0,60.60600573021833,2.2350526089051863,1000.0,1000.0,0.0,21000
22000,0,66.18181037839871,0.00055694580078125,0.0001404285430908203,0.01624464988708496,21988.0,0.001203493126668036,0.26562218487262723,-0.9996489357948303,0.28065216422080996,0.3541300818324089,-0.4066890999674797,3.5177770455678306,0.03720394956568877,45.38356368867156,1000.0,22.0,83.68828731277749,27.744856915506872,1000.0,1000.0,0.0,22000
23000,0,67.22080546292129,0.0005140304565429688,0.00015735626220703125,0.016940593719482422,22988.0,0.002157263681292534,0.36566309213638304,-0.9995267105102539,0.39941235780715945,0.3269893278678258,-0.5122982561588287,3.180670956770579,0.035614053097863994,82.97740065728696,1000.0,23.0,76.54547809766956,5.155849846631777,1000.0,1000.0,0.0,23000
24000,0,67.27333384658814,0.0005285739898681641,0.00013518333435058594,0.016965150833129883,23988.0,0.0027006674371659756,0.4716099202632904,-0.9994366192817687,0.5313897395133972,0.29648642241954803,-0.6264047771692276,2.6867961088816323,0.03412777278572321,73.81175151521111,1000.0,24.0,75.62719048622532,7.398234412703943,1000.0,1000.0,0.0,24000
25000,0,63.645490268438856,0.0005230903625488281,0.00017309188842773438,0.01632070541381836,24988.0,0.004291100092232227,0.5764169907569885,-0.9992906451225281,0.6622797870635986,0.27076228708028793,-0.7322959105173746,2.2712043126424155,0.03273277295132478,80.01035098470643,1000.0,25.0,30.834430619160877,24.06371405305207,1000.0,1000.0,0.0,25000
26000,0,62.644037986359706,0.0005326271057128906,0.00014638900756835938,0.016603469848632812,25988.0,0.0044960792921483516,0.6538198828697205,-0.9991880869865417,0.752646484375,0.2501773250599702,-0.8179703752199808,1.9655901889006298,0.03140462872882684,48.645985477430536,1000.0,26.0,33.87641975514959,13.189579340787793,1000.0,1000.0,0.0,26000
27000,0,65.35855153258902,0.0005445480346679688,0.00014090538024902344,0.01699352264404297,26988.0,0.005340373981744051,0.7316385340690613,-0.9991317081451416,0.8670399594306946,0.21711804966131845,-0.9056810239950815,1.1986470421155293,0.030158591456711292,18.118984603881177,1000.0,27.0,46.87109367739713,20.621960654953178,1000.0,1000.0,0.0,27000
28000,0,66.63065842967654,0.0005822181701660156,0.00013494491577148438,0.01607823371887207,27988.0,0.006757093835622072,0.8455217528343201,-0.9991111445426941,1.0212222695350648,0.19586937626202902,-1.0426766475041707,0.755044495066007,0.028993753250688314,36.067287454470126,1000.0,28.0,25.324733122520854,8.670349015298905,1000.0,1000.0,0.0,28000
29000,0,67.22640802991214,0.0005271434783935547,0.0001819133758544922,0.016464710235595703,28988.0,0.0059602042101323605,0.9555709552764893,-0.9991646599769592,1.157964720726013,0.1762634813785553,-1.179851512114207,0.31712909539540607,0.02790017348403732,54.969839817317094,1000.0,29.0,27.539117112723254,19.732443083021295,1000.0,1000.0,0.0,29000
30000,0,67.76040468478995,0.0007948875427246094,0.00016546249389648438,0.01839303970336914,29988.0,0.004867799188941717,0.9965500617027283,-0.9992262983322143,1.1714816331863402,0.1744107442597548,-1.1960950394471486,0.509690023958683,0.026790208493669827,31.83445420345783,1000.0,30.0,15.59079214457868,5.312031745282816,1000.0,1000.0,0.0,30000
31000,0,67.39236480888884,0.0010573863983154297,0.0002009868621826172,0.01709723472595215,30988.0,0.004794199708849192,1.0216507077217103,-0.9992521929740906,1.1418385457992555,0.18340251222252846,-1.1589992046356201,1.1532759567101796,0.025636591172466677,28.31928226927465,1000.0,31.0,6.590363731195433,1.4029956283316216,1000.0,1000.0,0.0,31000
32000,0,67.08992853856927,0.0006320476531982422,0.00014066696166992188,0.01677536964416504,31988.0,0.007017107531428337,1.0733974647521973,-0.9991484808921814,1.2121229600906371,0.17150374998648962,-1.2330319086710613,1.0077284425497055,0.02447139813254277,57.42917214786281,1000.0,32.0,58.01611054136686,4.068333619441407,1000.0,1000.0,0.0,32000
33000,0,67.50499410621433,0.0005424022674560547,0.0001354217529296875,0.01685190200805664,32988.0,0.00968318097293377,1.172329487800598,-0.9990997171401977,1.3521510696411132,0.14484170948465666,-1.3547799090544383,0.1761554948364695,0.0234498946617047,71.10268787923198,1000.0,33.0,58.29967485446339,27.910241965269282,1000.0,1000.0,0.0,33000
34000,0,67.14852997962957,0.0007603168487548828,0.0001480579376220703,0.01733851432800293,33988.0,0.01250613696873188,1.1735108947753907,-0.9989778447151184,1.3883938932418822,0.12485560278097789,-1.389715184768041,-0.46138818313678104,0.022540990728884935,60.42583045072479,1000.0,34.0,71.60434714714572,16.724417365238963,1000.0,1000.0,0.0,34000
35000,0,66.57764892851723,0.0005950927734375,0.0001342296600341797,0.01668524742126465,34988.0,0.010879942774772644,1.0200534296035766,-0.9991071486473083,1.2385510540008544,0.11716168063382308,-1.2195763786633809,-0.5975592831770579,0.02168504831691583,45.04842843306049,1000.0,35.0,5.802447631192937,1.8103707149474615,1000.0,1000.0,0.0,35000
36000,0,67.50295163186294,0.0006239414215087891,0.0001456737518310547,0.01674795150756836,35988.0,0.009204946197569371,0.8538096809387207,-0.9992326498031616,1.0745478534698487,0.1098097562789917,-1.0694242715835571,-0.7224310139815012,0.02080523579691847,17.55187987796035,1000.0,36.0,2.7946865213366583,1.9254399090459693,1000.0,1000.0,0.0,36000
37000,0,67.50090928110465,0.000579833984375,0.00016999244689941406,0.016892433166503906,36988.0,0.00789023369550705,0.6978612637519837,-0.9993054509162903,0.9295070505142212,0.09763442352414131,-0.9045512676239014,-1.119446908434232,0.020003219445546467,4.778487690030561,1000.0,37.0,0.7000052727098047,0.148671865666111,1000.0,1000.0,0.0,37000
38000,0,67.69845799448896,0.0006449222564697266,0.0001385211944580078,0.016618967056274414,37988.0,0.0059431524947285656,0.560111346244812,-0.9994011473655701,0.7582333707809448,0.09842894164224465,-0.7447680483261744,-0.8700630615154902,0.019185576122254133,8.663471223450012,1000.0,38.0,3.6537858366186553,0.7740113880935324,1000.0,1000.0,0.0,38000
39000,0,62.606486003673126,0.0006022453308105469,0.0001506805419921875,0.016389846801757812,38988.0,0.004612820856273174,0.4496751356124878,-0.9994433641433715,0.596237165927887,0.10500447638332844,-0.5838089932998022,-0.2719070855528116,0.01832982727016012,14.96302061297651,1000.0,39.0,3.8972264530732716,0.6265966318863537,1000.0,1000.0,0.0,39000
40000,0,60.64940187886731,0.0006089210510253906,0.00013303756713867188,0.01674818992614746,39988.0,0.003972139125689864,0.4084730684757233,-0.99946204662323,0.5236139106750488,0.10454757139086723,-0.5180265828967094,-0.013798235294719538,0.017463172630717356,14.581184548462964,1000.0,40.0,3.614117128295603,0.47952269992264773,1000.0,1000.0,0.0,40000
41000,0,66.46156030418618,0.0005803108215332031,0.00017333030700683594,0.01629352569580078,40988.0,0.004550643963739276,0.44500675678253176,-0.9994201803207398,0.5388772571086884,0.10368519648909569,-0.5407663385073344,0.23309019083778063,0.016632993705570698,112.06969346061138,1000.0,41.0,35.723383603461166,14.346667297779732,1000.0,1000.0,0.0,41000
42000,0,67.23261504054824,0.0005474090576171875,0.0001571178436279297,0.016535282135009766,41988.0,0.005331172309815883,0.5149042856693268,-0.9993637585639954,0.6087526750564575,0.09691177122294903,-0.6092005471388499,0.11174025138219197,0.015855088519553345,74.91675228617689,1000.0,42.0,36.44235395835149,39.12467365173383,1000.0,1000.0,0.0,42000
43000,0,67.1626801123204,0.0009229183197021484,0.00018143653869628906,0.01895928382873535,42988.0,0.006940049715340137,0.6306660938262939,-0.9992705035209656,0.7576342868804932,0.08069749735295773,-0.7550108979145685,-0.6804793824752172,0.015168814221397042,54.65727739440743,1000.0,43.0,86.70067848813223,20.287254480170386,1000.0,1000.0,0.0,43000
44000,0,67.3192879374634,0.0008418560028076172,0.00017452239990234375,0.017314910888671875,43988.0,0.008468995504081249,0.817979564666748,-0.9992363405227661,0.9693490505218506,0.07012672163546085,-0.96558445195357,-1.1894717067480087,0.014576569121951858,104.37398884278623,1000.0,44.0,98.21755759451018,17.86155944901966,1000.0,1000.0,0.0,44000
45000,0,66.25256287534869,0.0009162425994873047,0.00024175643920898438,0.017934083938598633,44988.0,0.00932891745120287,0.9976828622817994,-0.9992009043693543,1.155213804244995,0.062083336835106216,-1.1324179569880168,-1.5729231437047322,0.014022602622086803,93.16332961252124,1000.0,45.0,60.014533208454736,41.05527982649663,1000.0,1000.0,0.0,45000
46000,0,66.9478891395218,0.0005929470062255859,0.00013375282287597656,0.017751455307006836,45988.0,0.009590910375118255,1.1439025068283082,-0.9991719174385071,1.304008469581604,0.057833365785578884,-1.266722063223521,-1.7112666964530945,0.013483927429964146,113.7236097058303,1000.0,46.0,62.68693181367264,34.51148401679191,1000.0,1000.0,0.0,46000
47000,0,66.47997408198032,0.0006067752838134766,0.00013327598571777344,0.016721725463867188,46988.0,0.011293818689882756,1.1729986143112183,-0.9991400551795959,1.3207215356826782,0.05633182916790247,-1.3007309436798096,-1.6495038668314617,0.012947329009572664,48.7468372562428,1000.0,47.0,55.752005146230964,14.95587416969939,1000.0,1000.0,0.0,47000
48000,0,67.53307979403421,0.0006783008575439453,0.00015163421630859375,0.01648235321044922,47988.0,0.013481258451938628,1.1563708353042603,-0.9990399932861328,1.3243777275085449,0.04637447620431582,-1.3097954789797466,-2.2776926358540854,0.012457556168859204,144.39901585112807,1000.0,48.0,52.35605962616861,9.530409331992148,1000.0,1000.0,0.0,48000
49000,0,67.84651300022259,0.00069427490234375,0.00022363662719726562,0.017078399658203125,48988.0,0.013147775493562221,1.1347650146484376,-0.999092321395874,1.3068386173248292,0.040679157711565495,-1.2730287512143452,-2.6123500068982444,0.01200719092351695,87.92557145942635,1000.0,49.0,42.23265511070494,7.648561954571025,1000.0,1000.0,0.0,49000
50000,0,67.16840207159626,0.0006384849548339844,0.00015735626220703125,0.016731739044189453,49988.0,0.014344916418194771,1.1306624984741211,-0.9989878177642822,1.2968556785583496,0.03908745509882768,-1.2682902316252391,-2.620864907900492,0.011566394629577795,111.98672707763761,1000.0,50.0,71.01372581400862,34.97410697487185,1000.0,1000.0,0.0,50000
51000,0,67.2244254763709,0.0006420612335205078,0.0001442432403564453,0.017023324966430664,50988.0,0.011725681498646737,1.0857477831840514,-0.9990404987335205,1.2394587230682372,0.03788358656068643,-1.218909392754237,-2.5874635577201843,0.011100273113697767,63.56027443770702,1000.0,51.0,77.15707024460045,32.80935090535377,1000.0,1000.0,0.0,51000
52000,0,67.82000833055217,0.0005731582641601562,0.00016808509826660156,0.016659021377563477,51988.0,0.01380039844661951,1.1166916918754577,-0.9989314413070679,1.301231017112732,0.029753087398906548,-1.2555133799711864,-3.209508736928304,0.010661509974549213,76.1142049447071,1000.0,52.0,93.81378982113144,39.06048035192572,1000.0,1000.0,0.0,52000
53000,0,63.29702594959785,0.0005753040313720703,0.00016760826110839844,0.017157554626464844,52988.0,0.01610132832080126,1.2372929286956786,-0.998940269947052,1.4958354616165161,0.018211632501333952,-1.4415319164594014,-4.237106223901113,0.0103299207209299,105.69594501641555,1000.0,53.0,66.6589132146657,41.569001756444386,1000.0,1000.0,0.0,53000
54000,0,61.887682440340406,0.0005936622619628906,0.00013780593872070312,0.016658306121826172,53988.0,0.015583528280258179,1.2317503786087036,-0.9989789605140686,1.4542953157424927,0.021186735325803358,-1.4251363972822826,-3.8906807700792947,0.010043568598727385,30.249229934610067,1000.0,54.0,2.3928923115009395,0.10256308969047083,1000.0,1000.0,0.0,54000
55000,0,67.74206260760582,0.0005962848663330078,0.00014162063598632812,0.01619267463684082,54988.0,0.011845641769468784,1.203954210281372,-0.998963496685028,1.3508193397521973,0.03096956666558981,-1.3268375893433888,-2.773399551709493,0.00959727152561148,7.168882423485154,1000.0,55.0,20.510854900629436,15.834011903875133,1000.0,1000.0,0.0,55000
56000,0,67.39297120083192,0.0006382465362548828,0.00019311904907226562,0.01647019386291504,55988.0,0.011838720627129078,1.173744478225708,-0.9989984941482544,1.2938092231750489,0.03304655384272337,-1.297919899225235,-2.366632660230001,0.009094432462006807,105.92974900436285,1000.0,56.0,111.89007408184139,7.651374437133889,1000.0,1000.0,0.0,56000
57000,0,67.08203118752499,0.0009663105010986328,0.00020122528076171875,0.020058870315551758,56988.0,0.011304289288818836,1.1141343688964844,-0.9990787267684936,1.2200894784927367,0.03217406120772163,-1.1993040641148884,-2.2703248858451843,0.008625664360200366,109.3426863989561,1000.0,57.0,98.5571517415494,15.06369836604133,1000.0,1000.0,0.0,57000
58000,0,68.032406641454,0.0008823871612548828,0.0001628398895263672,0.01708245277404785,57988.0,0.01108541652560234,1.0925864315032958,-0.9991514229774475,1.1976618099212646,0.028086326085031033,-1.1605637768904369,-2.582347492376963,0.008217272891973456,64.54882517440888,1000.0,58.0,30.4220337681707,2.8165993077367677,1000.0,1000.0,0.0,58000
59000,0,67.4780173390169,0.0006091594696044922,0.00014400482177734375,0.01686716079711914,58988.0,0.011638156622648239,1.0738128018379212,-0.99908611536026,1.1906956434249878,0.022349131448815267,-1.170809765656789,-3.1620563864707947,0.007874553479875127,92.71215559984657,1000.0,59.0,173.10036313028544,59.86254604207073,1000.0,1000.0,0.0,59000
60000,0,66.17395831689885,0.0006802082061767578,0.00013589859008789062,0.016551733016967773,59988.0,0.012178888432681561,0.9871883463859558,-0.9990502595901489,1.1194735598564147,0.01733323186635971,-1.0922651787598927,-3.717182457447052,0.007592393395801385,170.14553788670386,1000.0,60.0,150.16473833831566,74.5419653307111,1000.0,1000.0,0.0,60000
61000,0,66.54182121632299,0.0006983280181884766,0.00021314620971679688,0.016941308975219727,60988.0,0.013027403317391873,0.9100534272193909,-0.9991028928756713,1.0512543821334839,0.015469831026469668,-1.0270686099926631,-3.8915154536565146,0.0073365083274741965,136.22785069836556,1000.0,61.0,89.82802805217867,46.24957937803446,1000.0,1000.0,0.0,61000
62000,0,65.63128842688478,0.0006597042083740234,0.00017976760864257812,0.01659536361694336,61988.0,0.01383344691246748,0.8449407720565796,-0.9990568327903747,0.9847988629341126,0.014865142603715261,-0.9488709370295206,-3.8986332217852273,0.007073455645392339,146.31457014808478,1000.0,62.0,100.48601209825271,43.07344235855461,1000.0,1000.0,0.0,62000
63000,0,66.62680573514508,0.0006661415100097656,0.00014209747314453125,0.017246484756469727,62988.0,0.013475745469331741,0.7367059969902039,-0.9990753841400146,0.8734499096870423,0.015018386378263434,-0.8473729292551676,-3.790582776069641,0.006796874028320114,73.9710879060554,1000.0,63.0,90.05356710171425,43.07976122055032,1000.0,1000.0,0.0,63000
64000,0,65.57030146395333,0.0006582736968994141,0.00014662742614746094,0.017133235931396484,63988.0,0.01209443960338831,0.6398908448219299,-0.9990864419937133,0.7767408514022827,0.013614407042041421,-0.7564061184724172,-3.91355562210083,0.006524596596136689,52.63108324044467,1000.0,64.0,96.45387159877632,37.77106906959816,1000.0,1000.0,0.0,64000
65000,0,63.526882919080435,0.0006530284881591797,0.00015687942504882812,0.016478776931762695,64988.0,0.011825941987335681,0.5916857898235321,-0.999111442565918,0.7395053434371949,0.00964401833092173,-0.7307923783858618,-4.466604193051656,0.006288857276861866,65.1284402223267,1000.0,65.0,52.771950350360726,48.674695930424534,1000.0,1000.0,0.0,65000
66000,0,61.99327789717015,0.0006270408630371094,0.0001308917999267578,0.01672816276550293,65988.0,0.013212898708879948,0.5538156795501709,-0.9990755033493042,0.710309112071991,0.008440794462027649,-0.7083662698666254,-4.612431367238362,0.006082852021791041,48.68805317938518,1000.0,66.0,58.42538589377273,30.0533873316453,1000.0,1000.0,0.0,66000
67000,0,67.49143786571304,0.0006172657012939453,0.0001304149627685547,0.016297340393066406,66988.0,0.011414485648274422,0.5580192470550537,-0.9991152501106262,0.7279384684562683,0.005191890328812103,-0.7096131642659506,-5.122644384702046,0.005917392554692924,31.26112565498474,1000.0,67.0,72.28321286367384,41.33725225312651,1000.0,1000.0,0.0,67000
68000,0,67.30965138245993,0.000629425048828125,0.00014781951904296875,0.017025232315063477,67988.0,0.012943813167512417,0.5763685071468353,-0.99900306224823,0.747292652130127,0.0049665740807540715,-0.7216099500656128,-5.138871590296428,0.005767166420506935,30.679131419344145,1000.0,68.0,97.92621208095485,65.90507048918212,1000.0,1000.0,0.0,68000
69000,0,67.63954765742875,0.0009102821350097656,0.0001690387725830078,0.017243623733520508,68988.0,0.014219390787184238,0.6652111840248108,-0.9988995170593262,0.8255102348327636,0.005707876679177086,-0.7965068419774374,-4.978729804356893,0.005588559666648507,141.96952317882383,1000.0,69.0,50.424542384861056,7.414715411715498,1000.0,1000.0,0.0,69000
70000,0,67.42451862640137,0.0009257793426513672,0.0002560615539550781,0.01792764663696289,69988.0,0.014561492130160331,0.6884199118614197,-0.9988695573806763,0.852044804096222,0.003299919616741439,-0.827218030889829,-5.390833258628845,0.005416764955346783,110.80904828388964,1000.0,70.0,70.89845021910497,34.495360710472326,1000.0,1000.0,0.0,70000
71000,0,67.360804185382,0.0006353855133056641,0.00015044212341308594,0.01646876335144043,70988.0,0.015403851792216301,0.5898087525367737,-0.9986925721168518,0.774308613538742,0.00012243192759342492,-0.7570072958866755,-5.977122664451599,0.0053515342297032475,59.69887466103515,1000.0,71.0,72.58411623313211,37.59316299828376,1000.0,1000.0,0.0,71000
72000,0,66.19793800635227,0.0006151199340820312,0.0001366138458251953,0.016942262649536133,71988.0,0.018909281641244887,0.5036737382411957,-0.9987604522705078,0.6934670734405518,0.0005839700703897203,-0.6313321441411972,-5.89060382048289,0.005337909252072374,98.4202896080101,1000.0,72.0,74.86300284919052,44.20943324754675,1000.0,1000.0,0.0,72000
73000,0,67.51668639114214,0.000629425048828125,0.00013756752014160156,0.01657724380493164,72988.0,0.02114025004208088,0.3897106719017029,-0.9986989259719848,0.5632858312129975,0.0010209110187133774,-0.5171251346667608,-5.804787834485372,0.005228992357539634,52.246065681157454,1000.0,73.0,69.47996110189436,33.234486348433975,1000.0,1000.0,0.0,73000
74000,0,67.02054700398004,0.0006344318389892578,0.00013017654418945312,0.01704096794128418,73988.0,0.022313067987561226,0.23507485866546632,-0.9988085103034973,0.41445226192474366,-7.379303375879924e-05,-0.3899672379096349,-6.014248053232829,0.005179500323720276,51.467905693201004,1000.0,74.0,131.85039656019376,60.34032575506433,1000.0,1000.0,0.0,74000
75000,0,67.39401075526597,0.0006318092346191406,0.0001308917999267578,0.01667189598083496,74988.0,0.021141389459371565,0.07618021957576275,-0.9988465309143066,0.22639570534229278,0.003978198685217649,-0.1737002246081829,-5.202665408452352,0.004988037360211213,53.33435107087898,1000.0,75.0,141.42968404522495,73.19393583762829,1000.0,1000.0,0.0,75000
76000,0,66.84554602509793,0.0006144046783447266,0.0001347064971923828,0.016933679580688477,75988.0,0.017680943980813026,0.049507485032081605,-0.9988431358337402,0.22213998079299926,-0.0014727908977268573,-0.18360984263320765,-6.310586492220561,0.004742008827937146,97.25275722512987,1000.0,76.0,0.16754273199963304,0.05900287057805155,1000.0,1000.0,0.0,76000
77000,0,65.00055790426363,0.0007011890411376953,0.0001399517059326172,0.016536474227905273,76988.0,0.015371326245367528,0.008533932864665986,-0.9989986991882325,0.1987077099084854,-0.002419038850348443,-0.15408216882497072,-6.490517735481262,0.00493198885427167,2.2525738874497225,1000.0,77.0,82.14620570502191,89.19823288122083,1000.0,1000.0,0.0,77000
78000,0,62.01751387234486,0.0006341934204101562,0.00014138221740722656,0.0167386531829834,77988.0,0.015048862099647523,-0.10159049302339554,-0.9989569211006164,0.10224547449499369,-0.001356374266227552,-0.05775377837320169,-6.267473618189494,0.0050712987237299485,59.399937503887365,1000.0,78.0,175.09050664839344,50.042074953518004,1000.0,1000.0,0.0,78000
79000,0,61.54279570094423,0.0006070137023925781,0.00017333030700683594,0.01668691635131836,78988.0,0.0144642024487257,-0.1563747575879097,-0.9989878630638123,0.029099628627300263,0.00037731084921688307,-0.00705879678328832,-5.926278829574585,0.005118056627300878,109.9104629654173,1000.0,79.0,137.27879119292956,51.316626033961086,1000.0,1000.0,0.0,79000
80000,0,66.41761076083665,0.0006289482116699219,0.0001392364501953125,0.01678919792175293,79988.0,0.014501054547727108,-0.25355140790343283,-0.998994596004486,-0.08978708878159523,0.0025323266842557737,0.1378905912861228,-5.4873948097229,0.004939197717855374,75.6059629486332,1000.0,80.0,146.2069896580988,64.47817334057602,1000.0,1000.0,0.0,80000
81000,0,67.54230186289874,0.0005788803100585938,0.00016307830810546875,0.016506195068359375,80988.0,0.016000871770083903,-0.3689021341502666,-0.9988879632949829,-0.1840108898282051,-2.452956687193364e-05,0.18687458088000616,-6.005059520403544,0.0048451164814954,61.697804281734406,1000.0,81.0,102.31167741072444,45.90879571606988,1000.0,1000.0,0.0,81000
82000,0,66.53916102642464,0.001062631607055664,0.0001811981201171875,0.016843318939208984,81988.0,0.013422900624573231,-0.534825348854065,-0.9990429782867432,-0.3816575688123703,0.002534576914816474,0.40834489464759827,-5.462120731671651,0.00471136214522024,41.921111639446565,1000.0,82.0,94.92866694537231,52.58997835905508,1000.0,1000.0,0.0,82000
83000,0,67.78173600458697,0.0009961128234863281,0.0001933574676513672,0.018730640411376953,82988.0,0.013141760379076004,-0.627096266746521,-0.9990239453315735,-0.5224762237071991,0.00563442687659214,0.5428768446048101,-4.693034013112386,0.00431036304992934,94.10510314500877,1000.0,83.0,119.95108621833538,46.06299293622592,1000.0,1000.0,0.0,83000
84000,0,67.73659255048385,0.0006468296051025391,0.00013017654418945312,0.016548633575439453,83988.0,0.01221078187227249,-0.7086714160442352,-0.9990448904037476,-0.6169082906842231,0.0036637563413629928,0.6358069280783335,-5.095418055852254,0.004049823619425297,99.80154891025434,1000.0,84.0,111.63968193877706,76.91509195923007,1000.0,1000.0,0.0,84000
85000,0,67.14152163612381,0.0006358623504638672,0.000141143798828125,0.017087697982788086,84988.0,0.011913269124925137,-0.7947980737686158,-0.9990272784233093,-0.6808419942855835,-0.0003014645396130315,0.7346952358881632,-6.076109806696574,0.003960818401537836,50.420181486993116,1000.0,85.0,183.2136211957423,68.63572137406567,1000.0,1000.0,0.0,85000
86000,0,67.77538338631301,0.0006897449493408203,0.00014138221740722656,0.016933441162109375,85988.0,0.01303857572376728,-0.7874658942222595,-0.9989708065986633,-0.6968830680847168,0.0019373125833226368,0.6682042280832926,-5.506161332130432,0.003922365373000503,210.78138725040898,1000.0,86.0,156.96013921840523,71.95399403203754,1000.0,1000.0,0.0,86000
87000,0,66.34025115731149,0.0006439685821533203,0.0001366138458251953,0.016755104064941406,86988.0,0.01761524982750416,-0.7915848159790039,-0.9988059425354003,-0.7122999179363251,0.0030750735313631594,0.7674530545870463,-5.178537130355835,0.00374291332749029,195.64301682961965,1000.0,87.0,157.16893163632162,44.88853946935463,1000.0,1000.0,0.0,87000
88000,0,67.35587145178799,0.0006515979766845703,0.0001361370086669922,0.017129182815551758,87988.0,0.014889017716050147,-0.846570770740509,-0.9989002299308777,-0.7642817115783691,0.002198567788582295,0.7308014184236526,-5.385695735613505,0.003578543682427456,147.52974793988557,1000.0,88.0,166.67132397385018,62.855065342901995,1000.0,1000.0,0.0,88000
89000,0,67.38348674791085,0.0006592273712158203,0.0001480579376220703,0.017221689224243164,88988.0,0.016657686457037926,-0.882487314939499,-0.9989777755737305,-0.7770297706127167,-0.0013406764895383578,0.8868605494499207,-6.381344000498454,0.00351597584085539,77.03722033274116,1000.0,89.0,163.90810662113694,65.01961686738059,1000.0,1000.0,0.0,89000
90000,0,68.0027134261415,0.0006079673767089844,0.0001373291015625,0.01651144027709961,89988.0,0.022261100709438323,-0.9037880992889404,-0.9986605834960938,-0.747927325963974,-0.003924723423551768,0.7630376170078913,-7.04220187664032,0.003766497985149423,201.52178323730024,1000.0,90.0,201.2646355414073,18.198366942188283,1000.0,1000.0,0.0,90000
91000,0,61.00638993435525,0.0005977153778076172,0.0001316070556640625,0.016610383987426758,90988.0,0.018271204233169556,-1.005002076625824,-0.9988409805297852,-0.8699552130699157,-0.0022913292535425476,0.9195732822020849,-6.576460798581441,0.003975192861010631,112.47725362716598,1000.0,91.0,176.13645587845028,57.61332367076231,1000.0,1000.0,0.0,91000
92000,0,63.245218652157206,0.0006344318389892578,0.00013518333435058594,0.01690959930419922,91988.0,0.017652067244052886,-1.0686007142066956,-0.9988085675239563,-0.9526279520988464,-0.0011452816155118246,1.0186116298039753,-6.281494220097859,0.004068915732204914,77.07612400398618,1000.0,92.0,177.1098064001259,68.37894230979448,1000.0,1000.0,0.0,92000
93000,0,61.80261962817382,0.0005786418914794922,0.00016498565673828125,0.01738452911376953,92988.0,0.01873796820640564,-1.0477953362464905,-0.9987332034111023,-0.9278524661064148,-0.0005271821828500833,0.955909326672554,-6.127390305201213,0.0041382678706819815,243.57761553581264,1000.0,93.0,187.4378181434253,54.02633732882601,1000.0,1000.0,0.0,93000
94000,0,66.942119214092,0.0005819797515869141,0.00012969970703125,0.016599416732788086,93988.0,0.018694953806698323,-0.9725714564323426,-0.9986698317527771,-0.8537858295440673,0.0003790636498403425,0.8189227059483528,-5.908873081207275,0.0041596338075275225,210.13581701447464,1000.0,94.0,211.43257602206603,50.71213519287874,1000.0,1000.0,0.0,94000
95000,0,66.59506971811084,0.0006310939788818359,0.0001361370086669922,0.01652812957763672,94988.0,0.020490370243787765,-1.0182803773880005,-0.9986737489700317,-0.8959693431854248,-0.00029968106779657927,0.934363454580307,-6.0715105930964155,0.004190611303783953,250.09989159361066,1000.0,95.0,166.3019143654447,58.9418893893836,1000.0,1000.0,0.0,95000
96000,0,67.62646069984605,0.0007233619689941406,0.00012874603271484375,0.017708778381347656,95988.0,0.01950825586915016,-1.0098385167121888,-0.9987502670288086,-0.8880600452423095,0.0003696710567358726,0.9316235880057017,-5.91145924727122,0.004174314788542688,225.95847740436466,1000.0,96.0,183.43395340828837,57.19499829741621,1000.0,1000.0,0.0,96000
97000,0,66.88660782857858,0.0008671283721923828,0.00016570091247558594,0.017525672912597656,96988.0,0.022747467309236526,-1.1062550354003906,-0.998556547164917,-0.9874226951599121,-0.0005308646213961765,1.0012524873018265,-6.127106746037801,0.004176675497243802,94.0504881418532,1000.0,97.0,232.769725514644,29.86405220756081,1000.0,1000.0,0.0,97000
98000,0,67.51772976578809,0.0009658336639404297,0.0001590251922607422,0.019858598709106445,97988.0,0.01776595301926136,-1.0873474311828613,-0.9987861204147339,-0.9580027151107788,-0.0005857449614268262,0.9985468238592148,-6.137200236320496,0.004269093934757014,254.65169153687793,1000.0,98.0,213.18935329121692,58.40738727537536,1000.0,1000.0,0.0,98000
99000,0,66.07558978508243,0.0006520748138427734,0.0001513957977294922,0.016095876693725586,98988.0,0.019684494957327842,-1.0578566789627075,-0.9986994004249573,-0.9354388642311097,0.0005844674815307371,0.9534768809874853,-5.864304979642232,0.004305806825868785,253.7661704247611,1000.0,99.0,267.03385800222424,16.05851308335814,1000.0,1000.0,0.0,99000
100000,0,67.05774990071568,0.0006124973297119141,0.00013566017150878906,0.01694941520690918,99988.0,0.017297447621822358,-0.9969204425811767,-0.9988998079299927,-0.8711245155334473,0.00020105276416870765,0.9339359054962794,-5.953128854433696,0.00428834759319822,279.92988209462777,1000.0,100.0,270.0150367786652,69.68372936642942,1000.0,1000.0,0.0,100000
101000,0,67.88916577805315,0.0006372928619384766,0.00014472007751464844,0.016196012496948242,100988.0,0.017257901579141616,-1.0586010098457337,-0.9989225006103516,-0.9396416783332825,3.19998107443098e-05,0.9622397075096766,-5.992402076721191,0.0042122483331089216,214.17714457705284,1000.0,101.0,172.3821974898769,96.61857750879818,1000.0,1000.0,0.0,101000
102000,0,67.13975903151594,0.0006444454193115234,0.00013184547424316406,0.01640772819519043,101988.0,0.015910205841064454,-1.0842242121696473,-0.9988810682296753,-0.9679631400108337,7.418250182430104e-05,0.9583029747009277,-5.982005437215169,0.004118197908004125,82.35363745904398,1000.0,102.0,168.27411067317095,89.37911414306319,1000.0,1000.0,0.0,102000
103000,0,67.48170853747457,0.0006313323974609375,0.00012874603271484375,0.016826629638671875,102988.0,0.017565371692180632,-1.1135537648200988,-0.998764591217041,-1.0037452220916747,-0.00030491161548222107,1.0724425911903381,-6.074313521385193,0.004103108774870634,217.8726977508701,1000.0,103.0,198.5519827528959,104.9356844327487,1000.0,1000.0,0.0,103000
104000,0,67.48457492304355,0.0006282329559326172,0.00014090538024902344,0.016663312911987305,103988.0,0.018188642263412477,-1.1723839139938355,-0.9987306308746338,-1.0680092906951903,-0.00033191213030174066,1.1316924840211868,-6.080847859382629,0.004105595483755072,92.73174629120268,1000.0,104.0,200.15377817363878,90.42665734790441,1000.0,1000.0,0.0,104000
105000,0,67.45887301345284,0.0006308555603027344,0.00014662742614746094,0.016729354858398438,104988.0,0.020410762652754783,-1.1309980535507203,-0.998707115650177,-1.0251212739944457,-0.0006630835268879309,0.9621195097764333,-6.158339262008667,0.004187650978565216,280.9317143024211,1000.0,105.0,144.52122814173407,92.58055861812693,1000.0,1000.0,0.0,105000
106000,0,63.7317540430415,0.000978231430053711,0.00019407272338867188,0.01742386817932129,105988.0,0.01631410703063011,-1.2643149280548096,-0.9989174318313598,-1.1509783792495727,-0.00048002688769580953,1.169506202141444,-6.111633777618408,0.004300505349723001,55.7234596599691,1000.0,106.0,136.42507178077494,70.28837706091575,1000.0,1000.0,0.0,106000
107000,0,61.59677100056805,0.0006561279296875,0.00023317337036132812,0.016321897506713867,106988.0,0.016548364721238613,-1.3711077499389648,-0.9989101624488831,-1.2516110992431642,0.00014138609306731573,1.2583266297976177,-5.967954039573669,0.004404043429531157,64.27317318169708,1000.0,107.0,145.93805649958148,90.07453774434411,1000.0,1000.0,0.0,107000
108000,0,66.3935557646451,0.000789642333984375,0.00013637542724609375,0.016743183135986328,107988.0,0.018625793680548668,-1.570243616104126,-0.998758065700531,-1.4444747495651244,-0.0010029053567753483,1.4833308110634487,-6.223980863889058,0.004477929595547418,55.21579107968647,1000.0,108.0,256.90790072887575,22.098754382729865,1000.0,1000.0,0.0,108000
109000,0,67.63610093400072,0.0007305145263671875,0.00013017654418945312,0.016895771026611328,108988.0,0.01747616842389107,-1.6202990293502808,-0.9986490607261658,-1.4973118352890014,-0.00032373348100615357,1.5184644957383473,-6.071065028508504,0.00455784200069805,111.32998631218454,1000.0,109.0,164.16116254187304,85.55632663425956,1000.0,1000.0,0.0,109000
110000,0,67.400595344843,0.000640869140625,0.00013971328735351562,0.017142772674560547,109988.0,0.015870724953711033,-1.709503583908081,-0.9987940526008606,-1.5853141736984253,-0.00016350871010217816,1.6145981848239899,-6.0355464220047,0.004599863973756631,90.62089669999227,1000.0,110.0,226.84324267599408,98.02155202901409,1000.0,1000.0,0.0,110000
111000,0,66.85424026635197,0.0008883476257324219,0.0001659393310546875,0.017324447631835938,110988.0,0.01695025272667408,-1.6883887577056884,-0.9988356494903564,-1.5643247604370116,-2.568648293769608e-06,1.5293598075707753,-6.000555078188579,0.004628037257740895,59.92031148707526,1000.0,111.0,196.39862641973153,90.84903133434202,1000.0,1000.0,0.0,111000
112000,0,67.40427807761633,0.0010533332824707031,0.0001983642578125,0.016414403915405273,111988.0,0.018014536388218403,-1.7667229080200195,-0.9988057875633239,-1.6470758295059205,-0.00010903308915051942,1.679104079802831,-6.023556590080261,0.004628489802901943,192.15638212837806,1000.0,112.0,196.56736273905477,62.281775958581164,1000.0,1000.0,0.0,112000
113000,0,67.85863130292071,0.0006344318389892578,0.00013875961303710938,0.0182797908782959,112988.0,0.020199377052485944,-1.948382730484009,-0.998655903339386,-1.8245273017883301,-5.872343172086403e-05,1.9405261774857838,-6.0125755071640015,0.004669706725204985,202.19009767285203,1000.0,113.0,190.39618117768174,99.49610388557684,1000.0,1000.0,0.0,113000
114000,0,66.72113414525509,0.0006098747253417969,0.00013494491577148438,0.01665210723876953,113988.0,0.021399509459733963,-1.8153274822235108,-0.9985721349716187,-1.6837775135040283,-0.0002641423585979889,1.583918462196986,-6.056208968162537,0.0047009118522206945,296.2009191782596,1000.0,114.0,256.3798652656258,48.52376918732064,1000.0,1000.0,0.0,114000
115000,0,67.18380888248458,0.0006577968597412109,0.0001506805419921875,0.01664876937866211,114988.0,0.02132512204349041,-1.738850131034851,-0.9986764287948608,-1.6099210929870607,0.0006926776004547719,1.6750346422195435,-5.853117068608602,0.004714830429293215,274.32183259485294,1000.0,115.0,231.56251887548015,58.687574442061376,1000.0,1000.0,0.0,115000
116000,0,67.56606464092705,0.0007710456848144531,0.00014257431030273438,0.016786813735961914,115988.0,0.02037094295024872,-1.7268970823287964,-0.9987796020507812,-1.602165060043335,-0.000583421926421579,1.6276040971279144,-6.1247124671936035,0.004678736751278241,291.23598800820866,1000.0,116.0,225.8181887933618,88.16851340457917,1000.0,1000.0,0.0,116000
117000,0,66.6752296424788,0.0006494522094726562,0.00013756752014160156,0.01677703857421875,116988.0,0.019891992583870886,-1.7661481142044066,-0.9986383581161499,-1.6471559476852418,7.589955688066159e-05,1.600312461455663,-5.983473380406697,0.004579839141418536,293.19471743505727,1000.0,117.0,212.13319866758948,72.02304460916422,1000.0,1000.0,0.0,117000
118000,0,67.1524862550713,0.0006875991821289062,0.00014257431030273438,0.016761064529418945,117988.0,0.023960348442196844,-1.6146146297454833,-0.9985786652565003,-1.496713399887085,-0.0003718790600638992,1.5115409294764202,-6.081971724828084,0.004537585734700163,275.56220444689563,1000.0,118.0,230.2820046528982,71.52275480317304,1000.0,1000.0,0.0,118000
119000,0,62.96630571003251,0.0005819797515869141,0.00013899803161621094,0.016598224639892578,118988.0,0.02171855092048645,-1.7329450893402099,-0.9986742186546326,-1.619491457939148,-7.79107904236298e-05,1.6487295925617218,-6.0171226263046265,0.0045512902628009515,165.33044682855538,1000.0,119.0,258.0116474165097,58.929608357253066,1000.0,1000.0,0.0,119000
120000,0,63.107732770009,0.0005881786346435547,0.00020170211791992188,0.0166473388671875,119988.0,0.020453555919229986,-1.7149885988235474,-0.9987514662742615,-1.597915301322937,0.00034284758900563855,1.5597054958343506,-5.924916942914327,0.004565115901641548,252.6565039705648,1000.0,120.0,200.8449311231863,88.6421869863466,1000.0,1000.0,0.0,120000
121000,0,61.421057841732015,0.0005917549133300781,0.0001266002655029297,0.016615629196166992,120988.0,0.023413176238536833,-1.7314575290679932,-0.9983113813400268,-1.6138227224349975,0.0011982608678711888,1.669460395971934,-5.740532358487447,0.004617659646707277,124.32343010593058,1000.0,121.0,245.64336767578538,92.97807806451326,1000.0,1000.0,0.0,121000
122000,0,66.50071759759867,0.0006363391876220703,0.0001342296600341797,0.016736745834350586,121988.0,0.021250957399606706,-1.9103468322753907,-0.9986259126663208,-1.7935094928741455,0.000170625857814836,1.783872793118159,-5.963176369667053,0.004629550812145074,103.35711436346426,1000.0,122.0,229.81469354418542,83.90370497159644,1000.0,1000.0,0.0,122000
123000,0,66.7892586961465,0.0006592273712158203,0.00013566017150878906,0.01689767837524414,122988.0,0.024099961072206497,-1.8835960388183595,-0.9986183667182922,-1.7681516027450561,0.000866015415037206,1.8310173153877258,-5.813080628712972,0.004632333293557167,217.1104081694721,1000.0,123.0,166.3814346134445,77.82316595712169,1000.0,1000.0,0.0,123000
124000,0,67.52220794817555,0.00102996826171875,0.00019049644470214844,0.017530202865600586,123988.0,0.02483510673046112,-1.8955605363845824,-0.998526794910431,-1.7874684619903565,0.00046986169278776896,1.7594040731589,-5.898279269536336,0.004618851041110854,215.06053292573893,1000.0,124.0,244.22243910933352,80.61433166661213,1000.0,1000.0,0.0,124000
125000,0,67.5276434335173,0.0009365081787109375,0.00017404556274414062,0.01837897300720215,124988.0,0.02375126600265503,-2.092767639160156,-0.9983572292327881,-1.9853256797790528,-8.938371198989141e-05,1.9787973463535309,-6.019372423489888,0.004616711987182498,72.79587074085605,1000.0,125.0,213.45756609494774,84.51011319954902,1000.0,1000.0,0.0,125000
126000,0,67.43952267726755,0.0006330013275146484,0.0001289844512939453,0.01673150062561035,125988.0,0.02408558890223503,-1.9981853437423707,-0.9985396075248718,-1.8918440771102905,0.0005943284377281088,2.0189695159594216,-5.870928128560384,0.004604827108172079,165.97483697436178,1000.0,126.0,208.55182894238988,89.63540173449776,1000.0,1000.0,0.0,126000
127000,0,67.57551346578936,0.0006568431854248047,0.00013589859008789062,0.016606807708740234,126988.0,0.026526963487267494,-2.135107936859131,-0.998356111049652,-2.0296008682250974,-0.001020976994065374,2.027174860239029,-6.2197465896606445,0.004646213065522413,269.0297065143792,1000.0,127.0,199.55688522833856,97.40650473513256,1000.0,1000.0,0.0,127000
128000,0,66.64751391328888,0.0006647109985351562,0.00014138221740722656,0.016181468963623047,127988.0,0.021193611100316048,-2.207367043495178,-0.9985316586494446,-2.100031085014343,-0.0001151809034733257,2.216378629207611,-6.024857362111409,0.004633402995144327,49.619140944596275,1000.0,128.0,182.45042658403227,68.41887516333894,1000.0,1000.0,0.0,128000
129000,0,67.32490693335285,0.0006320476531982422,0.00012826919555664062,0.016785144805908203,128988.0,0.02257122591137886,-2.2948210430145264,-0.9984588241577148,-2.1867106771469116,-0.0008735982883081306,2.19813996553421,-6.188871065775554,0.004625806740174691,118.4152547020945,1000.0,129.0,186.69732846485593,98.83969995667331,1000.0,1000.0,0.0,129000
130000,0,67.80176549854772,0.0005855560302734375,0.0001742839813232422,0.016599178314208984,129988.0,0.023174842819571495,-2.2852101802825926,-0.9984479427337647,-2.1700093936920166,-0.00047234653478274896,2.1566553711891174,-6.10099736849467,0.0046766351054732995,191.40770533222442,1000.0,130.0,150.53874006742586,70.48064264139181,1000.0,1000.0,0.0,130000
131000,0,66.7475090056456,0.0007281303405761719,0.00015807151794433594,0.016887187957763672,130988.0,0.022971233651041985,-2.41456524848938,-0.9984864616394042,-2.299828510284424,-0.00022490249587766206,2.363437900940577,-6.047422488530477,0.0047425754989186926,90.37427564170973,1000.0,131.0,262.83356018404646,69.57231460230854,1000.0,1000.0,0.0,131000
132000,0,67.68805716757147,0.0007255077362060547,0.00014901161193847656,0.01748490333557129,131988.0,0.023672713339328764,-2.440366449356079,-0.9984747076034546,-2.3290093612670897,0.00016792379392427392,2.2637574076652527,-5.964858333269755,0.0047784855123609304,255.14240078059717,1000.0,132.0,198.6100225323812,75.58859998566685,1000.0,1000.0,0.0,132000
133000,0,62.00376193936785,0.0007259845733642578,0.00015854835510253906,0.016893625259399414,132988.0,0.023349731862545013,-2.536269769668579,-0.9986748385429383,-2.428736000061035,-0.00015979019372025505,2.4849650661150613,-6.033440709114075,0.004778400994837284,275.20940117669835,1000.0,133.0,128.86277118643102,56.011539452712086,1000.0,1000.0,0.0,133000
134000,0,62.274194458384436,0.0006737709045410156,0.00012803077697753906,0.015920400619506836,133988.0,0.028072711303830145,-2.441241002082825,-0.9982184648513794,-2.3381477403640747,0.0004541219144205873,2.2945092916488647,-5.904355963071187,0.004746387906682988,303.4332955363625,1000.0,134.0,206.58972727880936,78.10467543011607,1000.0,1000.0,0.0,134000
135000,0,64.16373815259766,0.0006084442138671875,0.0001277923583984375,0.016478300094604492,134988.0,0.026539443954825402,-2.409986038208008,-0.9984451055526733,-2.312458848953247,7.447176661419992e-06,2.2971241573492684,-5.998395005861918,0.004649563964145879,181.8532165795395,1000.0,135.0,244.1156116593598,61.89647603769182,1000.0,1000.0,0.0,135000
136000,0,66.37708058232883,0.0006699562072753906,0.0001361370086669922,0.01655125617980957,135988.0,0.022623419165611267,-2.3075414514541626,-0.9985366344451905,-2.2137801456451416,0.00080444688986366,2.1256334086259208,-5.8219642241795855,0.004517519342092176,354.39040524401565,1000.0,136.0,242.64375729606823,87.76979107578812,1000.0,1000.0,0.0,136000
137000,0,67.33735851189122,0.0006318092346191406,0.0001819133758544922,0.01630401611328125,136988.0,0.026582681089639664,-2.2792327547073366,-0.9980143475532531,-2.1833565616607666,0.0005722120780167946,2.3050429224967957,-5.870548168818156,0.004420170870920022,276.90892482243106,1000.0,137.0,208.64378957187418,109.62054024529274,1000.0,1000.0,0.0,137000
138000,0,67.74158120712757,0.0008907318115234375,0.0001537799835205078,0.016898393630981445,137988.0,0.02518781915307045,-2.188842186927795,-0.9984380698204041,-2.0888458108901977,-0.0002708336008557429,2.2185282905896506,-6.060235619544983,0.004499019628080229,301.2475142494191,1000.0,138.0,241.27741361147505,104.70150911783149,1000.0,1000.0,0.0,138000
139000,0,67.07254823948122,0.0009777545928955078,0.00016450881958007812,0.01707148551940918,138988.0,0.02792339414358139,-2.257154703140259,-0.9983316111564636,-2.148409490585327,-7.888364537696664e-05,2.199349731206894,-6.017083644866943,0.004620636929757893,286.5699319806915,1000.0,139.0,182.77118052551563,82.07872115355376,1000.0,1000.0,0.0,139000
140000,0,66.55246410330783,0.0006191730499267578,0.00012993812561035156,0.01662898063659668,139988.0,0.02457110732793808,-2.2532914018630983,-0.9984038925170898,-2.1534500312805176,-0.0005176174320998447,2.2762726545333862,-6.111363768577576,0.004648279825535913,58.799111241832286,1000.0,140.0,323.44829480854213,57.19498453793754,1000.0,1000.0,0.0,140000
141000,0,65.67247561338407,0.0006611347198486328,0.00013637542724609375,0.017165184020996094,140988.0,0.027104506343603132,-2.572622146606445,-0.9982637524604797,-2.4712883472442626,0.0007306921349178689,2.589106798171997,-5.84057343006134,0.004583046461145083,69.38503559684928,1000.0,141.0,248.48243907311092,89.25691180725842,1000.0,1000.0,0.0,141000
142000,0,66.82313894955394,0.0006206035614013672,0.00012731552124023438,0.017161846160888672,141988.0,0.027021493539214136,-2.4631952953338625,-0.9983157515525818,-2.3633753299713134,-1.4825785910943523e-05,2.3353456060091653,-6.003277540206909,0.004530320332075159,370.83355636608945,1000.0,142.0,177.57510931797924,114.1976941778464,1000.0,1000.0,0.0,142000
143000,0,67.0838765976449,0.000640869140625,0.00013518333435058594,0.01685786247253418,142988.0,0.028032526597380637,-2.3609655618667604,-0.9983006930351257,-2.258201446533203,-9.050420158018824e-05,2.4241389532883963,-6.019764304161072,0.004578632729438444,328.3704573287387,1000.0,143.0,200.53505599888078,96.60318969322864,1000.0,1000.0,0.0,143000
144000,0,66.36250350458492,0.0006170272827148438,0.000133514404296875,0.01683950424194336,143988.0,0.026879738196730615,-2.4007036876678467,-0.9983431839942932,-2.298106899261475,-0.0009076050937437685,2.284184912840525,-6.195168932278951,0.004651198047213256,156.24783461759162,1000.0,144.0,148.10461484272466,88.08501070643379,1000.0,1000.0,0.0,144000
145000,0,67.5124262793273,0.0006470680236816406,0.0001342296600341797,0.016949176788330078,144988.0,0.026972607970237733,-2.3904937219619753,-0.9982315158843994,-2.2851516103744505,-0.00039868456224212423,2.301462839047114,-6.08465560277303,0.004710369200135271,287.18153725380995,1000.0,145.0,171.9364908095269,88.23577120267268,1000.0,1000.0,0.0,145000
146000,0,67.54482532054895,0.0006830692291259766,0.00013780593872070312,0.016946077346801758,145988.0,0.03203119531273842,-2.371802206039429,-0.9982118463516235,-2.270404996871948,-0.00024224421637579022,2.299664398034414,-6.050835967063904,0.004766692601454754,345.7857863641988,1000.0,146.0,146.22292321179282,87.08830153515966,1000.0,1000.0,0.0,146000
147000,0,63.562426387194115,0.0006635189056396484,0.00014257431030273438,0.01620340347290039,146988.0,0.031043696999549866,-2.273891224861145,-0.9981970453262329,-2.1723402690887452,0.0004965854313923046,2.2589193880558014,-5.896003286043803,0.0047750420635566115,152.2816554199169,1000.0,147.0,221.12471751723743,107.40492097432752,1000.0,1000.0,0.0,147000
148000,0,62.039786600969016,0.0006322860717773438,0.00013589859008789062,0.016127347946166992,147988.0,0.027958467975258826,-2.3914179897308347,-0.9983565521240234,-2.286688151359558,0.00024279073477373458,2.298694302638372,-5.949258923530579,0.004784498208512862,161.69026898734194,1000.0,148.0,241.44660883616606,80.08889531553422,1000.0,1000.0,0.0,148000
149000,0,67.34163980581839,0.0007119178771972656,0.00013446807861328125,0.016802549362182617,148988.0,0.031150870993733405,-2.4937556838989257,-0.9981103324890137,-2.3885871076583864,0.00013752047379966825,2.482724209626516,-5.97122049331665,0.004775721618595223,306.9923166225803,1000.0,149.0,264.3018790696864,97.78778166105097,1000.0,1000.0,0.0,149000
150000,0,67.96123930020228,0.0006992816925048828,0.00014138221740722656,0.0169985294342041,149988.0,0.030277529433369636,-2.367509627342224,-0.9982681274414062,-2.263540840148926,0.0003660641511184319,2.46251904964447,-5.924084583918254,0.004821301593134801,201.09637431453677,1000.0,150.0,197.94094275859933,89.60393263288034,1000.0,1000.0,0.0,150000
151000,0,67.72066877467088,0.0009453296661376953,0.00016427040100097656,0.01737499237060547,150988.0,0.029817839711904527,-2.430405397415161,-0.9982360196113587,-2.325636167526245,-0.0007965081446551873,2.3929077784220376,-6.164204835891724,0.004850829757439594,208.52484420051695,1000.0,151.0,157.97344010989724,84.38103435217813,1000.0,1000.0,0.0,151000
152000,0,66.47702382031646,0.0009374618530273438,0.00016379356384277344,0.01723027229309082,151988.0,0.02908202663064003,-2.3140635824203493,-0.9982574152946472,-2.211201424598694,-0.0008690737255771334,2.2402629256248474,-6.177461902300517,0.004897349746897817,292.96248091769405,1000.0,152.0,266.06041399626235,94.1335722221921,1000.0,1000.0,0.0,152000
153000,0,67.22489955462325,0.0006573200225830078,0.0001399517059326172,0.01678609848022461,152988.0,0.027851372808218002,-2.441064281463623,-0.9983079934120178,-2.3355472326278686,0.00012709209355913723,2.4709635774294534,-5.974159002304077,0.0049182981019839644,66.63785956640426,1000.0,153.0,242.78510351302475,86.90262964412128,1000.0,1000.0,0.0,153000
154000,0,67.47636728679078,0.0006577968597412109,0.000133514404296875,0.016866445541381836,153988.0,0.03669077277183533,-2.5434084129333496,-0.9982039141654968,-2.439005355834961,-8.580829065370684e-06,2.5987791419029236,-6.001734614372253,0.004941279146199425,302.889901479902,1000.0,154.0,211.51250389348746,88.83394503332639,1000.0,1000.0,0.0,154000
155000,0,67.7700831472511,0.0006277561187744141,0.00017571449279785156,0.01655435562133789,154988.0,0.02945739611983299,-2.472685441970825,-0.9983163261413575,-2.368129920959473,-4.626824375009164e-05,2.4032774766286216,-6.009380578994751,0.004933598024460177,164.808537105796,1000.0,155.0,271.1365508000839,116.27951875142135,1000.0,1000.0,0.0,155000
156000,0,67.82079790543678,0.000606536865234375,0.00012826919555664062,0.016382217407226562,155988.0,0.030401845872402192,-2.5756063938140867,-0.9982508754730225,-2.4764485454559324,0.0007043339440618487,2.535603165626526,-5.853444933891296,0.004805633060944577,148.44108395546644,1000.0,156.0,191.41368897974692,80.41869911448649,1000.0,1000.0,0.0,156000
157000,0,67.15949688789372,0.0006458759307861328,0.00013566017150878906,0.01690077781677246,156988.0,0.03009816475212574,-2.6274798679351807,-0.9981372809410095,-2.5251223850250244,0.0003210532813682221,2.5382038156191506,-5.932247320810954,0.004737976472824812,296.00391033771876,1000.0,157.0,133.4035489012665,73.82255605359364,1000.0,1000.0,0.0,157000
158000,0,66.78555778617941,0.0006532669067382812,0.00013971328735351562,0.016697168350219727,157988.0,0.032083755433559416,-2.5828028678894044,-0.9980404615402222,-2.482825813293457,0.000515755584880632,2.58458548784256,-5.890612880388896,0.004714693369654317,324.0854883135126,1000.0,158.0,138.40597236401027,78.10787124775364,1000.0,1000.0,0.0,158000
159000,0,67.23834892282161,0.0006480216979980469,0.00013685226440429688,0.017002582550048828,158988.0,0.034416563287377355,-2.4715593242645264,-0.9980533742904663,-2.372694215774536,0.00030543723854255706,2.539179007212321,-5.935061931610107,0.004704209277406335,209.58721959093742,1000.0,159.0,190.64206235587352,93.2555861988899,1000.0,1000.0,0.0,159000
160000,0,64.17524416650448,0.0007264614105224609,0.00013780593872070312,0.016821861267089844,159988.0,0.03279556699097157,-2.549378080368042,-0.9981996488571167,-2.44762731552124,0.0003584601605931918,2.465948075056076,-5.92353351910909,0.0046877948722491665,323.8057865785981,1000.0,160.0,178.3544531246405,99.41538571234543,1000.0,1000.0,0.0,160000
161000,0,61.2971130772311,0.00067901611328125,0.00013566017150878906,0.01642894744873047,160988.0,0.035852768793702125,-2.5991332721710205,-0.997698392868042,-2.4983907985687255,4.961138862806062e-05,2.6019945641358695,-5.989553888638814,0.00474422281452765,82.5896268409861,1000.0,161.0,268.82240082287416,79.85017884413256,1000.0,1000.0,0.0,161000
162000,0,66.25113964551102,0.000667572021484375,0.00013566017150878906,0.01607966423034668,161988.0,0.037126761227846146,-2.6576812744140623,-0.9977848529815674,-2.5558753299713133,-0.0010885282863455359,2.6137651602427163,-6.220581452051799,0.004935082358618577,280.84522910576703,1000.0,162.0,200.09897352340454,79.07150930244293,1000.0,1000.0,0.0,162000
163000,0,66.23431668004733,0.0007386207580566406,0.0001437664031982422,0.016684293746948242,162988.0,0.0412806075066328,-2.6117286014556886,-0.9976707506179809,-2.5086228799819947,0.0002533705943884949,2.633747935295105,-5.94954252243042,0.00501762287846456,243.07892687017872,1000.0,163.0,222.7700347848157,79.75856310296949,1000.0,1000.0,0.0,163000
164000,0,67.59712070674968,0.0009377002716064453,0.00018358230590820312,0.017545223236083984,163988.0,0.035630915835499766,-2.594026527404785,-0.9981150221824646,-2.492222981452942,0.00013448345513703922,2.587134003639221,-5.972956458727519,0.004972587378385167,238.01663202139787,1000.0,164.0,263.51425140389847,51.01251221081457,1000.0,1000.0,0.0,164000
165000,0,66.17266374101827,0.0006439685821533203,0.00017714500427246094,0.016743183135986328,164988.0,0.04413927972316742,-2.60446982383728,-0.9974755907058716,-2.501446008682251,-0.00026735089462211664,2.6288724342981973,-6.053694128990173,0.004979097905258338,128.33051711618836,1000.0,165.0,215.78001112803517,88.79005805694696,1000.0,1000.0,0.0,165000
166000,0,67.30913290167031,0.0006859302520751953,0.00018215179443359375,0.01679372787475586,165988.0,0.03898799315094948,-2.5754691886901857,-0.9978308773040772,-2.4738476037979127,-0.00030058367701712996,2.413335074981054,-6.060925602912903,0.004933676837633054,327.89410360555036,1000.0,166.0,254.42453605227246,93.84161131024307,1000.0,1000.0,0.0,166000
167000,0,66.49531966489042,0.0006873607635498047,0.0001354217529296875,0.01656508445739746,166988.0,0.03604349479079247,-2.568736963272095,-0.9978845381736755,-2.470755558013916,0.0007581082251514696,2.371293326218923,-5.843543450037639,0.00484486436471343,255.49642176165804,1000.0,167.0,260.0694232914428,68.71270680107276,1000.0,1000.0,0.0,167000
168000,0,67.51164386824948,0.0010771751403808594,0.00017762184143066406,0.018041610717773438,167988.0,0.03679316893219948,-2.5219144582748414,-0.997777841091156,-2.4278918361663817,-2.7863609526927274e-05,2.4587062199910483,-6.005846738815308,0.004764920721451442,332.3071302187959,1000.0,168.0,222.17524544879058,113.28752898765562,1000.0,1000.0,0.0,168000
169000,0,65.85783902709554,0.0006227493286132812,0.00012993812561035156,0.016674041748046875,168988.0,0.0406894963234663,-2.5467673110961915,-0.9976883888244629,-2.4527758026123045,-0.00012954089591706483,2.5417310992876687,-6.0277591943740845,0.0046666356502100825,254.01653939712918,1000.0,169.0,252.64019225200832,101.27112420276812,1000.0,1000.0,0.0,169000
170000,0,66.93750398978615,0.000637054443359375,0.00013780593872070312,0.016807079315185547,169988.0,0.03982463613152504,-2.5440442943573,-0.9978557252883911,-2.4531755352020266,-0.00030584183089861955,2.4178895950317383,-6.066542665163676,0.004596765385940671,366.1389082613294,1000.0,170.0,270.52719792249525,68.1844140688627,1000.0,1000.0,0.0,170000
171000,0,62.95700561318441,0.0006906986236572266,0.00012922286987304688,0.01671314239501953,170988.0,0.03482823744416237,-2.4911706256866455,-0.9980987906455994,-2.396752562522888,-0.0003936514670688969,2.377668817838033,-6.084624409675598,0.004651756569122274,259.29146627949353,1000.0,171.0,325.5037677228304,36.73164677413372,1000.0,1000.0,0.0,171000
172000,0,60.71595043250827,0.0007283687591552734,0.0001442432403564453,0.01685333251953125,171988.0,0.036304998248815536,-2.433750205039978,-0.9980147385597229,-2.3404856061935426,0.00011966696183662862,2.346784700949987,-5.974822560946147,0.004752567154355347,353.11184748176186,1000.0,172.0,343.34242226932076,72.7186179225422,1000.0,1000.0,0.0,172000
173000,0,67.81215744731762,0.000640869140625,0.00014019012451171875,0.01670360565185547,172988.0,0.03736983835697174,-2.3882716941833495,-0.9979301023483277,-2.298455514907837,0.0004225600399270964,2.3747305274009705,-5.91125734647115,0.004761497412497799,358.11739508092916,1000.0,173.0,257.97498786405976,87.44153399607819,1000.0,1000.0,0.0,173000
174000,0,67.7053645106261,0.0006661415100097656,0.0001354217529296875,0.01688218116760254,173988.0,0.04064328067004681,-2.2991423082351683,-0.9976769495010376,-2.20758451461792,0.0002243013489836206,2.2810068130493164,-5.952897906303406,0.004761992953717709,361.496287738269,1000.0,174.0,302.0772505405336,46.817608092387005,1000.0,1000.0,0.0,174000
175000,0,67.30520134895907,0.0007085800170898438,0.00014090538024902344,0.016249895095825195,174988.0,0.04005989596247673,-2.209825038909912,-0.9976289391517639,-2.1146219682693483,-0.0005670446601773923,2.062491089105606,-6.118178407351176,0.004797753489886721,301.11307019564686,1000.0,175.0,290.14233518403387,96.29201457022839,1000.0,1000.0,0.0,175000
176000,0,67.64683492530034,0.0009436607360839844,0.0001976490020751953,0.017602920532226562,175988.0,0.03784943982958794,-2.2607993268966675,-0.9975355648994446,-2.1674693965911866,0.00018892628819836924,2.2861098448435464,-5.961061398188273,0.0048508353453750415,324.89774735193805,1000.0,176.0,263.59314024627,87.51476541636906,1000.0,1000.0,0.0,176000
177000,0,66.46021232768183,0.0006520748138427734,0.00019049644470214844,0.016691207885742188,176988.0,0.042941966727375984,-2.2048582315444945,-0.997422776222229,-2.113914957046509,-0.0002748475120218548,2.2391682465871177,-6.0555606285731,0.004947246479180952,302.855149409014,1000.0,177.0,178.89723037643782,86.99450341211016,1000.0,1000.0,0.0,177000
178000,0,66.59029077875464,0.0006392002105712891,0.00013327598571777344,0.016624927520751953,177988.0,0.04460932552814484,-2.2052703666687012,-0.9974820995330811,-2.1141315841674806,-0.0006297030655938821,2.012364387512207,-6.12467622756958,0.005050977148736517,300.0793534660355,1000.0,178.0,278.623868576052,73.09111464752958,1000.0,1000.0,0.0,178000
179000,0,66.82565154270988,0.0006320476531982422,0.00013518333435058594,0.016758441925048828,178988.0,0.04544548913836479,-2.095509810447693,-0.9972582149505616,-2.0026479721069337,-0.0003626118026052912,2.0734841028849282,-6.070718328158061,0.005127559959267576,300.6841666542139,1000.0,179.0,287.4073773176436,81.1683103856488,1000.0,1000.0,0.0,179000
180000,0,66.7813469047481,0.0006430149078369141,0.00013446807861328125,0.016800403594970703,179988.0,0.04052582174539566,-2.2415053129196165,-0.9974574470520019,-2.147615237236023,-0.0007197346967586782,2.1672200361887612,-6.139822204907735,0.005148070747964084,203.96822446458543,1000.0,180.0,300.3581632149338,79.07722057546735,1000.0,1000.0,0.0,180000
181000,0,67.17309222386076,0.0006103515625,0.00013566017150878906,0.01665210723876953,180988.0,0.051333433389663695,-2.2702980184555055,-0.9975492286682129,-2.175331416130066,-0.00047384507342940196,2.247566799322764,-6.0917900403340655,0.005162723013199866,169.2293198216019,1000.0,181.0,247.4008876535635,130.4386474710955,1000.0,1000.0,0.0,181000
182000,0,66.61872075913789,0.0006799697875976562,0.00013971328735351562,0.01701951026916504,181988.0,0.04624266050755978,-2.256185669898987,-0.9974925827980041,-2.161968665122986,-0.00018445141176925972,2.2009009619553885,-6.035645564397176,0.005175376582580308,336.34425173131933,1000.0,182.0,144.67111226584763,82.89295202710784,1000.0,1000.0,0.0,182000
183000,0,67.42001004314953,0.0006663799285888672,0.00017404556274414062,0.017162561416625977,182988.0,0.04108724743127823,-2.305146641731262,-0.9976052021980286,-2.211033082008362,-0.0004173103813324512,2.2252653737862906,-6.080580512682597,0.005179029190912843,191.3348047754916,1000.0,183.0,240.85805486883996,87.69350136723688,1000.0,1000.0,0.0,183000
184000,0,61.82247828558087,0.0006568431854248047,0.00013494491577148438,0.016657352447509766,183988.0,0.05357514619827271,-2.207660927772522,-0.9973567795753479,-2.114544219970703,0.0003853647649521008,2.076477507750193,-5.925497015317281,0.005172372601615886,214.43690172036762,1000.0,184.0,309.2816203000023,88.19224740915837,1000.0,1000.0,0.0,184000
185000,0,61.09436341199379,0.0009665489196777344,0.000202178955078125,0.01781606674194336,184988.0,0.057058308199048044,-2.194134221076965,-0.9972303485870362,-2.09495325088501,-0.0008673920468330228,2.1743815342585244,-6.166484276453654,0.005209908626663188,368.4125782205535,1000.0,185.0,287.09852774529105,76.71856931929528,1000.0,1000.0,0.0,185000
186000,0,61.1843759791854,0.0006182193756103516,0.0001304149627685547,0.017112016677856445,185988.0,0.04699642442166805,-2.299081411361694,-0.997811496257782,-2.200691900253296,-0.0007383650408883113,2.2405110398928323,-6.140957474708557,0.005238406088513632,242.43341868409271,1000.0,186.0,197.4568925436679,105.4508145112177,1000.0,1000.0,0.0,186000
187000,0,67.01296576547098,0.0006213188171386719,0.00013446807861328125,0.016864299774169922,186988.0,0.04618753135204315,-2.193333110809326,-0.9977027034759521,-2.096835246086121,4.145907951169647e-05,2.01926726102829,-5.992103497187297,0.005249091850904127,388.4146651358103,1000.0,187.0,268.59842915057504,90.40774923982521,1000.0,1000.0,0.0,187000
188000,0,67.54717491614386,0.0007491111755371094,0.00015544891357421875,0.01659393310546875,187988.0,0.05802317045629025,-2.236275291442871,-0.9974976825714111,-2.13800657749176,-0.00012132306195174654,2.198044538497925,-6.023035327593486,0.005267462382713954,119.04295321970244,1000.0,188.0,257.49391114601303,84.63651288131963,1000.0,1000.0,0.0,188000
189000,0,67.69461193817867,0.000885009765625,0.00017404556274414062,0.017004966735839844,188988.0,0.05165408805012703,-2.243892593383789,-0.9975968742370606,-2.1447880601882936,-0.00039939422519334283,2.19620273510615,-6.076531410217285,0.005220065436636408,303.53309449654466,1000.0,189.0,286.39306927384985,92.12551740651529,1000.0,1000.0,0.0,189000
190000,0,66.8985990273132,0.0009396076202392578,0.00016307830810546875,0.02074575424194336,189988.0,0.04912819504737854,-2.2221480894088743,-0.9975132656097412,-2.1247218465805053,-0.000524432392315551,2.144233544667562,-6.101003448168437,0.005192261848909159,185.58246471698632,1000.0,190.0,284.85279995516083,84.44320248150139,1000.0,1000.0,0.0,190000
191000,0,67.3531890403075,0.0007090568542480469,0.00014209747314453125,0.017319917678833008,190988.0,0.05293871961534023,-2.401078882217407,-0.9971338701248169,-2.304318642616272,0.0009143581846728921,2.3381779988606772,-5.822422385215759,0.005148483285059531,68.57780340277675,1000.0,191.0,359.41372652529486,31.024516726379865,1000.0,1000.0,0.0,191000
192000,0,67.50008368502502,0.0007269382476806641,0.00013566017150878906,0.016833782196044922,191988.0,0.055779740512371064,-2.370401997566223,-0.9971390581130981,-2.2721996784210203,0.0005249636499987295,2.3429059187571206,-5.897680401802063,0.005130360873105626,376.0106494335813,1000.0,192.0,282.73930474938055,120.8509653984048,1000.0,1000.0,0.0,192000
193000,0,67.86499953724409,0.0006492137908935547,0.0001285076141357422,0.016730785369873047,192988.0,0.06045587003231048,-2.1992919921875,-0.9970298004150391,-2.1004629802703856,-8.953797563056772e-05,2.069027692079544,-6.0174276034037275,0.005138813401572406,396.53509169352185,1000.0,193.0,334.4419413894756,39.88526400069461,1000.0,1000.0,0.0,193000
194000,0,65.74370903071893,0.0007085800170898438,0.00014925003051757812,0.016817569732666016,193988.0,0.060956061035394665,-2.410424580574036,-0.9962042689323425,-2.318384623527527,-5.259900111317013e-06,2.382539133230845,-6.001018683115642,0.005150994906822841,299.84182389951565,1000.0,194.0,347.0092855743275,63.76855371278246,1000.0,1000.0,0.0,194000
195000,0,67.1851433243247,0.0006613731384277344,0.0001361370086669922,0.016476869583129883,194988.0,0.05157348170876503,-2.2353841066360474,-0.9974316263198852,-2.1372633600234985,-0.00035160812209748354,2.170335610707601,-6.068021853764852,0.005170075843731563,229.77853917402703,1000.0,195.0,265.72330710961296,125.97769370721612,1000.0,1000.0,0.0,195000
196000,0,67.11625215703745,0.0006742477416992188,0.00015020370483398438,0.016925573348999023,195988.0,0.05455616146326065,-2.2239727687835695,-0.9973514175415039,-2.1242636537551878,-0.00041939925965076935,2.1745083729426065,-6.081204811731975,0.005165028230597575,336.9204809866083,1000.0,196.0,280.5796321932622,120.03245949461571,1000.0,1000.0,0.0,196000
197000,0,63.43810196792086,0.0007171630859375,0.0001437664031982422,0.016619443893432617,196988.0,0.055774624198675155,-2.408738398551941,-0.9972865509986878,-2.3137193870544435,0.0012482878931526404,2.415495882431666,-5.7603477239608765,0.005208599691589673,139.69811369534222,1000.0,197.0,304.9049446705309,69.97722505770217,1000.0,1000.0,0.0,197000
198000,0,60.408768055785195,0.0006928443908691406,0.0001366138458251953,0.0164492130279541,197988.0,0.05048512473702431,-2.2127783918380737,-0.9975319647789002,-2.1163554573059082,-0.00016693978856589334,2.1894340912501016,-6.0320184628168745,0.00521542193988959,271.4512296716767,1000.0,198.0,321.16659421477556,53.95798754916278,1000.0,1000.0,0.0,198000
199000,0,67.54417268411459,0.0006368160247802734,0.00018930435180664062,0.016824960708618164,198988.0,0.05799069240689278,-2.315960474014282,-0.997391004562378,-2.2233182859420775,-5.9718945218871035e-05,2.1954778333504996,-6.011462728182475,0.005215456398824851,364.2595290494881,1000.0,199.0,289.50793526516713,85.56639488746603,1000.0,1000.0,0.0,199000
200000,0,66.29604269446536,0.0006477832794189453,0.0001690387725830078,0.01680922508239746,199988.0,0.06412884786725044,-2.310631260871887,-0.9964733576774597,-2.2100964975357056,-0.000546730220473061,2.3215177158514657,-6.104678829511006,0.005223199725151062,200.70090047754766,1000.0,200.0,290.71275456132446,89.815423083032,1000.0,1000.0,0.0,200000
