niicovila/Q-Reps/lightning_research_framework/results/XSAC_TEST/xsac_1_ag/log.csv
time/steps,time/epochs,time/steps_per_second,time/dataset,time/preprocess,time/train_step,train/env_steps,train/q_loss,train/target_q,train/value_loss,train/target_v,train/alpha_loss,train/actor_loss,train/entropy,train/alpha,train/reward,train/length,train/num_ep,eval/reward,eval/stddev,eval/length,eval/discount,eval/early_termination,step
1000,0,77.78545973549667,0.00043487548828125,0.00014472007751464844,0.010991096496582031,988.0,6.12175531568937e-05,-0.06074755072593689,0.00010706465225666761,-0.06272847667336463,0.9719864875078201,-0.323730173210303,3.9640172322591147,0.09753976141413052,2.337096339818079,1000.0,1.0,0.22421098665854505,0.10837593960792273,1000.0,1000.0,0.0,1000
2000,0,89.40638802203236,0.0004372596740722656,0.0001697540283203125,0.010945558547973633,1988.0,3.188634051184635e-05,-0.06523911386728287,2.419701311737299e-05,-0.07133252829313279,0.9344829867283503,-0.3066910107930501,4.069663683573405,0.09279271960258484,2.331190485040522,1000.0,2.0,0.22258810355931127,0.08917029909206026,1000.0,1000.0,0.0,2000
3000,0,101.89411165658002,0.00046896934509277344,0.00014400482177734375,0.010853767395019531,2988.0,1.605052977538435e-05,-0.06913716405630112,1.2356555089354515e-05,-0.07414893984794617,0.8913219571113586,-0.2865392590562503,4.081186652183533,0.0884059052914381,3.3132200045068707,1000.0,3.0,0.1638342714170956,0.08836645663766125,1000.0,1000.0,0.0,3000
4000,0,100.54155224521732,0.00048279762268066406,0.00015234947204589844,0.011043071746826172,3988.0,3.3106476148532235e-05,-0.07024721086025237,1.6155862249433993e-05,-0.07506677389144897,0.8497883478800455,-0.27003201842308044,4.079287926355998,0.08430242786804835,4.107763632978989,1000.0,4.0,0.18257544466178877,0.06574225001399762,1000.0,1000.0,0.0,4000
5000,0,96.48670309922089,0.0007030963897705078,0.00018906593322753906,0.018090486526489258,4988.0,3.423292422667146e-05,-0.07138771176338196,1.8822771962732077e-05,-0.07607440531253815,0.8118060380220413,-0.2533385020991166,4.091066757837932,0.08044048026204109,3.614985682444387,1000.0,5.0,0.27804254950801005,0.07389699965393733,1000.0,1000.0,0.0,5000
6000,0,74.08881251695759,0.0008275508880615234,0.00020384788513183594,0.012448549270629883,5988.0,2.7874896477442235e-05,-0.07274741798639298,1.9231520127505064e-05,-0.07691156536340714,0.7742207795381546,-0.23641093571980795,4.081224083900452,0.0767911896109581,3.0302953062095774,1000.0,6.0,0.3072651452672757,0.06872965816497378,1000.0,1000.0,0.0,6000
7000,0,101.45244996923267,0.0005159378051757812,0.00020122528076171875,0.01157069206237793,6988.0,3.293985610071104e-05,-0.07186295807361603,2.1584711503237487e-05,-0.07593225240707398,0.739468440413475,-0.2230297476053238,4.082971851030986,0.0733316025386254,6.39589468804831,1000.0,7.0,0.4962589683330014,0.07586046523186413,1000.0,1000.0,0.0,7000
8000,0,91.91157844174491,0.00048065185546875,0.00017142295837402344,0.010816097259521484,7988.0,5.567866581259295e-05,-0.06766325443983078,2.9567587189376356e-05,-0.07207977831363678,0.7063814997673035,-0.213800265143315,4.0836596091588335,0.07004568167030811,7.409910104641672,1000.0,8.0,0.5324698528340341,0.07083693793180877,1000.0,1000.0,0.0,8000
9000,0,97.95921417834666,0.0005309581756591797,0.00013709068298339844,0.01086115837097168,8988.0,5.7908848975785074e-05,-0.0685280892252922,3.23918741196394e-05,-0.07323164641857147,0.6744824151198069,-0.19921171913544336,4.078277071317037,0.06691825451950233,4.068006268712176,1000.0,9.0,0.8032578241396309,0.1849073383767428,1000.0,1000.0,0.0,9000
10000,0,98.74331518069611,0.0005021095275878906,0.00014829635620117188,0.010966777801513672,9988.0,7.638427705387585e-05,-0.06667973846197128,3.971434198319912e-05,-0.07132289290428162,0.6449854969978333,-0.18937755624453226,4.086618900299072,0.06393883874018987,4.8022814206437126,1000.0,10.0,1.1248514255119937,0.10047301865662071,1000.0,1000.0,0.0,10000
11000,0,100.58611024244436,0.0005483627319335938,0.0001361370086669922,0.011774539947509766,10988.0,8.22124647675082e-05,-0.06385573923587799,4.4725446496158835e-05,-0.06835092544555664,0.6150799343983332,-0.1812035193045934,4.066079139709473,0.06109866499900818,6.4625062002913,1000.0,11.0,2.187869054208207,0.21315015859338163,1000.0,1000.0,0.0,11000
12000,0,98.7457328643604,0.0006568431854248047,0.00020384788513183594,0.011236190795898438,11988.0,7.435200299369172e-05,-0.06227443024516106,4.9058084841817616e-05,-0.0671662700176239,0.5879773050546646,-0.16906775161623955,4.069544990857442,0.05838635967423519,3.608582229692612,1000.0,12.0,3.8108920844651544,0.28074706392021226,1000.0,1000.0,0.0,12000
13000,0,97.53188275443186,0.0008399486541748047,0.0002560615539550781,0.016517162322998047,12988.0,9.682285308372229e-05,-0.0583351294696331,5.7094600051641465e-05,-0.06312615260481834,0.5615546504656473,-0.16443126276135445,4.062794089317322,0.05579998251050711,7.740731435186201,1000.0,13.0,14.118016447221683,0.7533024104481719,1000.0,1000.0,0.0,13000
14000,0,93.69379673181123,0.0007085800170898438,0.00016164779663085938,0.012972593307495117,13988.0,0.00014378094056155533,-0.05598248317837715,6.745603866875171e-05,-0.06010780796408653,0.5359900891780853,-0.15857519209384918,4.049783666928609,0.05332866497337818,7.344038641861718,1000.0,14.0,21.577006838137002,0.45102384782568045,1000.0,1000.0,0.0,14000
15000,0,82.0311907155402,0.0005867481231689453,0.00014328956604003906,0.011220693588256836,14988.0,0.00018191080540418624,-0.0461989614367485,7.933235261589288e-05,-0.05046646505594254,0.5116403251886368,-0.15642717853188515,4.037363330523173,0.05096896986166636,12.967825636753972,1000.0,15.0,24.329389518890444,0.5126876855970763,1000.0,1000.0,0.0,15000
16000,0,95.01456603192294,0.0006117820739746094,0.0001537799835205078,0.011467218399047852,15988.0,0.0001434528498793952,-0.0389086352288723,8.874816121533513e-05,-0.04194973349571228,0.4882957438627879,-0.15375188489754996,4.02215850353241,0.04871720168739557,6.929854669720498,1000.0,16.0,27.600959123627433,2.0616866867858095,1000.0,1000.0,0.0,16000
17000,0,101.09845610658871,0.0005834102630615234,0.00013780593872070312,0.011569499969482422,16988.0,0.00021326084970496595,-0.02087654545903206,0.0001144877984188497,-0.021862945668399334,0.4649922773241997,-0.161166342596213,3.9847006599108377,0.04656626035769781,15.608339377677838,1000.0,17.0,36.228673913868164,1.6504600973302623,1000.0,1000.0,0.0,17000
18000,0,90.66577664719172,0.0005877017974853516,0.00016236305236816406,0.011110544204711914,17988.0,0.00036926247761584816,0.004608579268679022,0.00014329447643831372,0.004089973862282932,0.4427349269390106,-0.17974915727972984,3.944848358631134,0.04451499879360199,25.37416649641206,1000.0,18.0,42.37146188671351,1.710573659555923,1000.0,1000.0,0.0,18000
19000,0,91.49710171105068,0.0006301403045654297,0.00015163421630859375,0.011564493179321289,18988.0,0.00037381729460321365,0.039848738983273506,0.00017584106186404824,0.043265740275383,0.42007926603158313,-0.2065984196960926,3.869400978088379,0.04255997575819492,29.34029911046714,1000.0,19.0,38.773099100832795,1.707991249063719,1000.0,1000.0,0.0,19000
20000,0,92.31739033207201,0.0006067752838134766,0.00014829635620117188,0.010956764221191406,19988.0,0.0006920625595375896,0.10134243100881576,0.00022964254254475235,0.10884863972663879,0.3963971982399623,-0.2618205746014913,3.7388193209966025,0.04069916966060797,50.83803538514258,1000.0,20.0,47.61673016638071,2.2653158948484045,1000.0,1000.0,0.0,20000
21000,0,98.41985862732786,0.0005762577056884766,0.0001430511474609375,0.010792732238769531,20988.0,0.001501135458238423,0.19149015486240387,0.00034265540540218353,0.20457454919815063,0.373498613635699,-0.3480922703941663,3.5928602814674377,0.03893162434299787,63.07162154439573,1000.0,21.0,82.23425384345678,20.278850121718236,1000.0,1000.0,0.0,21000
22000,0,100.18861037911259,0.000621795654296875,0.0001964569091796875,0.01208806037902832,21988.0,0.0020346281724050643,0.3353763675689697,0.00043369412887841465,0.36641357898712157,0.3450653702020645,-0.48976391057173413,3.259395639101664,0.03726328102250894,87.54059675716589,1000.0,22.0,83.56515838079984,7.172515263501473,1000.0,1000.0,0.0,22000
23000,0,91.48664400533262,0.0009710788726806641,0.00019288063049316406,0.014568805694580078,22988.0,0.0033151654805988074,0.529972665309906,0.0005671894364058972,0.5795315337181092,0.31948642681042355,-0.6775592168172201,2.94996170202891,0.03569383764018615,94.00505235082682,1000.0,23.0,87.73951566115389,21.962719290553114,1000.0,1000.0,0.0,23000
24000,0,83.97812001954142,0.0005958080291748047,0.0001552104949951172,0.01624751091003418,23988.0,0.004184118574485183,0.7696028161048889,0.0007844518311321735,0.8687206673622131,0.2777433743079503,-0.9484555621941885,2.1141470074653625,0.034226782619953156,67.5353352487411,1000.0,24.0,47.967607888579714,15.51876773779002,1000.0,1000.0,0.0,24000
25000,0,94.0130954291519,0.000583648681640625,0.00014352798461914062,0.010724544525146484,24988.0,0.007789827268570661,1.1303719234466554,0.0009879094804637134,1.3046606874465942,0.23626055692632994,-1.3415825267632802,1.1758407354354858,0.03292200652261575,43.11795833136695,1000.0,25.0,33.88442327020765,6.704644683348555,1000.0,1000.0,0.0,25000
26000,0,100.41696114427775,0.0006630420684814453,0.00015544891357421875,0.010547876358032227,25988.0,0.009389157816767692,1.62326247215271,0.0009483602968975902,1.8548966979980468,0.20170200988650322,-1.8581353823343914,0.35502613335847855,0.03173665733387073,34.147311442526146,1000.0,26.0,38.49168431737434,2.6260415139476954,1000.0,1000.0,0.0,26000
27000,0,93.46946707100312,0.0005805492401123047,0.00014781951904296875,0.01079249382019043,26988.0,0.007381703536957503,2.1447539138793945,0.0009429518063552677,2.34149715423584,0.20278139288226762,-2.3672398924827576,0.6366061965624491,0.030552564188838005,40.01402991393172,1000.0,27.0,23.627820679607677,1.0790953195304755,1000.0,1000.0,0.0,27000
28000,0,96.93787273539127,0.000553131103515625,0.0001690387725830078,0.010950803756713867,27988.0,0.005694720149040222,2.5426983070373534,0.0008891887380741536,2.6871327209472655,0.20688035959998766,-2.7121289173762,1.0619396766026814,0.029292520601302385,28.26328513139883,1000.0,28.0,16.32288486409278,0.1276633413058379,1000.0,1000.0,0.0,28000
29000,0,93.34806378010445,0.0006575584411621094,0.00021505355834960938,0.01434779167175293,28988.0,0.005603822413831949,2.8084506130218507,0.0008125309809111059,2.920683822631836,0.20482992008328438,-2.9588932196299234,1.3156188031037648,0.02799639493847887,20.76728514178599,1000.0,29.0,1.7579408643028394,0.5148113549148304,1000.0,1000.0,0.0,29000
30000,0,96.39144315615201,0.0005688667297363281,0.00014138221740722656,0.010501384735107422,29988.0,0.006039193347096444,3.111009368896484,0.000814403414260596,3.2466367626190187,0.18991758301854134,-3.280251363913218,1.0989625503619511,0.026750394764045875,20.66940698075803,1000.0,30.0,3.422924637151477,0.36984445225495,1000.0,1000.0,0.0,30000
31000,0,100.15502128557824,0.0005731582641601562,0.00015878677368164062,0.010965585708618164,30988.0,0.008650663122534753,3.485953760147095,0.0009655329445376992,3.6463143539428713,0.17293569321433702,-3.667752663294474,0.7520326524972916,0.02561013571297129,41.50852380204293,1000.0,31.0,53.26929362134507,8.595005697695093,1000.0,1000.0,0.0,31000
32000,0,97.17332760004373,0.0008177757263183594,0.00019502639770507812,0.012490987777709961,31988.0,0.011603795252740383,3.89671630859375,0.0010299877729266882,4.067381992340088,0.15723510086536407,-4.08199139436086,0.4054091398914655,0.024545178283005953,52.844936610970755,1000.0,32.0,79.27772739622252,3.224464407351076,1000.0,1000.0,0.0,32000
33000,0,83.2715360638488,0.0005817413330078125,0.00013709068298339844,0.010603189468383789,32988.0,0.016694620586931705,4.383609447479248,0.0011913349037058652,4.5520458984375,0.14527624348799387,-4.563258012135823,0.17202611671139798,0.023535830279191334,129.49397996372474,1000.0,33.0,71.06941262687562,30.73668786604902,1000.0,1000.0,0.0,33000
34000,0,98.6927569378756,0.0007557868957519531,0.0001766681671142578,0.010707378387451172,33988.0,0.01751597099006176,4.854039478302002,0.0012814520997926594,5.022422275543213,0.1327794430156549,-5.0152214368184405,-0.11968809707711141,0.022578559039781492,99.73934663249952,1000.0,34.0,66.8548099485959,50.19545350938474,1000.0,1000.0,0.0,34000
35000,0,99.92614482665952,0.0006222724914550781,0.00016999244689941406,0.010748863220214844,34988.0,0.019108249321579934,5.298735618591309,0.0015047517092898488,5.474888305664063,0.11870884771148364,-5.465102752049764,-0.5253767023483912,0.02168163579578201,91.57251327910281,1000.0,35.0,53.22659581626998,14.076913055077634,1000.0,1000.0,0.0,35000
36000,0,100.28020955466764,0.0006415843963623047,0.00014925003051757812,0.010900735855102539,35988.0,0.017551447935402392,5.723668727874756,0.0014336260640993713,5.882867794036866,0.11355732132991155,-5.87536100546519,-0.543875609834989,0.020811048181106646,106.20987119730984,1000.0,36.0,65.24039948761384,33.65373317364106,1000.0,1000.0,0.0,36000
37000,0,93.03127789183425,0.0006849765777587891,0.00014853477478027344,0.010853052139282227,36988.0,0.0185709485411644,6.121716766357422,0.0013591634994372726,6.268794136047363,0.1080615296959877,-6.243068377176921,-0.5816293930013975,0.01994184513265888,127.62084887356338,1000.0,37.0,68.38698452891492,26.71998319607525,1000.0,1000.0,0.0,37000
38000,0,81.18527327684455,0.0006041526794433594,0.00017023086547851562,0.010726213455200195,37988.0,0.018200459033250807,6.44003173828125,0.001449031517840922,6.614369125366211,0.09564780195554097,-6.601364771525065,-1.0008754779895146,0.019131275359541178,48.078989310371284,1000.0,38.0,41.61043384876645,33.93695683672534,1000.0,1000.0,0.0,38000
39000,0,99.03194670323548,0.0006213188171386719,0.00015616416931152344,0.011046886444091797,38988.0,0.019228945672512054,6.875401668548584,0.0015069208526983858,7.078321151733398,0.07984102517366409,-7.05515992641449,-1.6556475460529327,0.018376637094964583,120.64101578515289,1000.0,39.0,45.48327269245975,20.351414474145944,1000.0,1000.0,0.0,39000
40000,0,98.84141932966149,0.0006258487701416016,0.00014853477478027344,0.011297464370727539,39988.0,0.021559415832161904,7.30177749633789,0.0016396498028188944,7.516875762939453,0.07390163776775201,-7.476763407389323,-1.8247000475724537,0.01769828734298547,51.877626457025514,1000.0,40.0,37.90109278949389,15.961752332371226,1000.0,1000.0,0.0,40000
41000,0,100.43177264316117,0.0006504058837890625,0.00015282630920410156,0.014909505844116211,40988.0,0.02108860030770302,7.675283966064453,0.0015917137544602155,7.859578189849853,0.07488946802914143,-7.848290721575419,-1.5938338935375214,0.01699500810354948,48.81713601508162,1000.0,41.0,34.32146063792312,9.022140599136959,1000.0,1000.0,0.0,41000
42000,0,94.31014230490413,0.0007278919219970703,0.0001862049102783203,0.011803865432739258,41988.0,0.019467085003852844,7.994039783477783,0.0014621745282784105,8.161536102294923,0.07527965555588405,-8.14155880610148,-1.3704755802949269,0.016259392413000267,44.046259702570616,1000.0,42.0,31.063364305670984,5.049738983186435,1000.0,1000.0,0.0,42000
43000,0,97.60314839257357,0.0005955696105957031,0.00016832351684570312,0.010960102081298828,42988.0,0.020662075877189635,8.328153228759765,0.0014287188602611423,8.505792121887207,0.06789959905048211,-8.487431287765503,-1.6373680432637532,0.015562683964769045,73.4130403745885,1000.0,43.0,85.16754226618292,15.304303539381525,1000.0,1000.0,0.0,43000
44000,0,95.42693747690717,0.0006418228149414062,0.00014138221740722656,0.010836362838745117,43988.0,0.019549868404865264,8.663203659057617,0.0014263663347810506,8.82204029083252,0.06621770809094112,-8.820443153381348,-1.5568202237288158,0.014901889177660147,45.372047070837375,1000.0,44.0,4.555064844836912,2.1457731372194035,1000.0,1000.0,0.0,44000
45000,0,99.22170777658235,0.0006587505340576172,0.00019550323486328125,0.011225700378417969,44988.0,0.018437804952263832,8.88701774597168,0.0015791879966855049,9.009210243225098,0.07099129880468051,-8.995301882425943,-1.0094585468371708,0.014223701786249876,20.266024681136003,1000.0,45.0,22.892059128940577,20.72308915717488,1000.0,1000.0,0.0,45000
46000,0,98.82660745354025,0.0009388923645019531,0.00021004676818847656,0.013960599899291992,45988.0,0.020936478450894355,9.094737930297851,0.0015733750211074948,9.213603248596192,0.0654738899320364,-9.169041951497396,-1.1702729910612106,0.013555068833132585,102.83253574984336,1000.0,46.0,91.4055011105164,38.34642591756968,1000.0,1000.0,0.0,46000
47000,0,75.90599197633729,0.0006053447723388672,0.0001468658447265625,0.010676860809326172,46988.0,0.024706203714013098,9.348051261901855,0.0016692679189145565,9.480443305969239,0.058374686166644096,-9.43454392751058,-1.495190441608429,0.01295717580554386,81.93901226090564,1000.0,47.0,76.79106498404326,10.35049021065101,1000.0,1000.0,0.0,47000
48000,0,93.45655454178413,0.0006802082061767578,0.00017118453979492188,0.011022329330444336,47988.0,0.02803901806473732,9.586725730895996,0.0018826721562072634,9.751371116638184,0.04893436562269926,-9.730950752894083,-2.065081854661306,0.01243503267566363,67.90009522482629,1000.0,48.0,56.90239461289993,8.72145291741822,1000.0,1000.0,0.0,48000
49000,0,98.24161657347584,0.0006325244903564453,0.00015401840209960938,0.010891199111938477,48988.0,0.0312623380124569,9.999161567687988,0.0020821178890764714,10.193812866210937,0.03572073640922705,-10.171514431635538,-3.0229790409406028,0.011997961051141223,115.35117451310171,1000.0,49.0,160.10317353694956,44.15890702398099,1000.0,1000.0,0.0,49000
50000,0,100.30246390425229,0.0006339550018310547,0.00014829635620117188,0.011536598205566406,49988.0,0.029417191967368125,10.459503059387208,0.001963140112347901,10.683152198791504,0.02857023539642493,-10.63537367184957,-3.5463216304779053,0.01164317736402154,185.3904344852823,1000.0,50.0,153.9545673113395,35.508695755751475,1000.0,1000.0,0.0,50000
51000,0,93.05753263211703,0.0008635520935058594,0.00016760826110839844,0.014658212661743164,50988.0,0.030113547518849374,10.854119071960449,0.001892823502421379,11.060988998413086,0.02974801432962219,-11.0345086256663,-3.3616892099380493,0.011274643785630664,110.59315048546377,1000.0,51.0,81.29359814412808,48.7672626139228,1000.0,1000.0,0.0,51000
52000,0,90.03426807058999,0.0006995201110839844,0.0001766681671142578,0.011946439743041992,51988.0,0.027365842014551164,11.159397315979003,0.0019305090652778744,11.344325332641601,0.027874560250590246,-11.305755933125814,-3.435858349005381,0.010870134457945824,52.9698609251347,1000.0,52.0,94.44525932296774,24.49499786142933,1000.0,1000.0,0.0,52000
53000,0,91.73050594652285,0.0006940364837646484,0.0001671314239501953,0.011013507843017578,52988.0,0.02819894477725029,11.441052131652832,0.0021311325626447797,11.596415710449218,0.03098728818198045,-11.559975624084473,-3.0278454224268594,0.010425077673668662,107.31116293783914,1000.0,53.0,69.79103991192584,16.634055631835313,1000.0,1000.0,0.0,53000
54000,0,99.45934461184737,0.0006525516510009766,0.00015592575073242188,0.01101994514465332,53988.0,0.026044955253601076,11.619762954711915,0.0019944716058671475,11.762787895202637,0.02946932769070069,-11.73162039120992,-3.043091813723246,0.00996548185745875,33.76890323491375,1000.0,54.0,49.170320238181674,32.770685455523896,1000.0,1000.0,0.0,54000
55000,0,95.90040616388681,0.0009481906890869141,0.00018787384033203125,0.015560626983642578,54988.0,0.022059478387236594,11.733005142211914,0.001726428992114961,11.869891510009765,0.029194373171776533,-11.851733843485514,-2.9325957695643106,0.009516686278705796,26.151834199740254,1000.0,55.0,59.060114301065525,29.23713060667069,1000.0,1000.0,0.0,55000
56000,0,66.48886859809647,0.0006029605865478516,0.00016164779663085938,0.01160287857055664,55988.0,0.02308643437922001,11.94695011138916,0.001778297796845436,12.073391723632813,0.024988365825265646,-12.05183720588684,-3.2552700440088906,0.009103275369852781,164.9507810041652,1000.0,56.0,75.42105981036863,48.68924485888252,1000.0,1000.0,0.0,56000
57000,0,100.94089152697049,0.0006465911865234375,0.00016450881958007812,0.011252641677856445,56988.0,0.023399973884224892,12.04711067199707,0.0018233639094978572,12.168200035095214,0.02375176300605138,-12.161588986714682,-3.277307132879893,0.008722850121557713,68.8225409235223,1000.0,57.0,58.78106076247023,23.9030487437275,1000.0,1000.0,0.0,57000
58000,0,96.41714657194534,0.0006034374237060547,0.00014901161193847656,0.010890007019042969,57988.0,0.022536792010068894,12.174927940368653,0.0018204589234665036,12.298966865539551,0.02014192473143339,-12.251514593760172,-3.5955664118131003,0.008376282406970859,35.27669660519743,1000.0,58.0,51.62535810701753,22.137858582223256,1000.0,1000.0,0.0,58000
59000,0,99.88549960086799,0.0006732940673828125,0.00014901161193847656,0.010831594467163086,58988.0,0.023997468799352648,12.26356845855713,0.001977419159375131,12.401104316711425,0.015193911036476493,-12.351802349090576,-4.117616732915242,0.00807088326352338,35.17343081886184,1000.0,59.0,57.454364513848056,27.14163119764778,1000.0,1000.0,0.0,59000
60000,0,90.60975904822146,0.0008718967437744141,0.00016760826110839844,0.012954473495483398,59988.0,0.02733176924288273,12.391628723144532,0.002215726487338543,12.551706809997558,0.010634837051232656,-12.53511643409729,-4.641120870908101,0.007825756833578149,55.073896417353005,1000.0,60.0,62.27773370792109,41.34592885594227,1000.0,1000.0,0.0,60000
61000,0,84.95260903486734,0.0006198883056640625,0.00013637542724609375,0.010678291320800781,60988.0,0.02744108647108078,12.595468063354492,0.002099671815522015,12.768274116516114,0.008448774577118456,-12.734942197799683,-4.893140196800232,0.007632684040193756,37.7760817624709,1000.0,61.0,88.68917010789777,49.20419208894082,1000.0,1000.0,0.0,61000
62000,0,88.83865747702944,0.00063323974609375,0.00014472007751464844,0.011148214340209961,61988.0,0.030570204854011535,12.871113510131837,0.0020019370969384907,13.03699520111084,0.009462469490244985,-13.001423438390097,-4.724244276682536,0.0074163027650987106,153.82816451234126,1000.0,62.0,98.87116242489947,64.74916614232072,1000.0,1000.0,0.0,62000
63000,0,99.5789213777647,0.0006201267242431641,0.0001842975616455078,0.011387348175048828,62988.0,0.02917743496596813,13.087525596618653,0.0020095193991437553,13.24401309967041,0.008662237552925944,-13.214553356170654,-4.7890580495198565,0.007152286785033842,120.84089400013693,1000.0,63.0,95.05924159877937,59.91407840984191,1000.0,1000.0,0.0,63000
64000,0,96.84842864769308,0.0006277561187744141,0.0001437664031982422,0.010877132415771484,63988.0,0.03278486184775829,13.27309684753418,0.002133026574738324,13.423942413330078,0.008045559516176581,-13.412755966186523,-4.8311054309209185,0.006882379180751741,85.56065505503106,1000.0,64.0,96.12369000870139,50.53209951050234,1000.0,1000.0,0.0,64000
65000,0,101.81891626304567,0.0006780624389648438,0.00016689300537109375,0.011146068572998047,64988.0,0.030127556025981904,13.481880989074707,0.0019606261467561125,13.624371185302735,0.006804373852598171,-13.601091543833414,-4.972413182258606,0.006621021195314825,163.8791427702093,1000.0,65.0,81.07580901252312,37.23120629618046,1000.0,1000.0,0.0,65000
66000,0,96.27037850750872,0.0009429454803466797,0.00018596649169921875,0.014377355575561523,65988.0,0.030294642969965934,13.599490280151366,0.002187258335761726,13.734175682067871,0.007863977535938224,-13.725045045216879,-4.7629477977752686,0.006356667494401336,47.56902184141095,1000.0,66.0,109.67960476492492,56.758173743862,1000.0,1000.0,0.0,66000
67000,0,100.07778491468952,0.0006496906280517578,0.00014829635620117188,0.011795997619628906,66988.0,0.028802813217043876,13.750861206054687,0.0021040519746020436,13.878583984375,0.00833498954307288,-13.874258597691854,-4.634861787160237,0.0061050355434417725,87.13068622143852,1000.0,67.0,71.84834541142324,56.09565231337271,1000.0,1000.0,0.0,67000
68000,0,93.1429216066145,0.0006546974182128906,0.00016570091247558594,0.010796070098876953,67988.0,0.029514196217060088,13.787920837402345,0.0020155452052131296,13.912475242614747,0.00508500278616945,-13.887440919876099,-5.133842666943868,0.005870163052653273,55.72632224796229,1000.0,68.0,55.23284479956752,31.03716963344372,1000.0,1000.0,0.0,68000
69000,0,98.80863422158858,0.0006215572357177734,0.00014925003051757812,0.014722585678100586,68988.0,0.03011512279510498,13.876760520935058,0.0020631744945421816,13.99737766265869,0.005295017540144424,-13.948665539423624,-5.066630959510803,0.005672383549002309,128.45352712325592,1000.0,69.0,60.36489912885439,43.45686016992604,1000.0,1000.0,0.0,69000
70000,0,80.90133838226025,0.0007522106170654297,0.0001735687255859375,0.010849952697753906,69988.0,0.029403205513954162,13.909410820007324,0.002184716644696891,14.026473083496093,0.004277389671187848,-13.952525615692139,-5.22157605489095,0.005494706022242705,24.14544509763522,1000.0,70.0,93.57016735679818,27.61559826183079,1000.0,1000.0,0.0,70000
71000,0,98.15168086026497,0.0006983280181884766,0.00015020370483398438,0.011440753936767578,70988.0,0.030082194805145263,14.02972267150879,0.0020110784703865647,14.147181396484376,0.0028487976330022016,-14.10554297765096,-5.466412862141927,0.005338480928912759,119.20243927196215,1000.0,71.0,46.16940990559395,17.93541046399196,1000.0,1000.0,0.0,71000
72000,0,97.6578711102667,0.0006549358367919922,0.00018644332885742188,0.01064753532409668,71988.0,0.029116182923316955,14.036068496704102,0.001820060764439404,14.155558090209961,0.0016377325518988073,-14.159521897633871,-5.685571352640788,0.005208423167156677,40.70604733426626,1000.0,72.0,113.06984494143371,53.01943678833566,1000.0,1000.0,0.0,72000
73000,0,92.8838500112055,0.0006074905395507812,0.00015783309936523438,0.010756731033325195,72988.0,0.029362768307328223,14.099954490661622,0.001947875409387052,14.220662231445312,0.00015493713848021193,-14.20073143641154,-5.969794909159343,0.005129447788931429,76.16891753251119,1000.0,73.0,105.29390877509184,50.89554266016363,1000.0,1000.0,0.0,73000
74000,0,98.08364895240037,0.0009207725524902344,0.00017881393432617188,0.013143777847290039,73988.0,0.033292934596538544,14.185743980407715,0.002259826441295445,14.31599033355713,0.0004455665596954835,-14.238165060679117,-5.912650227546692,0.005101029955161114,43.65249450512086,1000.0,74.0,106.41843803802706,64.74005920593045,1000.0,1000.0,0.0,74000
75000,0,84.91862251488297,0.0006330013275146484,0.00014472007751464844,0.010714530944824219,74988.0,0.03566542126238346,14.30828025817871,0.0021179197309538723,14.438340797424317,-0.0009501642634859309,-14.465604782104492,-6.185729424158732,0.005115837790071964,183.09724825553,1000.0,75.0,52.13527056096816,33.1415590204771,1000.0,1000.0,0.0,75000
76000,0,93.74916740501264,0.0006580352783203125,0.00014281272888183594,0.01128530502319336,75988.0,0.03489781685173512,14.40171615600586,0.0021272962214425204,14.536825675964355,-0.0012532655819086358,-14.50294272104899,-6.243085106213887,0.0051558236979569,48.63554700318255,1000.0,76.0,96.08832189186656,51.81082641442335,1000.0,1000.0,0.0,76000
77000,0,97.71456740791407,0.0006673336029052734,0.00014829635620117188,0.010814666748046875,76988.0,0.03226282767951488,14.403390655517578,0.002158061875961721,14.531384086608886,5.320833224686794e-06,-14.53100872039795,-5.998968839645386,0.005143353055852155,60.72356308060711,1000.0,77.0,107.40885324761538,43.058256008771316,1000.0,1000.0,0.0,77000
78000,0,98.05989215596425,0.0006508827209472656,0.0001556873321533203,0.010513782501220703,77988.0,0.03256336256861687,14.534320640563966,0.00211741091683507,14.665384101867676,0.001236135193418401,-14.607692082722982,-5.7576963901519775,0.0051016715199997025,90.90962085240969,1000.0,78.0,67.43716285180003,20.73636204117586,1000.0,1000.0,0.0,78000
79000,0,98.96287627469763,0.0009617805480957031,0.00019288063049316406,0.016059398651123047,78988.0,0.032289404422044754,14.596109657287597,0.0021614038525149225,14.720614547729491,0.0005076849132213587,-14.68386435508728,-5.8987473249435425,0.005013125909802814,75.45828165613071,1000.0,79.0,100.01352785695148,44.780420469199086,1000.0,1000.0,0.0,79000
80000,0,77.9529847844721,0.0006525516510009766,0.0001437664031982422,0.010755300521850586,79988.0,0.03774862267076969,14.687948455810547,0.002553346622735262,14.80969440460205,0.0008681531035108492,-14.788799285888672,-5.823312679926555,0.004913494922220707,93.45753445595771,1000.0,80.0,53.21609804053649,36.2600808980263,1000.0,1000.0,0.0,80000
81000,0,95.38206001220729,0.0006883144378662109,0.0002155303955078125,0.010754108428955078,80988.0,0.031313159614801404,14.6865287399292,0.002049945816397667,14.806475257873535,0.0005199992713945297,-14.765953858693441,-5.89216407140096,0.004821863762723903,38.479935072321815,1000.0,81.0,74.13976977156611,41.44189655122749,1000.0,1000.0,0.0,81000
82000,0,98.30102025032366,0.0006461143493652344,0.00016236305236816406,0.01105952262878418,81988.0,0.03368789717555046,14.716449508666992,0.002037981846369803,14.829734687805177,0.0008227571912963564,-14.841702222824097,-5.825985948244731,0.004728153464384377,32.65561116586414,1000.0,82.0,77.79411208798919,37.775523730458126,1000.0,1000.0,0.0,82000
83000,0,97.1957557685231,0.0007221698760986328,0.00016164779663085938,0.011246442794799805,82988.0,0.03515320777893066,14.773213081359863,0.002245970922522247,14.887065887451172,0.00023885470848957388,-14.84729806582133,-5.94871989885966,0.004657608650935193,150.4876916228732,1000.0,83.0,100.94118545569822,49.52370056856824,1000.0,1000.0,0.0,83000
84000,0,99.00931762644136,0.0007061958312988281,0.00016546249389648438,0.011742591857910156,83988.0,0.03733380250632763,14.79544921875,0.002446467583067715,14.904255409240722,0.00041545189984996494,-14.909752368927002,-5.911338647206624,0.004685582593083382,105.25642741986354,1000.0,84.0,93.25190897860331,51.69265640811406,1000.0,1000.0,0.0,84000
85000,0,97.28719678237917,0.0006647109985351562,0.0001437664031982422,0.01062917709350586,84988.0,0.03809957303106785,14.916261367797851,0.0023784439638257025,15.02576789855957,3.486955877936756e-05,-14.915678183237711,-5.992551207542419,0.004680506108949582,200.0952099238339,1000.0,85.0,138.099676412918,42.19665082108711,1000.0,1000.0,0.0,85000
86000,0,98.54370756866076,0.0006079673767089844,0.0001430511474609375,0.011322975158691406,85988.0,0.03826875761151314,15.075804672241212,0.0026067566126585008,15.184459075927734,0.00040380637074122205,-15.170052210489908,-5.914322892824809,0.0047117844223976135,169.6016635303348,1000.0,86.0,83.09883847786752,38.66228241878087,1000.0,1000.0,0.0,86000
87000,0,93.68216129674946,0.0006616115570068359,0.00014257431030273438,0.011017560958862305,86988.0,0.03986869007349014,15.17170021057129,0.002595794857479632,15.28014102935791,-0.0005439727659298418,-15.262021780014038,-6.11447286605835,0.004752623771006863,137.0242749360071,1000.0,87.0,135.07846858208822,33.39106364538318,1000.0,1000.0,0.0,87000
88000,0,101.0234567461147,0.0009133815765380859,0.0002040863037109375,0.013701915740966797,87988.0,0.03611202925443649,15.09542781829834,0.002372094434686005,15.20915184020996,-0.00046865472237792954,-15.210357030232748,-6.096749742825826,0.004843787949842711,46.632199249323655,1000.0,88.0,149.89984125183923,47.5651360784768,1000.0,1000.0,0.0,88000
89000,0,74.99073858199466,0.0006465911865234375,0.00014448165893554688,0.010695219039916992,88988.0,0.03683017931878567,15.182324562072754,0.0023357260599732397,15.29008487701416,-0.0013729024528098914,-15.243596712748209,-6.279655536015828,0.00491123681422323,198.97427208940184,1000.0,89.0,152.96541538748994,57.82143568369124,1000.0,1000.0,0.0,89000
90000,0,92.70204442479832,0.0006282329559326172,0.000148773193359375,0.010986089706420898,89988.0,0.03745918348431587,15.377264556884766,0.002471801778301597,15.487490921020507,-0.0005380384245654568,-15.403732299804688,-6.1073680718739825,0.005012164552075167,233.7144805469812,1000.0,90.0,150.57071161610054,45.728224666462005,1000.0,1000.0,0.0,90000
91000,0,92.07759774358182,0.00069427490234375,0.00015735626220703125,0.011048078536987305,90988.0,0.03713995769619942,15.43748062133789,0.0022573004476726054,15.545759544372558,0.0004484796615239854,-15.486838181813559,-5.911131461461385,0.005046623448530833,130.0689482020313,1000.0,91.0,177.32788622299196,63.997906102783126,1000.0,1000.0,0.0,91000
92000,0,97.70764748033176,0.0006935596466064453,0.00015306472778320312,0.01090240478515625,91988.0,0.035210517570376396,15.400871124267578,0.002347622895613313,15.512760505676269,0.0002973094888147898,-15.466058731079102,-5.941207806269328,0.005056983830096821,48.81872019392386,1000.0,92.0,149.78079249165222,70.13993536550818,1000.0,1000.0,0.0,92000
93000,0,95.71456216385948,0.0008695125579833984,0.00015974044799804688,0.013175487518310547,92988.0,0.03448499202728272,15.453002471923828,0.002413402567617595,15.566216201782227,0.0001701767347791853,-15.502633571624756,-5.966000874837239,0.005004178111751874,41.14253520714904,1000.0,93.0,153.18354466605007,46.906542176954225,1000.0,1000.0,0.0,93000
94000,0,81.39418087371504,0.0006921291351318359,0.00014925003051757812,0.011401891708374023,93988.0,0.033949366062879564,15.482439002990724,0.002309846538119018,15.594548797607422,0.00012398928265611175,-15.593240737915039,-5.9747419357299805,0.00490848549331228,60.192502497185245,1000.0,94.0,147.7144174190807,47.16640848750216,1000.0,1000.0,0.0,94000
95000,0,98.18963975394907,0.000997304916381836,0.00021147727966308594,0.016495227813720703,94988.0,0.034987422078847884,15.539109840393067,0.002406299221329391,15.647286834716796,0.0005763491729643041,-15.639767169952393,-5.880465865135193,0.0048210131547724204,213.27169493574158,1000.0,95.0,179.52388220703318,60.393216775325584,1000.0,1000.0,0.0,95000
96000,0,95.30776222504998,0.0007507801055908203,0.0001742839813232422,0.011179685592651367,95988.0,0.03700950257480144,15.67319683074951,0.002378807170316577,15.780008239746094,0.0003183967176786003,-15.731998523076376,-5.933041175206502,0.0047550568512330455,182.43423570088746,1000.0,96.0,214.39523999688163,22.875312002140642,1000.0,1000.0,0.0,96000
97000,0,95.30360427830816,0.0008449554443359375,0.0001552104949951172,0.01162862777709961,96988.0,0.0488419471681118,15.82413028717041,0.0035428781900554897,15.927877311706544,-7.186102205499385e-05,-15.922710657119751,-6.015257120132446,0.004709874900678794,209.06705971229079,1000.0,97.0,203.94380855427787,62.79018585424185,1000.0,1000.0,0.0,97000
98000,0,99.2656671712424,0.0007002353668212891,0.00016021728515625,0.011220693588256836,97988.0,0.04610342264175415,15.81267261505127,0.0031695378944277762,15.920218658447265,-0.00011870709325497349,-15.887782971064249,-6.0252368450164795,0.004703518740522365,76.77253532112634,1000.0,98.0,185.54811530415458,60.27830750877178,1000.0,1000.0,0.0,98000
99000,0,97.65978114990831,0.0007030963897705078,0.0001552104949951172,0.01195836067199707,98988.0,0.03768893599510193,15.891886978149413,0.002530545489862561,15.994118843078613,0.00035706321796169505,-15.935317118962606,-5.9240163167317705,0.004697931503566603,229.52062466967402,1000.0,99.0,222.96594312254132,40.24709738398748,1000.0,1000.0,0.0,99000
100000,0,88.6048930692082,0.0007042884826660156,0.00015974044799804688,0.01131129264831543,99988.0,0.04082210466265678,15.945447273254395,0.002402765369042754,16.044816246032713,-0.00030247211301078397,-15.999838272730509,-6.065022706985474,0.004651880473829806,182.2603498826402,1000.0,100.0,131.8144801377522,60.78263665190826,1000.0,1000.0,0.0,100000
101000,0,93.55377770164351,0.0007071495056152344,0.0001800060272216797,0.010862112045288086,100988.0,0.040033832490444184,15.971162757873536,0.0025472098775207994,16.061692199707032,0.0005697014591229769,-16.095659732818604,-5.878928184509277,0.004704861824090282,179.77120531571302,1000.0,101.0,193.54253912065127,47.41585061981676,1000.0,1000.0,0.0,101000
102000,0,100.09421633865954,0.0010132789611816406,0.0002048015594482422,0.013371467590332031,101988.0,0.03788642153143883,15.974786796569823,0.0024641255009919404,16.07050106048584,-0.0005658161632406215,-16.06909926732381,-6.119283835093181,0.0047456626780331135,64.74835954657561,1000.0,102.0,190.814104283738,77.82966664838438,1000.0,1000.0,0.0,102000
103000,0,96.01016709227936,0.0007226467132568359,0.0001595020294189453,0.010971307754516602,102988.0,0.037878475040197375,15.985959434509278,0.0023050808627158403,16.07942428588867,-0.00025046082616123994,-16.12759796778361,-6.052719910939534,0.004750743469533821,64.52410198591906,1000.0,103.0,158.9630256210557,58.988932394399434,1000.0,1000.0,0.0,103000
104000,0,100.34479359753793,0.0006210803985595703,0.0001442432403564453,0.011296510696411133,103988.0,0.03578944757580757,16.05434642791748,0.0022648937441408635,16.14715232849121,-0.0005284369908622466,-16.138173659642536,-6.1101120710372925,0.0048017689647773905,244.0589777358204,1000.0,104.0,203.99167453184518,52.23411799254302,1000.0,1000.0,0.0,104000
105000,0,93.19482661774849,0.0006475448608398438,0.00014209747314453125,0.010875225067138672,104988.0,0.03543310970067978,16.1797554397583,0.00216572015080601,16.27400161743164,-0.00011488683715773125,-16.339912176132202,-6.02337630589803,0.004921571157562236,224.21001817343026,1000.0,105.0,198.84283014198246,59.39126395287909,1000.0,1000.0,0.0,105000
106000,0,100.94370954963212,0.0006380081176757812,0.00014495849609375,0.011049747467041016,105988.0,0.036297549605369565,16.151934242248537,0.0022617473918944597,16.246479797363282,-2.6803266033918287e-05,-16.258548418680828,-6.005343596140544,0.005016316271697481,107.32898494253395,1000.0,106.0,199.72040494997384,76.07584629670897,1000.0,1000.0,0.0,106000
107000,0,97.3169928119649,0.0009593963623046875,0.0001811981201171875,0.015629291534423828,106988.0,0.03844166919589043,16.252590866088866,0.0024657321628183126,16.349763107299804,-0.0003054789752544214,-16.23953167597453,-6.06005855401357,0.005086356385921438,133.3860148905419,1000.0,107.0,208.2199380025178,63.49119054262924,1000.0,1000.0,0.0,107000
108000,0,86.14833528457288,0.0006690025329589844,0.000164031982421875,0.01099538803100586,107988.0,0.03897619888186455,16.191196212768556,0.0023403759766370056,16.281872329711913,-1.3551155764920017e-05,-16.237462679545086,-6.002643386522929,0.00512822224603345,116.33644081751248,1000.0,108.0,226.60749611268506,42.90528634563879,1000.0,1000.0,0.0,108000
109000,0,90.16619128981192,0.0006611347198486328,0.0001442432403564453,0.011187076568603516,108988.0,0.037281174957752225,16.235681037902832,0.002321000313386321,16.32843074798584,0.0009020749251552237,-16.3318993250529,-5.822012782096863,0.0050673777392754955,74.63347767997767,1000.0,109.0,229.5296086921956,50.93036508035297,1000.0,1000.0,0.0,109000
110000,0,97.89501299103837,0.0006291866302490234,0.00014090538024902344,0.010740518569946289,109988.0,0.03741873510181904,16.224182929992676,0.002247374434955418,16.313959846496584,-0.0001473495443254554,-16.294603904088337,-6.0294216473897295,0.005011802461619179,158.89254101373945,1000.0,110.0,198.7081675470227,59.53174925789305,1000.0,1000.0,0.0,110000
111000,0,89.30671161345985,0.0006623268127441406,0.00014710426330566406,0.010744810104370117,110988.0,0.03796479731798172,16.319094467163087,0.002182653807103634,16.409455909729004,0.0010170315472350921,-16.356388727823894,-5.79546582698822,0.004972075306189557,87.57704615261997,1000.0,111.0,202.08612227065993,75.31486234734518,1000.0,1000.0,0.0,111000
112000,0,100.88048765470107,0.0011360645294189453,0.0002110004425048828,0.011111259460449219,111988.0,0.04600522667169571,16.346457138061524,0.002952226083725691,16.437975387573243,-0.00020506598108719723,-16.355592568715412,-6.041303873062134,0.004964830392661194,213.90699462870887,1000.0,112.0,209.834716014031,53.39776982913238,1000.0,1000.0,0.0,112000
113000,0,84.42647699394283,0.0007035732269287109,0.00015234947204589844,0.011062860488891602,112988.0,0.039405214339494704,16.374556732177734,0.0023357519879937173,16.46306427001953,1.572854428862532e-05,-16.37525447209676,-5.996879935264587,0.005009987042285502,159.72634951987288,1000.0,113.0,218.86709809407748,77.45832007634873,1000.0,1000.0,0.0,113000
114000,0,99.40720249443275,0.0006096363067626953,0.00020647048950195312,0.011090517044067383,113988.0,0.04033824503421783,16.414140396118164,0.0024732566718012093,16.506840438842772,-0.00040578835614724085,-16.465778827667236,-6.080226858456929,0.005058698356151581,224.0471870348838,1000.0,114.0,193.97551706297966,67.31175233885148,1000.0,1000.0,0.0,114000
115000,0,100.10405866999655,0.0006761550903320312,0.0001704692840576172,0.010568380355834961,114988.0,0.04060655906796455,16.49555961608887,0.0024463307810947297,16.58784278869629,-0.0008766504955322792,-16.60484441121419,-6.171152671178182,0.005122620107916494,162.47366439291082,1000.0,115.0,224.36155637302127,55.222472391907935,1000.0,1000.0,0.0,115000
116000,0,94.69057795445248,0.0006475448608398438,0.00018596649169921875,0.011598825454711914,115988.0,0.040358511060476304,16.51008743286133,0.0023680408485233784,16.598627319335936,0.0007174431812018156,-16.520635445912678,-5.859815677007039,0.005117912893183529,90.25936449732897,1000.0,116.0,204.8476232918165,70.80057615280046,1000.0,1000.0,0.0,116000
117000,0,99.60852932990214,0.0011343955993652344,0.00016570091247558594,0.012877941131591797,116988.0,0.04027849152684212,16.501217193603516,0.0023701899126172066,16.587210540771483,0.0005656888048785428,-16.64414358139038,-5.888300776481628,0.005064899063048263,113.98306131454275,1000.0,117.0,178.7722251846788,52.38944500891147,1000.0,1000.0,0.0,117000
118000,0,72.81150789793101,0.0006635189056396484,0.00016117095947265625,0.010744571685791016,117988.0,0.043523928076028826,16.493194999694825,0.002638870235532522,16.577004623413085,0.001375994659611024,-16.54873498280843,-5.724802732467651,0.004999717037814359,182.0256469383299,1000.0,118.0,136.50040138885424,70.38936096748718,1000.0,1000.0,0.0,118000
119000,0,98.87646382666142,0.0006890296936035156,0.0001437664031982422,0.010952234268188477,118988.0,0.04240573659539223,16.627026901245117,0.002676646504551172,16.715307540893555,-0.0002644869964569807,-16.588167031606037,-6.052870432535808,0.005002719350159168,241.16367218266438,1000.0,119.0,134.9389420366427,75.14807664222126,1000.0,1000.0,0.0,119000
120000,0,90.37562853266819,0.0006501674652099609,0.00014472007751464844,0.011495113372802734,119988.0,0.041561666131019595,16.520209197998046,0.002646164824254811,16.606531982421874,-3.888522587658372e-05,-16.54403607050578,-6.00770890712738,0.005043719235497217,74.8678161306176,1000.0,120.0,172.74714397671127,80.23092571588857,1000.0,1000.0,0.0,120000
121000,0,93.13390414609017,0.0007307529449462891,0.00020551681518554688,0.012015104293823242,120988.0,0.047042893767356875,16.61140869140625,0.0028003409272059797,16.696748580932617,-0.0010441940369976994,-16.662779490152996,-6.205018679300944,0.005093644683559735,265.1207328474883,1000.0,121.0,207.39598371030434,73.75603372981475,1000.0,1000.0,0.0,121000
122000,0,97.74699485898326,0.0006608963012695312,0.00016427040100097656,0.010944366455078125,121988.0,0.043739674240350725,16.681133575439453,0.0024241361441090705,16.762254524230958,-0.00023475181054285107,-16.798864205678303,-6.04631765683492,0.005070653627626598,274.35828365635007,1000.0,122.0,271.2375663986618,24.260163540702422,1000.0,1000.0,0.0,122000
123000,0,80.96655555323909,0.0006706714630126953,0.00015091896057128906,0.012421131134033203,122988.0,0.04238388866186142,16.794589080810546,0.0024801121279597283,16.879485092163087,-0.000243996381565618,-16.867600917816162,-6.048316518465678,0.005050807997273902,269.48211170498934,1000.0,123.0,249.06377456216396,63.564350746958254,1000.0,1000.0,0.0,123000
124000,0,90.65519459410858,0.0006694793701171875,0.0001614093780517578,0.011371612548828125,123988.0,0.04415070533752442,16.830394287109375,0.0026235015969723464,16.914751205444336,0.0003612978374197458,-16.851448853810627,-5.928889274597168,0.005080662085674703,261.11822378376826,1000.0,124.0,235.30235067099528,48.06854987403612,1000.0,1000.0,0.0,124000
125000,0,98.85418532520058,0.0006504058837890625,0.00014901161193847656,0.011239290237426758,124988.0,0.044600102454423904,16.96675094604492,0.0026179779693484306,17.05094482421875,0.0002822070552307802,-17.037402629852295,-5.944739421208699,0.0051064958873515325,174.20766600848995,1000.0,125.0,232.9729210305057,65.88576988492184,1000.0,1000.0,0.0,125000
126000,0,99.35878666935774,0.0006477832794189453,0.00015616416931152344,0.010910272598266602,125988.0,0.04031060606241226,17.0192569732666,0.00244960562326014,17.10562202453613,-0.0012826097129921739,-17.176502863566082,-6.247103452682495,0.005191473794790606,246.14825953180832,1000.0,126.0,271.0124989990527,24.54516894715249,1000.0,1000.0,0.0,126000
127000,0,83.07691088795136,0.0006511211395263672,0.00014209747314453125,0.010882854461669922,126988.0,0.04122033506631851,17.084080429077147,0.0023519251262769103,17.16913131713867,-0.0004589006615181764,-17.158801555633545,-6.087595264116923,0.005239695232982437,281.5248127159538,1000.0,127.0,247.9693479030546,35.14705500653362,1000.0,1000.0,0.0,127000
128000,0,98.7845249736688,0.0006725788116455078,0.00014591217041015625,0.010744333267211914,127988.0,0.04459647998213768,17.192842712402342,0.0024756540870293975,17.277475509643555,-0.000837353486228191,-17.270546913146973,-6.1580759684244795,0.005297294507424037,265.02705048903,1000.0,128.0,256.63194196526143,18.137731917784052,1000.0,1000.0,0.0,128000
129000,0,99.3227409384632,0.0006611347198486328,0.00018548965454101562,0.01360940933227539,128988.0,0.03948955908417702,17.33989456176758,0.0022060969611629845,17.429145736694338,-0.00042662740997911897,-17.454052448272705,-6.079060832659404,0.005396618236166735,285.2719977498993,1000.0,129.0,213.73905262701783,75.50799263985283,1000.0,1000.0,0.0,129000
130000,0,99.60673154013048,0.0006377696990966797,0.00015544891357421875,0.011313915252685547,129988.0,0.04537771075963974,17.439940185546874,0.0030251808743923902,17.524951553344728,-0.0004798272166226525,-17.525123755137127,-6.087555329004924,0.005480463500134647,274.58968567365775,1000.0,130.0,258.82718835434633,17.04476112743243,1000.0,1000.0,0.0,130000
131000,0,101.21116417702997,0.0008921623229980469,0.00016164779663085938,0.013542890548706055,130988.0,0.04240846365690231,17.49020622253418,0.0025178255140781403,17.578392333984375,1.417235762346536e-05,-17.581704139709473,-5.997418761253357,0.005491356210162242,269.65087581750305,1000.0,131.0,233.65787842613727,77.56094519926302,1000.0,1000.0,0.0,131000
132000,0,80.48096266214952,0.0007121562957763672,0.00014400482177734375,0.010605573654174805,131988.0,0.03988084495067597,17.67326965332031,0.002410912085324526,17.764281463623046,-0.0008786797649615133,-17.768672466278076,-6.1601429382960005,0.005487632122822106,272.1955439741217,1000.0,132.0,253.66481013023662,31.966979133465813,1000.0,1000.0,0.0,132000
133000,0,97.38007609675823,0.0007116794586181641,0.00016736984252929688,0.011484861373901367,132988.0,0.04321124598383903,17.70947105407715,0.0026999726332724095,17.80324333190918,-0.001077309973576727,-17.80708106358846,-6.196556170781453,0.005481269482212762,223.53615461746696,1000.0,133.0,275.6150852220852,18.00368762579481,1000.0,1000.0,0.0,133000
134000,0,92.27425246552836,0.0006341934204101562,0.00013947486877441406,0.011014223098754883,133988.0,0.0405199459195137,17.823791046142578,0.0026443254482001067,17.91312957763672,-2.033051168837119e-05,-17.90003554026286,-6.003732800483704,0.005440768979800244,337.1046322099784,1000.0,134.0,269.5431155053728,63.88177535101643,1000.0,1000.0,0.0,134000
135000,0,99.56417127024609,0.0007436275482177734,0.00016379356384277344,0.01079249382019043,134988.0,0.03757619559764862,17.94696014404297,0.002404765533283353,18.033622283935546,-0.000715602029231377,-18.12380822499593,-6.132246096928914,0.005411672910364966,301.40261661137606,1000.0,135.0,252.43227847183826,67.22052415356873,1000.0,1000.0,0.0,135000
136000,0,94.65032017201008,0.0006852149963378906,0.00015044212341308594,0.011214971542358398,135988.0,0.040518235713243485,17.948038711547852,0.0025740525405853988,18.035971755981446,-0.0003413658463008081,-18.018472989400227,-6.063207149505615,0.0054031348166366415,300.45733221723367,1000.0,136.0,301.49878890618254,14.164798972452322,1000.0,1000.0,0.0,136000
137000,0,95.79255859503468,0.0006277561187744141,0.0001392364501953125,0.011146783828735352,136988.0,0.04280613377690315,18.07841369628906,0.002693787505850196,18.16260673522949,-0.00040429851530158584,-18.162565390268963,-6.075025717417399,0.005391610126631956,270.4676357208356,1000.0,137.0,303.06061683094765,15.235584243772681,1000.0,1000.0,0.0,137000
138000,0,98.39649270314095,0.0006601810455322266,0.00015807151794433594,0.011295795440673828,137988.0,0.03833840578794479,18.180606231689453,0.002390873907133937,18.269852447509766,4.026213355246e-05,-18.241840998331707,-5.992640693982442,0.005450097223122914,282.13837624508307,1000.0,138.0,315.0340863762937,21.61366806283758,1000.0,1000.0,0.0,138000
139000,0,97.44215459329561,0.0006651878356933594,0.0001506805419921875,0.01116633415222168,138988.0,0.041743903011083605,18.262417602539063,0.002690731156617403,18.345618438720702,0.0010679193158769824,-18.246678829193115,-5.806181152661641,0.005509486033891638,331.51600610016465,1000.0,139.0,288.7109104878231,53.72767589634402,1000.0,1000.0,0.0,139000
140000,0,98.447764501098,0.0007750988006591797,0.00015497207641601562,0.011304378509521484,139988.0,0.037335875183343886,18.43875923156738,0.0022816197806969285,18.524313278198242,6.622274365023866e-05,-18.500362237294514,-5.988048235575358,0.0055407293839380145,304.9154145132333,1000.0,140.0,287.8517199740138,37.8187063755303,1000.0,1000.0,0.0,140000
141000,0,100.75718557580696,0.0006887912750244141,0.00019741058349609375,0.010545969009399414,140988.0,0.03670451931655407,18.48513412475586,0.0021343018347397447,18.574108810424804,-0.0001837164866932047,-18.614441712697346,-6.03298282623291,0.005574185828057428,271.582262747275,1000.0,141.0,290.479052724154,24.201116531292172,1000.0,1000.0,0.0,141000
142000,0,99.09755463673952,0.0007109642028808594,0.00014591217041015625,0.011177539825439453,141988.0,0.042035323977470396,18.510270233154298,0.002724514789879322,18.59610534667969,-0.0004470072575107527,-18.538851737976074,-6.08027442296346,0.005569439924632509,323.18180322368727,1000.0,142.0,285.01786423399767,23.193872754309858,1000.0,1000.0,0.0,142000
143000,0,99.99980926550052,0.0006692409515380859,0.0001480579376220703,0.010990381240844727,142988.0,0.04137303575873375,18.726125259399414,0.002439707573503256,18.809068756103514,0.0017284033601754345,-18.771640300750732,-5.6873094240824384,0.005524219130165875,287.1937898412371,1000.0,143.0,283.81828401093685,38.354791747062734,1000.0,1000.0,0.0,143000
144000,0,98.23342542342236,0.0007128715515136719,0.00015616416931152344,0.010873794555664062,143988.0,0.04527364954352379,18.768369522094726,0.0029139563720673323,18.85013618469238,0.00044570125464815646,-18.766351858774822,-5.919230580329895,0.005517815705388784,290.37472304078415,1000.0,144.0,286.3407423971206,34.861717922807536,1000.0,1000.0,0.0,144000
145000,0,96.09252072231412,0.0006971359252929688,0.00015664100646972656,0.010881423950195312,144988.0,0.041079963445663455,18.979165802001955,0.0023773707821965217,19.061826629638674,-0.00042565180532013375,-19.04218562444051,-6.077367067337036,0.005502773875681062,303.94734276165707,1000.0,145.0,281.6831197569603,45.0722461867342,1000.0,1000.0,0.0,145000
146000,0,83.07184302342164,0.0006806850433349609,0.0001583099365234375,0.011224031448364258,145988.0,0.0375976337492466,19.040388107299805,0.002413509888574481,19.120340576171873,0.0002538311988852608,-19.126732031504314,-5.953957358996074,0.0055128647945821285,313.9999721626001,1000.0,146.0,248.01125826064995,68.29384941780577,1000.0,1000.0,0.0,146000
147000,0,100.41648032468036,0.0006184577941894531,0.0001423358917236328,0.012057781219482422,146988.0,0.040982517004013064,19.162821426391602,0.0025432148110121487,19.240947952270506,-0.0007293023130235573,-19.16079092025757,-6.13122296333313,0.005557724934381743,288.3867350685632,1000.0,147.0,282.82507198394114,72.23451134267602,1000.0,1000.0,0.0,147000
148000,0,97.2913490738739,0.0006415843963623047,0.00020074844360351562,0.010785579681396484,147988.0,0.04079749420285225,19.2289444732666,0.0023393997829407455,19.308282623291017,7.323474953106295e-05,-19.318210283915203,-5.986975789070129,0.005613336223177612,324.2952447445808,1000.0,148.0,252.68631504988343,79.12588958741776,1000.0,1000.0,0.0,148000
149000,0,99.12153584233965,0.001039743423461914,0.00021529197692871094,0.011293172836303711,148988.0,0.037066245824098586,19.310192489624022,0.0024615864269435404,19.397414474487306,-0.0008684153908689041,-19.45775572458903,-6.1526674429575605,0.005688064033165574,318.939447438965,1000.0,149.0,315.1200014043792,20.383148799529387,1000.0,1000.0,0.0,149000
150000,0,100.3856213405224,0.0006775856018066406,0.00014472007751464844,0.011482954025268555,149988.0,0.043249739557504656,19.310369033813476,0.0027877586614340542,19.3986531829834,-0.00021728099212244464,-19.398495038350422,-6.037726402282715,0.005759322472537558,287.3063614138205,1000.0,150.0,244.4772827122093,64.05537933483717,1000.0,1000.0,0.0,150000
151000,0,98.43149955176314,0.0006661415100097656,0.0001380443572998047,0.010648727416992188,150988.0,0.039287413954734805,19.50540832519531,0.002292740736156702,19.591081924438477,3.968975336950583e-05,-19.536023139953613,-5.993188261985779,0.005826044245623052,308.9103298597277,1000.0,151.0,334.1779150862708,15.928193958253674,1000.0,1000.0,0.0,151000
152000,0,98.75112658534219,0.0006189346313476562,0.00015163421630859375,0.010841608047485352,151988.0,0.04656930387020111,19.572379455566406,0.0029238890390843155,19.660027313232423,-0.001716228968386228,-19.580098311106365,-6.294698079427083,0.005824199489628275,263.3471436239685,1000.0,152.0,277.8695314264852,28.226404206195603,1000.0,1000.0,0.0,152000
153000,0,98.95428426368154,0.0006253719329833984,0.00019121170043945312,0.011601686477661133,152988.0,0.037231047749519346,19.736659088134765,0.0020858972519636155,19.822051544189453,-0.0014008414315564248,-19.797950108846027,-6.239318450291951,0.005853283063819011,315.2898753880034,1000.0,153.0,301.25666875868785,60.134618383218594,1000.0,1000.0,0.0,153000
154000,0,98.44896610258606,0.0006432533264160156,0.00017118453979492188,0.011117696762084961,153988.0,0.043772421181201934,19.83338920593262,0.002590869488194585,19.91710578918457,-0.0008511704145348631,-19.859264214833576,-6.144879301389058,0.005875732749700546,231.57865754568863,1000.0,154.0,297.7492236650505,56.99937390079931,1000.0,1000.0,0.0,154000
155000,0,97.93506026515735,0.0009751319885253906,0.0001747608184814453,0.013540983200073242,154988.0,0.042120269984006885,19.82988571166992,0.0025498460233211516,19.91191589355469,0.0002938766483566724,-19.890544255574543,-5.9502936999003095,0.005912000740257402,320.94877369711713,1000.0,155.0,311.29511604988073,46.98390564770087,1000.0,1000.0,0.0,155000
156000,0,67.13791054561845,0.0006551742553710938,0.00014781951904296875,0.010757684707641602,155988.0,0.045682510882616045,19.981769256591797,0.002806081287562847,20.062293395996093,-0.00047596561004562926,-20.08291006088257,-6.0802057186762495,0.005935022646250824,332.29241504488675,1000.0,156.0,223.89348143391786,106.82145857042653,1000.0,1000.0,0.0,156000
157000,0,97.7995985703733,0.0006496906280517578,0.00013899803161621094,0.010616064071655273,156988.0,0.04365413561463356,20.081025924682617,0.0025265920208767056,20.16512794494629,-0.0005141079855093267,-20.124353726704914,-6.08625853061676,0.005960556911304593,342.4129066771276,1000.0,157.0,270.37868310477717,84.3015279533237,1000.0,1000.0,0.0,157000
158000,0,97.7582948683645,0.0006704330444335938,0.00014400482177734375,0.010848522186279297,157988.0,0.04253859505057335,20.165144424438477,0.0025519233755767344,20.249152297973634,0.0005679048069093066,-20.199470678965252,-5.905319293340047,0.005996077631910642,311.14106362841585,1000.0,158.0,308.274611781083,86.55004908358849,1000.0,1000.0,0.0,158000
159000,0,99.5055922170156,0.0006434917449951172,0.00017786026000976562,0.011283636093139648,158988.0,0.0457411453127861,20.245747985839845,0.002697685733437538,20.32741828918457,-0.0006399727329456558,-20.299044926961262,-6.106200059254964,0.006028148306844135,341.7325972871442,1000.0,159.0,298.8069353022547,77.93591931648079,1000.0,1000.0,0.0,159000
160000,0,99.64307842011837,0.0009512901306152344,0.000164031982421875,0.013665914535522461,159988.0,0.04297756552696228,20.320241851806642,0.0024675273476168513,20.40525863647461,-0.0005755314790197493,-20.397804737091064,-6.094591458638509,0.006084255951767166,344.05256519488876,1000.0,160.0,338.8540980525718,27.981905460430294,1000.0,1000.0,0.0,160000
161000,0,70.60994218283047,0.0008111000061035156,0.0001838207244873047,0.010811328887939453,160988.0,0.040237327963113786,20.409945373535155,0.0024502219818532465,20.49545066833496,0.0003042509670194704,-20.432629585266113,-5.95048971970876,0.00614495975120614,343.0092843662256,1000.0,161.0,345.11425453584695,15.448864997772015,1000.0,1000.0,0.0,161000
162000,0,97.19008019338358,0.0007369518280029297,0.0001971721649169922,0.01139068603515625,161988.0,0.0465434043109417,20.5781649017334,0.002507629203610122,20.66202606201172,-0.00020406498515512794,-20.673324902852375,-6.032507260640462,0.006278030845957498,363.0342435260244,1000.0,162.0,306.76427246454233,111.7634762328666,1000.0,1000.0,0.0,162000
163000,0,99.96882457195755,0.0006690025329589844,0.00020575523376464844,0.011165857315063477,162988.0,0.041385257989168166,20.679170074462892,0.002302125678397715,20.767854080200195,1.7177347520676751e-06,-20.72136386235555,-5.99973996480306,0.0063798896347483,294.28007520482146,1000.0,163.0,327.8863755306211,32.60034930843238,1000.0,1000.0,0.0,163000
164000,0,97.45220680489595,0.0009801387786865234,0.0001919269561767578,0.013926506042480469,163988.0,0.0483832074701786,20.7586279296875,0.003281811149790883,20.848532180786133,-0.00015057731555619588,-20.769875208536785,-6.0232969125111895,0.00646347653431197,376.83319281897536,1000.0,164.0,332.32034150690515,19.85807404986228,1000.0,1000.0,0.0,164000
165000,0,98.26997402149506,0.0009753704071044922,0.00018906593322753906,0.018345117568969727,164988.0,0.04356388241052628,20.90761604309082,0.0024668363155797126,20.996006927490235,0.0009880424646932322,-20.99933656056722,-5.848085125287374,0.006502948507356147,308.12975447510416,1000.0,165.0,330.57189476391767,29.94244294788856,1000.0,1000.0,0.0,165000
166000,0,76.45869852445772,0.0006897449493408203,0.00016641616821289062,0.011205673217773438,165988.0,0.040086627453565594,20.98834243774414,0.002493532048538327,21.079504013061523,0.00039838036415555206,-21.01363706588745,-5.938682119051616,0.006496558741976817,343.12701081832535,1000.0,166.0,355.71375530363883,19.46779973044072,1000.0,1000.0,0.0,166000
167000,0,98.44009342916583,0.0006461143493652344,0.00013709068298339844,0.010668754577636719,166988.0,0.04026966780424118,21.140008163452148,0.002241101171821356,21.225805435180664,0.00018957392846156532,-21.16818030675252,-5.970881501833598,0.006507850329702099,298.6393385225111,1000.0,167.0,310.6473341996821,55.80251810490954,1000.0,1000.0,0.0,167000
168000,0,99.53364486957149,0.0006470680236816406,0.00013566017150878906,0.010738372802734375,167988.0,0.04277810037136078,21.29616180419922,0.0024891726579517126,21.383001708984374,-0.0006821906257149143,-21.269715627034504,-6.104804515838623,0.0065100694773718715,321.0607941884691,1000.0,168.0,335.0102428467691,32.42544017506465,1000.0,1000.0,0.0,168000
169000,0,98.92217082814072,0.0006318092346191406,0.00014472007751464844,0.011249780654907227,168988.0,0.04705523505806923,21.382079544067384,0.0028018738655373452,21.465123443603517,0.0001709718635538593,-21.476972262064617,-5.973828872044881,0.006531250391465922,349.6991334159526,1000.0,169.0,350.4605520274742,15.298001904114816,1000.0,1000.0,0.0,169000
170000,0,97.3534952338775,0.0009257793426513672,0.00018095970153808594,0.012753009796142578,169988.0,0.039944011718034744,21.531706237792967,0.002263832655735314,21.6220654296875,-0.00048628619939942536,-21.546305497487385,-6.074570536613464,0.006521545544577141,382.7219352860433,1000.0,170.0,335.5458940906536,21.55111180896373,1000.0,1000.0,0.0,170000
171000,0,99.28446511944992,0.0007691383361816406,0.00016641616821289062,0.011323213577270508,170988.0,0.04156024649739266,21.608664016723633,0.0025332034565508366,21.699089965820313,-0.000979594425492299,-21.68690824508667,-6.14985450108846,0.0065369575362031656,371.94147753175935,1000.0,171.0,343.13867460815675,21.69449368672133,1000.0,1000.0,0.0,171000
172000,0,91.61557622763401,0.0007326602935791016,0.00015497207641601562,0.011445760726928711,171988.0,0.04274337083101273,21.710960083007812,0.002499229870736599,21.798947372436523,-0.0007989836813067086,-21.78302303949992,-6.122105876604716,0.006544816230113308,332.69234832622385,1000.0,172.0,330.9824927717036,36.65611746284968,1000.0,1000.0,0.0,172000
173000,0,91.20447282677712,0.0006885528564453125,0.00018930435180664062,0.010944128036499023,172988.0,0.045825291723012924,21.914066619873047,0.002956868512555957,22.00673828125,-0.000680958580536147,-21.9436936378479,-6.103147824605306,0.006602981787485381,368.9095413481972,1000.0,173.0,354.83174663934307,13.992850599584942,1000.0,1000.0,0.0,173000
174000,0,91.7244878321874,0.0006489753723144531,0.00013494491577148438,0.010918378829956055,173988.0,0.046864770799875256,21.962144088745116,0.002943557775579393,22.048556518554687,0.0003863868247814632,-21.95864772796631,-5.941771149635315,0.006635906562830011,139.65691147226136,1000.0,174.0,351.238179211854,33.60724688621116,1000.0,1000.0,0.0,174000
175000,0,91.17655754097648,0.0007083415985107422,0.00015091896057128906,0.011169910430908203,174988.0,0.04413127452135086,21.999631118774413,0.0028974443208426236,22.08435501098633,0.000899744007862561,-22.012540817260742,-5.863494316736857,0.006590054991344611,331.53365453286233,1000.0,175.0,325.3704059473392,70.40339959350949,1000.0,1000.0,0.0,175000
176000,0,100.5741470760318,0.0007460117340087891,0.0001747608184814453,0.010958433151245117,175988.0,0.0444378425180912,22.111511306762694,0.002592640961520374,22.194082565307617,0.0007276456187052341,-22.147159099578857,-5.889163851737976,0.006563159132686754,306.332934966789,1000.0,176.0,340.1997212630241,52.03998381249921,1000.0,1000.0,0.0,176000
177000,0,92.54315940716657,0.0007021427154541016,0.0001647472381591797,0.01115727424621582,176988.0,0.05086414396762848,22.189458389282226,0.0034876489825546742,22.274252471923827,0.00016011672172074518,-22.284423828125,-5.975286563237508,0.00647757303280135,339.135800510628,1000.0,177.0,339.05790847167833,17.253236540535067,1000.0,1000.0,0.0,177000
178000,0,97.17729005758855,0.0007574558258056641,0.00015592575073242188,0.010829925537109375,177988.0,0.04055946946144104,22.221556777954103,0.002175455377437174,22.30462463378906,0.00021747471813190108,-22.216570536295574,-5.966195742289226,0.006433118872034053,343.74859775214577,1000.0,178.0,323.1695981640237,73.83144415381496,1000.0,1000.0,0.0,178000
179000,0,99.45462788549273,0.0010950565338134766,0.00020623207092285156,0.01670050621032715,178988.0,0.04034172058105469,22.413945617675783,0.0021678158128634094,22.496046752929686,0.0014855963527224958,-22.3782213528951,-5.768231193224589,0.0064093900145962834,340.37104714358344,1000.0,179.0,320.61722727823485,62.2980634606609,1000.0,1000.0,0.0,179000
180000,0,70.7931430484957,0.0012030601501464844,0.00021219253540039062,0.015018701553344727,179988.0,0.04378573268651962,22.40022247314453,0.0025091185979545117,22.47989242553711,-0.0004086092618914942,-22.45457061131795,-6.0637679894765215,0.006410175818018615,82.2468989202469,1000.0,180.0,376.89774451806596,16.393528559672703,1000.0,1000.0,0.0,180000
181000,0,95.52760944110605,0.0007245540618896484,0.0001785755157470703,0.011450767517089844,180988.0,0.04163253754377365,22.56362846374512,0.0023151395935565233,22.643119125366212,-0.0003170662554718244,-22.596401850382488,-6.049646496772766,0.006386982432256143,381.0036395859338,1000.0,181.0,250.05392612620443,85.22491801909698,1000.0,1000.0,0.0,181000
182000,0,95.01611577624398,0.0011379718780517578,0.00021076202392578125,0.017687082290649414,181988.0,0.043113429099321365,22.60347068786621,0.0024225098453462125,22.687357330322264,-0.0005989445295805732,-22.614383697509766,-6.092943827311198,0.006444519463305672,339.810700898379,1000.0,182.0,287.7446903065129,74.80848386515045,1000.0,1000.0,0.0,182000
183000,0,99.0148336794116,0.0007443428039550781,0.00020074844360351562,0.011518001556396484,182988.0,0.048178467005491256,22.742591400146484,0.0028303753957152366,22.827490310668946,-0.0012478150286672947,-22.79119046529134,-6.190201600392659,0.0065605551935732365,364.30115216052883,1000.0,183.0,349.58076076135615,43.95363758288569,1000.0,1000.0,0.0,183000
184000,0,99.94357433699847,0.0009686946868896484,0.00020933151245117188,0.017366647720336914,183988.0,0.04312585934996605,22.82751647949219,0.002397358468733728,22.911212463378906,0.00017715440602235807,-22.823128700256348,-5.973511417706807,0.006687848130241036,379.08162064486794,1000.0,184.0,312.3297664636176,88.88087582043447,1000.0,1000.0,0.0,184000
185000,0,71.77509499157722,0.0006971359252929688,0.0001900196075439453,0.011533737182617188,184988.0,0.04172834306955338,22.820235443115234,0.0023108189506456257,22.905662231445312,0.0008293258967266107,-22.853195508321125,-5.876442551612854,0.006711999381271501,202.61524508895693,1000.0,185.0,339.0362243357596,84.41560639377367,1000.0,1000.0,0.0,185000
186000,0,97.47829789291086,0.0006480216979980469,0.00015044212341308594,0.011308431625366211,185988.0,0.04275788381695747,22.883520355224608,0.0024102850211784243,22.960125503540038,0.0017278849772992544,-22.8869686126709,-5.739601016044617,0.006635497440584004,355.9498896729462,1000.0,186.0,270.28396525662805,100.88003154160268,1000.0,1000.0,0.0,186000
187000,0,98.87804887248532,0.0006358623504638672,0.0001773834228515625,0.010947942733764648,186988.0,0.04593435660004616,22.887104797363282,0.0024940362432971596,22.963327407836914,0.0011239677696721628,-22.937429745992024,-5.8276156187057495,0.006519563728943467,150.93796684007864,1000.0,187.0,285.4588972714374,62.597775736214786,1000.0,1000.0,0.0,187000
188000,0,97.923719356113,0.0006189346313476562,0.0001456737518310547,0.010843276977539062,187988.0,0.050909663438797,22.887744064331056,0.0030895997257903217,22.96869918823242,0.0003442881497903727,-22.87190850575765,-5.946581125259399,0.006445514736697078,255.89876308553687,1000.0,188.0,347.2571600448564,80.73761183776507,1000.0,1000.0,0.0,188000
189000,0,87.23289202873111,0.0009768009185791016,0.0002079010009765625,0.01571488380432129,188988.0,0.04508586466312409,23.060544815063476,0.0026578255090862514,23.139111404418944,-2.68846852122806e-05,-23.11167319615682,-6.004193425178528,0.0064121327207734185,375.42880002525555,1000.0,189.0,339.17370980712616,48.90995554114375,1000.0,1000.0,0.0,189000
190000,0,75.32164717257213,0.0005958080291748047,0.00013589859008789062,0.010625123977661133,189988.0,0.04666634991765022,23.12509979248047,0.0024851359706372024,23.203118438720704,-0.0006240237489691935,-23.14503765106201,-6.097014864285787,0.006432537843162815,342.1195718383406,1000.0,190.0,305.1134103410196,77.82032418204265,1000.0,1000.0,0.0,190000
191000,0,99.3841190286179,0.0007314682006835938,0.00015592575073242188,0.011269569396972656,190988.0,0.04624701723456383,23.303954086303712,0.0025078431982547044,23.383251037597656,-0.0006336528094834648,-23.37968635559082,-6.097642461458842,0.006488997062357764,402.3098556362869,1000.0,191.0,191.77986946918114,122.04411260344409,1000.0,1000.0,0.0,191000
192000,0,98.38606012327156,0.0006239414215087891,0.00018787384033203125,0.013782262802124023,191988.0,0.04480584591627121,23.357171936035158,0.002529530031606555,23.43258460998535,-0.0012034039997767347,-23.4803360303243,-6.18509840965271,0.006502514549841483,401.5395486178263,1000.0,192.0,352.08532933263416,93.8228713326473,1000.0,1000.0,0.0,192000
193000,0,95.93304477740298,0.0006556510925292969,0.0001442432403564453,0.011055469512939453,192988.0,0.05176220089197159,23.329971389770506,0.003026191145181656,23.407590866088867,0.0002942608407465741,-23.39996401468913,-5.954860250155131,0.006516769256753226,255.95867554021666,1000.0,193.0,289.4074503800094,83.99641151772032,1000.0,1000.0,0.0,193000
194000,0,95.30871513894431,0.0009529590606689453,0.0001819133758544922,0.013675689697265625,193988.0,0.044021911323070526,23.503298034667967,0.002402875781990588,23.585498123168946,-0.00025029493796561536,-23.523976643880207,-6.038315773010254,0.006533326464705169,174.05427037142854,1000.0,194.0,286.60243653582387,111.89249253195902,1000.0,1000.0,0.0,194000
195000,0,82.6614343182877,0.0006864070892333984,0.00014781951904296875,0.010780811309814453,194988.0,0.04670567899942398,23.336572341918945,0.00247539633885026,23.413170471191407,-0.00042896047913624596,-23.393131256103516,-6.06496783097585,0.006605438965683182,127.74643708033032,1000.0,195.0,279.6757191932971,69.07407957040317,1000.0,1000.0,0.0,195000
196000,0,90.50605487799615,0.0007340908050537109,0.00016164779663085938,0.01084136962890625,195988.0,0.050030246675014496,23.490373764038086,0.0029100754763931036,23.573100204467774,-0.00011049922250094824,-23.474589506785076,-6.016648372014363,0.006638083102491994,287.92068822277616,1000.0,196.0,255.5097053719374,87.1327255752725,1000.0,1000.0,0.0,196000
197000,0,98.97053562917007,0.0006709098815917969,0.0001513957977294922,0.010949850082397461,196988.0,0.05029654085636139,23.56343948364258,0.0026331454468891025,23.644739151000977,-0.0003744420755538158,-23.585153738657635,-6.056570529937744,0.006619046869066854,369.45897484038454,1000.0,197.0,396.2931345195761,30.1264368641203,1000.0,1000.0,0.0,197000
198000,0,100.38658239336434,0.0008070468902587891,0.00022411346435546875,0.012235164642333984,197988.0,0.04632216289639473,23.488859176635742,0.0024317914061248304,23.568227005004882,0.0005207302723041115,-23.576419671376545,-5.921172181765239,0.006605742188791434,378.9119202902065,1000.0,198.0,329.8439273738867,101.6454440988589,1000.0,1000.0,0.0,198000
199000,0,98.74777868916527,0.0007281303405761719,0.00014829635620117188,0.010858535766601562,198988.0,0.051402264535427095,23.707721633911135,0.0024752610083669424,23.78663803100586,-0.0005165973149511652,-23.796297709147137,-6.078119198481242,0.006613305148979028,407.00052436327246,1000.0,199.0,407.5067366074573,46.904999733360754,1000.0,1000.0,0.0,199000
200000,0,77.0238128468024,0.0006563663482666016,0.0001366138458251953,0.01056051254272461,199988.0,0.05206604078412056,23.848862380981444,0.002789275567047298,23.923451385498048,-9.116365981753916e-05,-23.768698851267498,-6.013688921928406,0.006661082113472124,336.8924524889382,1000.0,200.0,386.12577425211373,84.89776944566802,1000.0,1000.0,0.0,200000
