niicovila/Q-Reps/algos/exact_xql/results/XSAC_TEST/sac_1/log.csv
time/steps,time/epochs,time/steps_per_second,time/dataset,time/preprocess,time/train_step,train/env_steps,train/q_loss,train/target_q,train/value_loss,train/target_v,train/alpha_loss,train/actor_loss,train/entropy,train/alpha,train/reward,train/length,train/num_ep,eval/reward,eval/stddev,eval/length,eval/discount,eval/early_termination,step
1000,0,66.25670733402586,0.0006151199340820312,0.00016427040100097656,0.0171658992767334,988.0,0.00010424330233945512,0.024387935027480125,0.0001135057001374662,0.02222783297300339,0.9699452469746271,-0.40712367991606396,3.9439008434613547,0.09753186566134293,2.7295176504029244,1000.0,1.0,0.086961107626087,0.054127074967184115,1000.0,1000.0,0.0,1000
2000,0,68.09209201928908,0.000644683837890625,0.00019288063049316406,0.018651485443115234,1988.0,4.672220689826645e-05,0.020794660225510596,2.7997747529298068e-05,0.01458431627601385,0.934291144212087,-0.3935834417740504,4.068397561709086,0.09278531310458978,3.1636745247609523,1000.0,2.0,0.14679804758391227,0.10093017614015502,1000.0,1000.0,0.0,2000
3000,0,67.06581311324635,0.0004353523254394531,0.0001316070556640625,0.017152786254882812,2988.0,4.555336774501484e-05,0.014887141585350037,1.5373516362160444e-05,0.00949372312054038,0.8911034216483434,-0.37077496697505313,4.079783956209819,0.08839654984573524,2.5653205543614863,1000.0,3.0,0.154617485597914,0.057985372980398624,1000.0,1000.0,0.0,3000
4000,0,65.80188072430163,0.0005283355712890625,0.00014853477478027344,0.016860485076904297,3988.0,3.740874599316158e-05,0.011413212753832341,1.9399896264076233e-05,0.006852862583473325,0.8497340778509775,-0.3504058967034022,4.079867442448934,0.08429216779768467,3.487211930455036,1000.0,4.0,0.21751966330640418,0.18992294597180437,1000.0,1000.0,0.0,4000
5000,0,65.25503628439799,0.0005161762237548828,0.00013971328735351562,0.017319679260253906,4988.0,3.387832082808018e-05,0.00982498176395893,2.2768659982830285e-05,0.006052658464759588,0.8107298711935679,-0.33482222259044647,4.078970551490784,0.08043027731279533,4.107987775553979,1000.0,5.0,0.22222714040087715,0.07700514989295983,1000.0,1000.0,0.0,5000
6000,0,63.77962861475334,0.0004634857177734375,0.0001323223114013672,0.01732015609741211,5988.0,2.718082814681111e-05,0.008725851736962796,2.2788471542298795e-05,0.0046903066476807,0.7740579893191656,-0.31747983396053314,4.080394466718038,0.07678135794897874,3.4898381709465345,1000.0,6.0,0.3315882236968801,0.13880666584994567,1000.0,1000.0,0.0,6000
7000,0,63.31109001900705,0.0004715919494628906,0.00013399124145507812,0.017514705657958984,6988.0,3.685966999910306e-05,0.008421677500009536,2.5132999289780856e-05,0.00437224872293882,0.7393754223982493,-0.30389797935883206,4.082986831665039,0.07332225081821282,5.50920935577422,1000.0,7.0,0.5837704950017641,0.4227187501530734,1000.0,1000.0,0.0,7000
8000,0,63.66110099919739,0.0006730556488037109,0.00016045570373535156,0.018374919891357422,7988.0,5.3512086888076736e-05,0.005199363809078932,2.9261496383696794e-05,0.0008410407381597906,0.7057566593090693,-0.2864375164111455,4.076034665107727,0.07003668323159218,2.9868552430299324,1000.0,8.0,0.6585355912631734,0.15168972135284356,1000.0,1000.0,0.0,8000
9000,0,62.77924561400358,0.0005297660827636719,0.00013947486877441406,0.018460512161254883,8988.0,7.06890135188587e-05,0.005494702239520848,3.514444455504417e-05,0.0010993888811208308,0.6747497121493021,-0.2730298539002736,4.083715081214905,0.06690869356195132,5.9215643639314095,1000.0,9.0,2.8176706429917773,1.3446879044912599,1000.0,1000.0,0.0,9000
10000,0,63.229925576806885,0.0005171298980712891,0.00013875961303710938,0.0175931453704834,9988.0,6.61799352383241e-05,0.008400047104805708,3.9454700890928505e-05,0.004275652077049017,0.6444402486085892,-0.26507944116989773,4.0795096556345625,0.0639298614114523,9.378649687528295,1000.0,10.0,6.749201550583676,1.0395379488106027,1000.0,1000.0,0.0,10000
11000,0,62.6507377433627,0.0006458759307861328,0.00014328956604003906,0.018157958984375,10988.0,8.168164058588445e-05,0.012285588793456554,4.75175422616303e-05,0.008152924282476305,0.6149109055598577,-0.2570757468541463,4.0646818081537885,0.06109036194781462,7.184391848047405,1000.0,11.0,13.907585889330605,0.2577832729212172,1000.0,1000.0,0.0,11000
12000,0,63.517147175251615,0.0005927085876464844,0.0001468658447265625,0.017726659774780273,11988.0,9.540221173665487e-05,0.011559966690838338,5.424279253929853e-05,0.007736820275895297,0.5876242170731226,-0.24419984966516495,4.064632296562195,0.05837977956980467,5.358460978131195,1000.0,12.0,22.399720853706054,0.7573364145428614,1000.0,1000.0,0.0,12000
13000,0,63.48653559377859,0.0007541179656982422,0.0001666545867919922,0.01871800422668457,12988.0,0.00010536575893638656,0.018400721810758115,6.345842499285936e-05,0.014445331823080778,0.5613353798786799,-0.23987702031930289,4.059925278027852,0.0557941027606527,10.976702529256183,1000.0,13.0,24.236412357464975,0.36382727656549996,1000.0,1000.0,0.0,13000
14000,0,63.0428143014148,0.0005862712860107422,0.00013947486877441406,0.01770305633544922,13988.0,0.00014367210707860067,0.02231110252439976,7.325849030166865e-05,0.01882849305868149,0.5356651544570923,-0.23387532805403075,4.044636170069377,0.05332365849365791,7.830627068109241,1000.0,14.0,29.697493376553382,0.4743515766592861,1000.0,1000.0,0.0,14000
15000,0,61.44459634382807,0.0006170272827148438,0.0001442432403564453,0.017481327056884766,14988.0,0.00020447986491490156,0.034806030616164205,8.998355362564325e-05,0.031804806888103485,0.5112832635641098,-0.23749805490175882,4.030887087186177,0.05096627213060856,13.764241723261183,1000.0,15.0,31.054923439513097,0.3165664895137553,1000.0,1000.0,0.0,15000
16000,0,59.01326393703907,0.0005977153778076172,0.00015735626220703125,0.01726555824279785,15988.0,0.00032518651161808523,0.0507218000292778,0.00011650864267721772,0.04829603627324104,0.4869210322697957,-0.24278909961382547,3.994398534297943,0.04871501183758179,20.51941306251914,1000.0,16.0,36.8019105603067,0.7131732678338434,1000.0,1000.0,0.0,16000
17000,0,63.07869075334019,0.00060272216796875,0.0001876354217529297,0.017776966094970703,16988.0,0.00031026539916638283,0.0756049308180809,0.0001389328227378428,0.07478716433048248,0.4636175160606702,-0.26035307844479877,3.9548944234848022,0.04656761698424816,22.753558492618776,1000.0,17.0,33.35596808496192,1.0830143338284273,1000.0,1000.0,0.0,17000
18000,0,62.60379476279747,0.0005762577056884766,0.00014472007751464844,0.01786041259765625,17988.0,0.0004854205227456987,0.11160212874412537,0.000175669533200562,0.11248325854539871,0.440960427125295,-0.2885020673274994,3.9040935039520264,0.04451903669784466,31.869205835862196,1000.0,18.0,29.358391760463462,0.7527098512666348,1000.0,1000.0,0.0,18000
19000,0,63.129769383829476,0.0007143020629882812,0.00014138221740722656,0.017992258071899414,18988.0,0.0008234215853735804,0.17414968550205231,0.0002312146662734449,0.17698705434799195,0.4182974100112915,-0.3366414854923884,3.8258827328681946,0.04256716494758924,55.9722481891507,1000.0,19.0,29.094048051750168,1.1802055065878707,1000.0,1000.0,0.0,19000
20000,0,63.530269964386854,0.0006527900695800781,0.00014352798461914062,0.018056154251098633,19988.0,0.001221013020258397,0.2649834078550339,0.0003029323345981538,0.27305278420448303,0.3942610298593839,-0.4232599089543025,3.6838170091311135,0.04070979574074348,68.53397003348363,1000.0,20.0,64.92884994620684,5.0094148492408,1000.0,1000.0,0.0,20000
21000,0,62.51962353810976,0.0005972385406494141,0.00014972686767578125,0.017715930938720703,20988.0,0.0015303505817428232,0.3833394587039948,0.0003842672402970493,0.4015522730350494,0.3697026049097379,-0.5372538417577744,3.49164080619812,0.03894692348937193,84.63489801956584,1000.0,21.0,76.53576101469073,28.988373142346525,1000.0,1000.0,0.0,21000
22000,0,64.46693672984193,0.0008080005645751953,0.00018286705017089844,0.018144607543945312,21988.0,0.0027625924907624722,0.5750671029090881,0.0005594609933905303,0.6087675809860229,0.34143846730391186,-0.7268885125716528,3.157049298286438,0.03728372510522604,109.71002514460179,1000.0,22.0,71.4747170175721,42.54309686043847,1000.0,1000.0,0.0,22000
23000,0,63.460101105160625,0.0005869865417480469,0.00016808509826660156,0.016987323760986328,22988.0,0.0028793488536030054,0.7572616314888001,0.0006315938988700509,0.815235493183136,0.3115289807319641,-0.9101724723974863,2.720179041226705,0.03572209241489569,58.07074858139177,1000.0,23.0,148.2114188403491,18.757318264631525,1000.0,1000.0,0.0,23000
24000,0,64.20306413473278,0.0006570816040039062,0.0001456737518310547,0.017766475677490234,23988.0,0.003911935752257705,1.0243558979034424,0.0008332521258853376,1.1349333572387694,0.26905887573957443,-1.1984391510486603,1.8478071888287861,0.03428184116880099,60.77436882940449,1000.0,24.0,54.54770109521847,24.346185605192428,1000.0,1000.0,0.0,24000
25000,0,58.25480477026993,0.0009329319000244141,0.000209808349609375,0.018641948699951172,24988.0,0.005092903599143028,1.3099447441101075,0.0007956485426984728,1.4303611993789673,0.24961934983730316,-1.47463063398997,1.5765042702356975,0.03294377774000168,32.17492149426755,1000.0,25.0,35.74937288660559,14.230842345365813,1000.0,1000.0,0.0,25000
26000,0,62.94631011882394,0.0005803108215332031,0.00015115737915039062,0.017180919647216797,25988.0,0.006222508046776056,1.6452889490127562,0.0007544764620251954,1.748347101211548,0.24530510231852531,-1.8027447362740834,1.7590758899847667,0.03161260889222225,55.43761817126193,1000.0,26.0,52.843792253976915,14.285835091961653,1000.0,1000.0,0.0,26000
27000,0,62.79732994445968,0.0009891986846923828,0.00017309188842773438,0.019170761108398438,26988.0,0.005121860522776842,1.8951059675216675,0.0007005707453936338,1.972577633857727,0.2354535274207592,-2.0388684272766113,1.7799898783365886,0.030261305005600054,46.46809578470698,1000.0,27.0,47.49785706270193,20.424605005977142,1000.0,1000.0,0.0,27000
28000,0,63.94274657639918,0.0005919933319091797,0.0001418590545654297,0.01799798011779785,27988.0,0.006164594348520041,2.1318016910552977,0.0008576168166473508,2.254972457885742,0.205888153364261,-2.2775624791781106,1.1003318578004837,0.028994578092048567,43.3600129710433,1000.0,28.0,38.94553736209316,24.29198899977522,1000.0,1000.0,0.0,28000
29000,0,63.32221576062374,0.0006608963012695312,0.0001423358917236328,0.017458677291870117,28988.0,0.011320837996900082,2.510878534317017,0.0009098016051575542,2.668008985519409,0.18685403714577356,-2.686851521333059,0.707739586631457,0.02785426750779152,66.80088819006218,1000.0,29.0,37.453306648564386,2.059444825139333,1000.0,1000.0,0.0,29000
30000,0,57.0143191537372,0.0006673336029052734,0.00013494491577148438,0.017597198486328125,29988.0,0.011575467735528946,2.898234920501709,0.0009419928514398635,3.0177006912231445,0.18757074077924094,-3.059744954109192,1.0222964187463124,0.0267084000321726,48.9122588990453,1000.0,30.0,43.81307986144959,2.4037190348699373,1000.0,1000.0,0.0,30000
31000,0,63.33089731897494,0.0005917549133300781,0.00013256072998046875,0.018377304077148438,30988.0,0.011221698075532914,3.264747476577759,0.0010566158569417893,3.4080563735961915,0.16930989672740301,-3.413178245226542,0.6175407022237778,0.025582919518152874,37.72574199793276,1000.0,31.0,35.40670895253098,2.598273353201934,1000.0,1000.0,0.0,31000
32000,0,63.2746051582716,0.0005936622619628906,0.0001399517059326172,0.01763463020324707,31988.0,0.011674306765198707,3.6390675926208496,0.0011183331487700343,3.7740038585662843,0.16057470192511877,-3.7789980371793113,0.5467911139130592,0.02452510253836711,51.04953353259795,1000.0,32.0,58.87945799975229,3.4689430553892904,1000.0,1000.0,0.0,32000
33000,0,63.86279477684662,0.0006673336029052734,0.00014066696166992188,0.017517566680908203,32988.0,0.011299504451453685,3.978268461227417,0.0011041726847179235,4.116239023208618,0.1495391751329104,-4.12964125474294,0.3637601012984912,0.023496611043810844,59.182833132344506,1000.0,33.0,43.76622489380891,3.9433185355442486,1000.0,1000.0,0.0,33000
34000,0,62.742319783729705,0.0006396770477294922,0.00013971328735351562,0.017835140228271484,33988.0,0.01213942151516676,4.301982822418213,0.0010584843112155795,4.428498992919922,0.14275541280706724,-4.4479053020477295,0.34110960736870766,0.02251073702548941,74.74647366630563,1000.0,34.0,86.36201224120313,4.117943535362481,1000.0,1000.0,0.0,34000
35000,0,61.96023605227564,0.0005774497985839844,0.00017142295837402344,0.0179595947265625,34988.0,0.013873648531734943,4.661993999481201,0.001145889419130981,4.796119003295899,0.1313429648677508,-4.790099183718364,0.09254177380353212,0.021556172364701826,100.51632974639963,1000.0,35.0,124.9173787749808,6.441978429211051,1000.0,1000.0,0.0,35000
36000,0,63.32776097480843,0.0009050369262695312,0.00016689300537109375,0.01813220977783203,35988.0,0.0162658704072237,5.011489677429199,0.0013262466480955483,5.157452545166016,0.11907648916045825,-5.1639472643534345,-0.237604937205712,0.02066268042350809,100.81091288464431,1000.0,36.0,94.267161595668,2.916368122973488,1000.0,1000.0,0.0,36000
37000,0,63.24140422531728,0.0006814002990722656,0.00015592575073242188,0.017493247985839844,36988.0,0.017123513855040073,5.397291774749756,0.0014221440209075808,5.553294200897216,0.11005170394976933,-5.547461311022441,-0.4486706418295701,0.019822831110407908,95.35109895044523,1000.0,37.0,60.71999461400721,31.979700452925126,1000.0,1000.0,0.0,37000
38000,0,62.76928676271637,0.0006487369537353516,0.00014519691467285156,0.018233776092529297,37988.0,0.01883616030216217,5.753375778198242,0.0015102995280176401,5.909942607879639,0.10582314555843671,-5.909799814224243,-0.43160392592350644,0.019002535690863926,87.47077658103488,1000.0,38.0,36.62850250826084,12.631362621480271,1000.0,1000.0,0.0,38000
39000,0,59.22217578420631,0.0006506443023681641,0.00016641616821289062,0.01748490333557129,38988.0,0.01743847392499447,6.115231990814209,0.0015376247372478247,6.283489570617676,0.09631518398722012,-6.272162715593974,-0.7115715195735296,0.018210950152327616,26.471585446715306,1000.0,39.0,29.34034892357146,21.073979684263453,1000.0,1000.0,0.0,39000
40000,0,63.38046983374788,0.0005834102630615234,0.00013303756713867188,0.017755985260009766,39988.0,0.020222224816679953,6.541005077362061,0.0016469457000494003,6.714002552032471,0.08872574319442113,-6.695972879727681,-0.9214309006929398,0.017469243767360847,94.5331893591276,1000.0,40.0,53.447398150406045,27.147128157181523,1000.0,1000.0,0.0,40000
41000,0,62.86984696483861,0.0005953311920166016,0.00017023086547851562,0.018046140670776367,40988.0,0.0198628843575716,6.906502132415771,0.0015955142537131906,7.073133277893066,0.08287468925118446,-7.0673372348149615,-1.0536206165949504,0.01675324359287818,67.86769668843,1000.0,41.0,65.19846180705574,37.84254510611656,1000.0,1000.0,0.0,41000
42000,0,61.87508334975742,0.000659942626953125,0.0001442432403564453,0.017724275588989258,41988.0,0.019059103578329087,7.187638626098633,0.0015303996112197638,7.333973827362061,0.0812385684500138,-7.298340519269307,-0.9392321854829788,0.016051298783471186,33.36929678954827,1000.0,42.0,34.471129420727415,21.457554505076402,1000.0,1000.0,0.0,42000
43000,0,62.78495928703969,0.0006299018859863281,0.00013637542724609375,0.017828941345214844,42988.0,0.019252158999443054,7.508529872894287,0.0015490324283018708,7.648287220001221,0.07390291802585125,-7.630266825358073,-1.1918573478857677,0.0153691116720438,123.45459174142478,1000.0,43.0,75.28020013491684,34.337395368369336,1000.0,1000.0,0.0,43000
44000,0,63.08320664464379,0.0006256103515625,0.00013780593872070312,0.017474651336669922,43988.0,0.025579398274421693,7.882313709259034,0.0020368395699188113,8.025714530944825,0.06491501939793427,-7.993833780288696,-1.598686973253886,0.014747752187152704,84.16443319634216,1000.0,44.0,90.4330465381179,57.182959109217116,1000.0,1000.0,0.0,44000
45000,0,63.41335678177408,0.0006203651428222656,0.0001513957977294922,0.018205642700195312,44988.0,0.027960110008716583,8.347582244873047,0.00203906562179327,8.59531925201416,0.04114596483608087,-8.535712401072184,-3.1088011264801025,0.014230686783169707,153.16531831238848,1000.0,45.0,129.70321742589235,55.41857467079907,1000.0,1000.0,0.0,45000
46000,0,62.897112341036596,0.0005853176116943359,0.00013875961303710938,0.01797795295715332,45988.0,0.024764174669981,8.878679618835449,0.0017802953021600842,9.084776000976563,0.04569680026421944,-9.050244331359863,-2.687181830406189,0.013792957877740264,39.37758490088576,1000.0,46.0,181.1985822638747,19.00511593281843,1000.0,1000.0,0.0,46000
47000,0,63.57568353306029,0.0005991458892822266,0.0001327991485595703,0.017532825469970703,46988.0,0.027075664773583412,9.246311264038086,0.0017856896948069334,9.382542610168457,0.05502681682507197,-9.373532772064209,-1.832002768913905,0.013200977661957344,130.65946581846185,1000.0,47.0,101.75309683375627,87.99930116512978,1000.0,1000.0,0.0,47000
48000,0,62.39570229797099,0.0006458759307861328,0.00014066696166992188,0.01863861083984375,47988.0,0.028208371624350546,9.564326400756835,0.001793765164911747,9.70955451965332,0.04582792427390814,-9.681769768397013,-2.3675175110499063,0.012615102188040813,189.82887991711155,1000.0,48.0,119.98690908428296,41.515080826231234,1000.0,1000.0,0.0,48000
49000,0,64.02090526386485,0.0006139278411865234,0.0001392364501953125,0.01753973960876465,48988.0,0.026646394059062006,9.895990715026855,0.0019241896085441113,10.076816825866699,0.03488178815071782,-10.04260516166687,-3.1298429568608603,0.012152679885427157,53.088419584982006,1000.0,49.0,92.44449002891561,35.49867094204779,1000.0,1000.0,0.0,49000
50000,0,63.845180114383275,0.0008447170257568359,0.00015616416931152344,0.018317699432373047,49988.0,0.02643971227109432,10.334200782775879,0.0018652097042649984,10.515098686218261,0.03247910784557462,-10.47321883837382,-3.2290461460749307,0.01172031625173986,169.6658465549961,1000.0,50.0,63.30314665055306,55.71162738590057,1000.0,1000.0,0.0,50000
51000,0,62.57622287814246,0.0006282329559326172,0.000171661376953125,0.018136024475097656,50988.0,0.028425000086426736,10.666203346252441,0.001978150764480233,10.82246078491211,0.033323249158759914,-10.786279916763306,-3.041781008243561,0.01126365076440076,142.6392844408662,1000.0,51.0,106.65273218716212,63.211485051668525,1000.0,1000.0,0.0,51000
52000,0,63.02455044543738,0.0006115436553955078,0.00014019012451171875,0.017770051956176758,51988.0,0.02813069589436054,10.968126945495605,0.0019257191149517894,11.13950023651123,0.026468540852268536,-11.09846043586731,-3.555287698904673,0.01082607366455098,78.98295337522018,1000.0,52.0,102.33877386831192,44.071965078578565,1000.0,1000.0,0.0,52000
53000,0,59.752346327648205,0.0005738735198974609,0.00014066696166992188,0.017880678176879883,52988.0,0.0291753551363945,11.276119575500488,0.0021888900315389036,11.47207950592041,0.021061951915423077,-11.437373956044516,-3.985856076081594,0.010456221799055735,60.31609331820084,1000.0,53.0,90.58168525396198,44.87249319280859,1000.0,1000.0,0.0,53000
54000,0,63.37208107654019,0.0005841255187988281,0.00013685226440429688,0.01797342300415039,53988.0,0.030092711225152016,11.6254541015625,0.0022409229585900903,11.815445518493652,0.020035268583645422,-11.79906153678894,-4.017907500267029,0.010107391203443209,71.76655118450505,1000.0,54.0,115.31021473977732,57.63323497708999,1000.0,1000.0,0.0,54000
55000,0,62.8968482475335,0.0005860328674316406,0.00013399124145507812,0.016991376876831055,54988.0,0.032425491884350774,11.959489669799805,0.0025208279164507987,12.153547630310058,0.016548072764029104,-12.109616676966349,-4.3058739105860395,0.00976716362250348,31.897509004551942,1000.0,55.0,128.07222181748725,48.94552225519232,1000.0,1000.0,0.0,55000
56000,0,62.513697168278135,0.0005908012390136719,0.0001761913299560547,0.017078161239624023,55988.0,0.03616369344294071,12.380276870727538,0.002577287335880101,12.560443572998047,0.020089132400850456,-12.494697650273642,-3.8639171719551086,0.009403857868164778,200.7768925224428,1000.0,56.0,78.59607141466834,55.821265629108424,1000.0,1000.0,0.0,56000
57000,0,63.344364179833,0.0006482601165771484,0.00014352798461914062,0.017388343811035156,56988.0,0.036448011249303816,12.660308570861817,0.002322368361055851,12.819477424621581,0.019089027618368466,-12.784881035486857,-3.8775166869163513,0.008992892301951846,125.93143497486216,1000.0,57.0,126.55381498485835,49.95880466609127,1000.0,1000.0,0.0,57000
58000,0,57.66659957257765,0.0005998611450195312,0.00014448165893554688,0.01768016815185547,57988.0,0.03698414698243141,12.996523132324219,0.0024199537560343743,13.169925880432128,0.013713613850995898,-13.105153242746988,-4.40727972984314,0.008609577237317959,166.18359686060955,1000.0,58.0,100.39446712536107,46.750612837057304,1000.0,1000.0,0.0,58000
59000,0,63.4214112343023,0.0006437301635742188,0.00013446807861328125,0.017553329467773438,58988.0,0.033205061629414556,13.251530952453614,0.0022394322603940964,13.458416748046876,0.005097257730085403,-13.394504070281982,-5.391507148742676,0.008376698785771927,66.87746496715197,1000.0,59.0,103.59212133137437,40.637175850581606,1000.0,1000.0,0.0,59000
60000,0,62.86600229982361,0.0006473064422607422,0.00013899803161621094,0.017792224884033203,59988.0,0.03066233515739441,13.590769424438477,0.0022964859288185837,13.783522033691407,0.00669259118149057,-13.734241882960001,-5.186050812403361,0.008221698071186742,42.74308024554845,1000.0,60.0,89.13079892148816,24.765542065808386,1000.0,1000.0,0.0,60000
61000,0,62.21574036111588,0.0006146430969238281,0.00013780593872070312,0.0170896053314209,60988.0,0.028446575477719307,13.882817420959473,0.002192463711835444,14.048329277038574,0.010037334480633339,-14.001570701599121,-4.732638875643413,0.007919336669147015,41.09434419777001,1000.0,61.0,110.45322986261274,56.60883737926851,1000.0,1000.0,0.0,61000
62000,0,62.77214256295317,0.000598907470703125,0.0001399517059326172,0.017387866973876953,61988.0,0.03185686700046062,14.093726501464843,0.002342723971232772,14.24934700012207,0.010694682287673155,-14.212661902109781,-4.589005629221599,0.0075789825059473515,84.82736697874974,1000.0,62.0,92.08381991573198,48.292604104161875,1000.0,1000.0,0.0,62000
63000,0,61.89367337265673,0.000667572021484375,0.0001418590545654297,0.01779460906982422,62988.0,0.030747908130288125,14.35279411315918,0.0023013001680374148,14.50209716796875,0.010041704944645366,-14.461763381958008,-4.6143410205841064,0.00724626996088773,181.84233426302475,1000.0,63.0,96.21806124423884,32.98647205008115,1000.0,1000.0,0.0,63000
64000,0,62.68553213977412,0.0009326934814453125,0.00017309188842773438,0.018191814422607422,63988.0,0.029620600044727326,14.492490234375,0.0021819163765758277,14.640924758911133,0.00554850420060878,-14.613768974939982,-5.205087860425313,0.0069794296675051255,33.16621323851372,1000.0,64.0,50.257186866051946,17.778526032364066,1000.0,1000.0,0.0,64000
65000,0,63.55699409632566,0.0005865097045898438,0.000194549560546875,0.017261266708374023,64988.0,0.033928041979670524,14.682261848449707,0.00258189438842237,14.838002662658692,0.003754648147150874,-14.823620955149332,-5.4478219747543335,0.006799482818072041,39.03885931382375,1000.0,65.0,80.2023997004572,38.80699621840802,1000.0,1000.0,0.0,65000
66000,0,63.30684720941788,0.0006470680236816406,0.00013971328735351562,0.0174407958984375,65988.0,0.030856001898646356,14.795525894165038,0.0022342544700950386,14.92740421295166,0.0059190778993070126,-14.88801614443461,-5.1045459906260175,0.006609765618729095,34.04839735701148,1000.0,66.0,64.91057352247319,26.546734486013563,1000.0,1000.0,0.0,66000
67000,0,60.52854881705136,0.0008206367492675781,0.0001709461212158203,0.017542600631713867,66988.0,0.031229260489344598,14.917536125183105,0.0023930935095995663,15.040258407592773,0.005908639364254971,-15.015390555063883,-5.066492756207784,0.006329163520907362,45.06605341166861,1000.0,67.0,112.5617906886542,60.316794312847406,1000.0,1000.0,0.0,67000
68000,0,63.612902443019465,0.0005855560302734375,0.0001659393310546875,0.017797231674194336,67988.0,0.031838392987847325,15.089945335388183,0.002358267940580845,15.22183235168457,0.002905554303045695,-15.192678531010946,-5.526270071665446,0.006132844602689147,207.65713313824708,1000.0,68.0,138.72330284896856,58.23149407988559,1000.0,1000.0,0.0,68000
69000,0,63.16201614686017,0.0008556842803955078,0.00018405914306640625,0.018126249313354492,68988.0,0.034167462289333345,15.215566368103028,0.0024237405229359864,15.35971652984619,1.0652568259198839e-05,-15.300459702809652,-5.998237729072571,0.006031686595330636,154.68502160809246,1000.0,69.0,109.8274049346001,44.464292968154275,1000.0,1000.0,0.0,69000
70000,0,63.400665583159196,0.0006570816040039062,0.00018930435180664062,0.018103599548339844,69988.0,0.032729658484458926,15.401555709838867,0.002628968870267272,15.565828170776367,2.094683926164483e-05,-15.564001639684042,-5.99651575088501,0.006011856681046386,41.77824165951782,1000.0,70.0,84.3457027907381,34.96659183514557,1000.0,1000.0,0.0,70000
71000,0,62.875124721774505,0.000583648681640625,0.00013446807861328125,0.01833486557006836,70988.0,0.03297011375427246,15.586616630554198,0.002396465903148055,15.762849922180175,-0.00047875156815280207,-15.693483670552572,-6.079086701075236,0.006053846562281251,60.11966540362307,1000.0,71.0,106.68666768510755,35.73722683676806,1000.0,1000.0,0.0,71000
72000,0,59.63073140022827,0.0006499290466308594,0.00014662742614746094,0.017710447311401367,71988.0,0.035769048556685445,15.764970588684083,0.0025653391890227794,15.908537864685059,0.0022190890352552137,-15.887296835581461,-5.624072154362996,0.005902549213108917,131.92228243417438,1000.0,72.0,175.6956908645239,42.11671835157211,1000.0,1000.0,0.0,72000
73000,0,63.27197070813612,0.0006427764892578125,0.0001437664031982422,0.017362594604492188,72988.0,0.03556332431733608,15.990439071655274,0.0022784844320267437,16.145731887817384,0.0009268840027895445,-16.12750482559204,-5.840292612711589,0.005803733520830671,176.79989274186988,1000.0,73.0,173.19585830342828,48.568836015943475,1000.0,1000.0,0.0,73000
74000,0,63.42424995750853,0.0006594657897949219,0.00013971328735351562,0.017366886138916016,73988.0,0.03589664697647095,16.14674560546875,0.0023435824830085037,16.283974609375,0.003012813724732647,-16.2614328066508,-5.468808730443318,0.005671872330519061,111.67355615538658,1000.0,74.0,108.88673369306869,46.75168437069492,1000.0,1000.0,0.0,74000
75000,0,63.46655400681891,0.0006184577941894531,0.0001316070556640625,0.017589569091796875,74988.0,0.036738860905170444,16.21199321746826,0.0024944973178207875,16.333419189453124,0.002902383044177744,-16.326661268870037,-5.4609428246816,0.0053819511861850815,58.7425119608832,1000.0,75.0,122.62145834190854,71.88418037991109,1000.0,1000.0,0.0,75000
76000,0,63.404767620380206,0.0006272792816162109,0.00013828277587890625,0.017655611038208008,75988.0,0.03097908563911915,16.243850860595703,0.0020883166650310157,16.359222259521484,0.0021463460094916322,-16.29454294840495,-5.579500039418538,0.005103930675735076,62.799047555455,1000.0,76.0,108.25710940995623,31.79704670445416,1000.0,1000.0,0.0,76000
77000,0,59.85641210650187,0.0005800724029541016,0.0001857280731201172,0.017657041549682617,76988.0,0.034370134621858596,16.265476989746094,0.002501087449491024,16.376520385742186,0.0013580255035776645,-16.352843284606934,-5.724603533744812,0.004930660594254732,105.94958550455314,1000.0,77.0,132.42455812816817,58.951204297762196,1000.0,1000.0,0.0,77000
78000,0,63.451192112169466,0.0009827613830566406,0.0001976490020751953,0.018674850463867188,77988.0,0.03347064539790154,16.26937744140625,0.0023658614978194236,16.377529525756835,0.00018800352821320607,-16.334012349446613,-5.961169918378194,0.0048416260397061706,82.74255786016636,1000.0,78.0,116.29262514065383,34.649928509835824,1000.0,1000.0,0.0,78000
79000,0,62.11851127797278,0.0006396770477294922,0.0001347064971923828,0.018229007720947266,78988.0,0.03818950019776821,16.35318801879883,0.0029192751925438644,16.449753952026366,0.0005163084824744146,-16.4288387298584,-5.891637047131856,0.004764809816454847,166.7137671320819,1000.0,79.0,144.19300416173309,51.42863758194155,1000.0,1000.0,0.0,79000
80000,0,62.567112311909504,0.0008502006530761719,0.0001327991485595703,0.017281770706176758,79988.0,0.03422848351299763,16.309002227783203,0.0024960670713335274,16.40086227416992,0.0003983970564149786,-16.401884078979492,-5.9152103662490845,0.004698544352625807,85.13248795133487,1000.0,80.0,170.1725992431868,61.797209550787585,1000.0,1000.0,0.0,80000
81000,0,64.43461113750031,0.0005812644958496094,0.0001761913299560547,0.01791834831237793,80988.0,0.03436966955661774,16.414765243530272,0.0024339460954070093,16.5205078125,-0.0010378118422522675,-16.494170029958088,-6.218296647071838,0.004754862980917096,186.0509138489043,1000.0,81.0,121.23060251239524,59.020467666801096,1000.0,1000.0,0.0,81000
82000,0,63.554759806482664,0.0006873607635498047,0.00014019012451171875,0.01788330078125,81988.0,0.03704366035759449,16.47848175048828,0.002452851845882833,16.587804641723633,-0.0019453757849987596,-16.555593649546307,-6.38888160387675,0.005002893817921479,91.85948699931802,1000.0,82.0,145.19357607088637,57.733985642975554,1000.0,1000.0,0.0,82000
83000,0,63.004404280504,0.0008518695831298828,0.0001742839813232422,0.019847631454467773,82988.0,0.03451558202505112,16.54110771179199,0.0022563421353697776,16.641329193115233,-2.321499535658707e-05,-16.580654462178547,-6.004573941230774,0.005084558273665607,190.83814412474382,1000.0,83.0,154.21808239785577,53.957821025030164,1000.0,1000.0,0.0,83000
84000,0,62.6516361437591,0.0006148815155029297,0.00013446807861328125,0.018114089965820312,83988.0,0.03459186792373657,16.6062296295166,0.0021086161537095904,16.707288360595705,-0.0009423321704768265,-16.674277305603027,-6.18549640973409,0.005080298404209316,199.70979863090548,1000.0,84.0,133.36032504802256,79.07452398151652,1000.0,1000.0,0.0,84000
85000,0,63.27662887039641,0.0006070137023925781,0.00014162063598632812,0.017933368682861328,84988.0,0.03628310076892376,16.600217208862304,0.0025810823403298855,16.707408828735353,-0.000558343492836381,-16.670385042826336,-6.1086113055547075,0.005140471272170544,29.225561865914088,1000.0,85.0,148.12555100037943,66.07711557551774,1000.0,1000.0,0.0,85000
86000,0,59.67413511498603,0.0006375312805175781,0.00013184547424316406,0.017804384231567383,85988.0,0.030039271563291548,16.66772346496582,0.002072523133829236,16.775294876098634,0.0011113609580206685,-16.751046021779377,-5.78491485118866,0.005167059483937919,105.57565669477174,1000.0,86.0,162.1531335549106,69.23767243822479,1000.0,1000.0,0.0,86000
87000,0,63.381427595669706,0.0006401538848876953,0.000141143798828125,0.017647743225097656,86988.0,0.032057133689522746,16.708183059692384,0.0022667078813537957,16.81307731628418,0.0008424827246926725,-16.77335039774577,-5.832175970077515,0.005019718237842123,192.23945747558992,1000.0,87.0,117.79304707036745,52.00935406757742,1000.0,1000.0,0.0,87000
88000,0,62.74697537816001,0.0009365081787109375,0.0001990795135498047,0.018009662628173828,87988.0,0.03332554124295711,16.76291748046875,0.002525816634297371,16.864741439819337,0.0002885160332274002,-16.858278115590412,-5.941778461138408,0.004955361674850185,143.22111322984316,1000.0,88.0,108.8395440695703,56.47770279424543,1000.0,1000.0,0.0,88000
89000,0,62.57043512092196,0.0006654262542724609,0.0001392364501953125,0.01755547523498535,88988.0,0.030832886546850204,16.79404624938965,0.002370463558472693,16.895140609741212,-0.0006310596436378546,-16.85973596572876,-6.126473943392436,0.004989506832013528,100.14419935454009,1000.0,89.0,99.9135246681024,50.96813970693185,1000.0,1000.0,0.0,89000
90000,0,63.660753151995806,0.0005967617034912109,0.00013327598571777344,0.018320798873901367,89988.0,0.030623974353075026,16.837286987304687,0.002062751376070082,16.93807304382324,-0.0004919595788427008,-16.927835941314697,-6.097189823786418,0.0050621342767650885,70.63462777182076,1000.0,90.0,109.95697386761087,44.50812778358102,1000.0,1000.0,0.0,90000
91000,0,59.415430800064144,0.0006084442138671875,0.00017833709716796875,0.017594337463378906,90988.0,0.031898953914642335,16.744794692993164,0.00213254670612514,16.837745513916015,-5.439502759448563e-05,-16.848651091257732,-6.010757009188334,0.005057153835271795,36.56440120615582,1000.0,91.0,131.98332983710546,66.71383809932519,1000.0,1000.0,0.0,91000
92000,0,62.873654400447066,0.0005991458892822266,0.00018262863159179688,0.01737523078918457,91988.0,0.029600451812148095,16.770095596313478,0.002135874330997467,16.861916885375976,-0.00011425267439335585,-16.890215555826824,-6.022701819737752,0.005033902164238195,119.02873566176406,1000.0,92.0,144.59922050780094,56.335983177557274,1000.0,1000.0,0.0,92000
93000,0,62.68257180176168,0.0006513595581054688,0.00014209747314453125,0.01834726333618164,92988.0,0.03365415953099728,16.826986846923827,0.0021029213769361375,16.918580856323242,0.0007578710841092592,-16.90809218088786,-5.848390221595764,0.004998228163458407,217.74185339159487,1000.0,93.0,144.46986872913675,55.06683462518522,1000.0,1000.0,0.0,93000
94000,0,63.265022920973024,0.0006349086761474609,0.00016164779663085938,0.01757025718688965,93988.0,0.032278955951333045,16.787647552490235,0.00220515142660588,16.88092971801758,0.00023744443145308955,-16.844220956166584,-5.952511032422383,0.004999863100238144,50.0615855703863,1000.0,94.0,136.23975543667035,51.659651360381595,1000.0,1000.0,0.0,94000
95000,0,62.78687660773052,0.0005974769592285156,0.000171661376953125,0.017958879470825195,94988.0,0.031685321480035784,16.73264953613281,0.002200974985025823,16.82420150756836,8.449021940274785e-05,-16.81517680486043,-5.983219623565674,0.005035458753506343,146.3545840851762,1000.0,95.0,136.97455206755916,55.75253437763077,1000.0,1000.0,0.0,95000
96000,0,59.24867837277685,0.0006465911865234375,0.00016570091247558594,0.018037080764770508,95988.0,0.0321117527037859,16.829749832153322,0.0023052916303277016,16.922252044677734,-0.0006779451553787416,-16.857374509175617,-6.133608301480611,0.0050742349509770674,156.50293600483957,1000.0,96.0,131.44922928471993,53.72461228386046,1000.0,1000.0,0.0,96000
97000,0,62.22083502200565,0.0009698867797851562,0.0001685619354248047,0.018297195434570312,96988.0,0.03491459503769875,16.873288040161132,0.0023944820882752537,16.96579765319824,-0.0005322063540612968,-16.86276038487752,-6.104043324788411,0.005115718425561984,161.0756608995652,1000.0,97.0,139.56767633819317,49.33269064323979,1000.0,1000.0,0.0,97000
98000,0,62.09820458291212,0.0006277561187744141,0.00014734268188476562,0.017750978469848633,97988.0,0.034343243315815924,16.886936874389647,0.002463965471833944,16.974599075317382,-0.000892380377384446,-16.92744716008504,-6.172674179077148,0.0051680480828508735,174.06767975055877,1000.0,98.0,145.99495702924986,71.00679111555299,1000.0,1000.0,0.0,98000
99000,0,63.348841649040835,0.0006697177886962891,0.00014138221740722656,0.01751399040222168,98988.0,0.03598708033561707,16.945511016845703,0.002370344866067171,17.03484115600586,0.0002457728272323341,-16.980339845021565,-5.952792922655742,0.005206035838151972,217.98542307208052,1000.0,99.0,168.63736536107194,59.24372336470457,1000.0,1000.0,0.0,99000
100000,0,58.56500719373028,0.0006148815155029297,0.00018072128295898438,0.018395423889160156,99988.0,0.0342280750721693,16.93262763977051,0.0021700126118957995,17.02080123901367,-0.00027164065128696774,-16.98973019917806,-6.052717566490173,0.005154096249801417,104.12623615428022,1000.0,100.0,176.17720845421917,46.09260748066228,1000.0,1000.0,0.0,100000
101000,0,63.895872814687976,0.0006346702575683594,0.00014090538024902344,0.017894506454467773,100988.0,0.03302045352756977,16.921632919311524,0.0020365724014118312,17.008611450195314,7.488664293002027e-05,-16.948268095652264,-5.985192616780599,0.005058193618121247,145.74145927083234,1000.0,101.0,163.0263222534811,65.18709722180151,1000.0,1000.0,0.0,101000
102000,0,62.80161757096038,0.000637054443359375,0.00015425682067871094,0.018796920776367188,101988.0,0.03291112288832664,16.891908874511717,0.0022499125869944693,16.982470626831056,0.0001858381183410529,-16.922056992848713,-5.962715824445088,0.004981807937535147,61.49054482900335,1000.0,102.0,119.8618426656961,76.41566136773034,1000.0,1000.0,0.0,102000
103000,0,62.71702645348211,0.0006330013275146484,0.00014281272888183594,0.01784205436706543,102988.0,0.03319441460072994,16.833373336791993,0.0022255549393594264,16.921602630615233,0.000394244408501739,-16.89177926381429,-5.9192730983098345,0.004883533072037001,101.02329008713,1000.0,103.0,191.44764072819152,51.29805235378836,1000.0,1000.0,0.0,103000
104000,0,63.439099853226416,0.0006108283996582031,0.000133514404296875,0.017920494079589844,103988.0,0.03509456500411034,16.821452713012697,0.002370811854489148,16.911774291992188,-0.0005028333095348595,-16.869924068450928,-6.104690114657084,0.00480352792267998,143.70193514308573,1000.0,104.0,159.03793804345952,54.080189890261735,1000.0,1000.0,0.0,104000
105000,0,59.11766861550084,0.0006177425384521484,0.00014281272888183594,0.017627954483032227,104988.0,0.03567470401525497,16.85000259399414,0.0024471862707287073,16.9355810546875,-0.00019095466511013606,-16.98729928334554,-6.040209452311198,0.004748921453331907,145.10188558746367,1000.0,105.0,169.11440282477787,55.1529264637715,1000.0,1000.0,0.0,105000
106000,0,63.332465607558035,0.0006003379821777344,0.00014066696166992188,0.017407894134521484,105988.0,0.03443395085632801,16.914823532104492,0.002169223939999938,17.005047607421876,-0.00029685510162380524,-17.021330674489338,-6.062494079271953,0.0047500777291134,158.23411747315535,1000.0,106.0,190.83656591547236,53.60824795751958,1000.0,1000.0,0.0,106000
107000,0,62.97175094420753,0.0006284713745117188,0.0001556873321533203,0.017466306686401367,106988.0,0.037274031937122344,16.918794326782226,0.0022802163613960145,17.009750747680663,0.0001237810841606309,-16.99734576543172,-5.974078416824341,0.004774739422524969,129.71079693480905,1000.0,107.0,110.9465396607964,24.574769605272394,1000.0,1000.0,0.0,107000
108000,0,64.53065276163176,0.0006589889526367188,0.000156402587890625,0.01809859275817871,107988.0,0.03786669373512268,16.82881576538086,0.002767775789834559,16.917236099243166,0.0005246772913475676,-16.890685240427654,-5.891232927640279,0.004824049887247384,124.4914895487573,1000.0,108.0,142.23992893403968,68.10164749022844,1000.0,1000.0,0.0,108000
109000,0,62.86615306214215,0.000732421875,0.00014472007751464844,0.018028974533081055,108988.0,0.0362352155148983,16.90763282775879,0.002475438257679343,16.997071533203126,6.695550716055247e-05,-17.00693114598592,-5.986119190851848,0.004820756769428651,103.90943150026754,1000.0,109.0,172.83458491397587,37.34988321908421,1000.0,1000.0,0.0,109000
110000,0,63.12391678240051,0.0006475448608398438,0.0001423358917236328,0.017848730087280273,109988.0,0.03798638135194778,16.915480728149415,0.0024803610099479556,16.995315704345703,-0.00024199590977029098,-16.98793617884318,-6.051017602284749,0.004744164490451415,161.41401373791766,1000.0,110.0,166.25451464571012,57.176621420153324,1000.0,1000.0,0.0,110000
111000,0,62.923683934170455,0.0008704662322998047,0.0001933574676513672,0.022573471069335938,110988.0,0.03557110175490379,16.837592391967775,0.0023761905822902918,16.914814376831053,-0.00025994309786862385,-16.879719098409016,-6.05556587378184,0.004678390376890699,114.19160207804164,1000.0,111.0,188.08970762845462,50.46560892210211,1000.0,1000.0,0.0,111000
112000,0,62.74780144288539,0.0006208419799804688,0.00014400482177734375,0.018059730529785156,111988.0,0.032433736324310306,16.797711639404298,0.001931036151945591,16.875715560913086,-0.0009953656165938203,-16.834194501241047,-6.212383031845093,0.0046872162104894715,74.51132520057376,1000.0,112.0,151.17515727642834,44.42398312803763,1000.0,1000.0,0.0,112000
113000,0,63.96349739376028,0.0006535053253173828,0.00013828277587890625,0.017864704132080078,112988.0,0.04017659112811089,16.81071937561035,0.002838533204048872,16.888672637939454,-0.0010500238204258494,-16.829497655232746,-6.221073746681213,0.00474960155164202,225.82195376317824,1000.0,113.0,195.42652418194058,53.26276619539994,1000.0,1000.0,0.0,113000
114000,0,58.97735006440074,0.0006709098815917969,0.00014543533325195312,0.017180681228637695,113988.0,0.035222533345222476,16.748587799072265,0.0021575793530791997,16.828987045288088,-0.0006894274350391546,-16.80705992380778,-6.141573667526245,0.004870201461017132,94.39803004350743,1000.0,114.0,173.1415439833974,50.04837409948382,1000.0,1000.0,0.0,114000
115000,0,63.49164828963414,0.0009469985961914062,0.0001952648162841797,0.017949581146240234,114988.0,0.03491989716887474,16.754047622680662,0.0023148034838959574,16.83450355529785,-0.00020260766480835932,-16.76472345987956,-6.040975054105123,0.0049445740878582,167.32661452616603,1000.0,115.0,168.83809024325632,51.104492652447504,1000.0,1000.0,0.0,115000
116000,0,62.93565603190189,0.0008831024169921875,0.00018477439880371094,0.019687652587890625,115988.0,0.04035576373338699,16.794448623657228,0.0023703085212036967,16.86925552368164,0.0006628072806051932,-16.90571943918864,-5.868240634600322,0.005030370278594394,231.56294942900507,1000.0,116.0,165.10242733252318,43.276815360954316,1000.0,1000.0,0.0,116000
117000,0,63.59893542431396,0.0006744861602783203,0.00015735626220703125,0.017182588577270508,116988.0,0.0353401667624712,16.816174392700194,0.0023760613752529026,16.89775459289551,-0.00026388468662238057,-16.87670024236043,-6.052058378855388,0.005070304924932619,247.27810251294332,1000.0,117.0,217.41485285303793,36.284447684628596,1000.0,1000.0,0.0,117000
118000,0,62.59202330391493,0.0006289482116699219,0.000141143798828125,0.017622709274291992,117988.0,0.038592451438307765,16.95427749633789,0.0023530647717416287,17.036638717651368,0.000506103596004929,-16.91099961598714,-5.900919993718465,0.00510691183929642,159.38920939524888,1000.0,118.0,208.83792013983353,65.91719432830612,1000.0,1000.0,0.0,118000
119000,0,57.53225633000985,0.0006849765777587891,0.000152587890625,0.017874956130981445,118988.0,0.03958230890333653,16.97607810974121,0.0024897530395537617,17.055835952758787,0.0003338286369398702,-17.061812082926433,-5.934633175532023,0.005106904117080073,216.97941776903613,1000.0,119.0,183.33463583422485,65.94251519547802,1000.0,1000.0,0.0,119000
120000,0,62.638761532970335,0.0005900859832763672,0.0001723766326904297,0.01837015151977539,119988.0,0.040597632825374604,17.064681549072265,0.0023963823635131123,17.137855072021484,0.00021287309209583327,-17.132596015930176,-5.958062966664632,0.005075998099831243,229.3660846844455,1000.0,120.0,208.2331380464684,57.44691494274841,1000.0,1000.0,0.0,120000
121000,0,63.70550203101629,0.0006165504455566406,0.00013875961303710938,0.017742395401000977,120988.0,0.040003666430711744,17.018621292114258,0.0025379207264631986,17.091760787963867,8.451062967651524e-05,-17.182262897491455,-5.983307043711345,0.00506299186963588,157.10109786469465,1000.0,121.0,227.1690974768463,44.86998586278509,1000.0,1000.0,0.0,121000
122000,0,63.936430392389404,0.0006666183471679688,0.00014781951904296875,0.018056154251098633,121988.0,0.046963148415088654,17.146728744506834,0.0031635836698114873,17.212197189331054,-0.00011511575818682711,-17.18973668416341,-6.022989789644877,0.005007366999052465,249.43222336341742,1000.0,122.0,130.07261866029634,46.017388317381325,1000.0,1000.0,0.0,122000
123000,0,61.889691465212664,0.0006051063537597656,0.00014257431030273438,0.01832890510559082,122988.0,0.04008329480886459,17.14030662536621,0.0026601946540176866,17.208954315185547,0.00017016863178772232,-17.198136965433758,-5.966049989064534,0.0050118842627853155,251.5149815486282,1000.0,123.0,163.74533855786527,51.972265060233475,1000.0,1000.0,0.0,123000
124000,0,62.844375401551545,0.0005867481231689453,0.0001392364501953125,0.01823902130126953,123988.0,0.04479559913277626,17.180017776489258,0.0027144363569095733,17.26744010925293,-0.0008691254600610895,-17.16788450876872,-6.163853605588277,0.005304210974524419,266.36811675492373,1000.0,124.0,217.29904133928775,50.51213160120779,1000.0,1000.0,0.0,124000
125000,0,64.00023437585831,0.0008428096771240234,0.00016045570373535156,0.018148422241210938,124988.0,0.038609845489263536,17.231009521484374,0.0022462843544781208,17.31294219970703,-0.0006361605434600884,-17.30369774500529,-6.117032527923584,0.005435782523515324,103.95932713790118,1000.0,125.0,211.35910383711197,45.86251849245382,1000.0,1000.0,0.0,125000
126000,0,63.078501024161795,0.0006201267242431641,0.0001327991485595703,0.017987728118896484,125988.0,0.040067412108182904,17.288396224975585,0.002158464011736214,17.361428451538085,0.00029118343081790954,-17.325270652770996,-5.945444504419963,0.005338100406030814,252.2054411487757,1000.0,126.0,218.55095542059865,38.87474473802856,1000.0,1000.0,0.0,126000
127000,0,63.036219904415525,0.0005998611450195312,0.00013875961303710938,0.01711106300354004,126988.0,0.03919801712036133,17.25544860839844,0.002307973294518888,17.33257049560547,8.054395584622398e-05,-17.304079055786133,-5.9847108125686646,0.005268088115068774,162.63329222432628,1000.0,127.0,185.92460351930157,39.89086373073613,1000.0,1000.0,0.0,127000
128000,0,59.76351663283068,0.0009505748748779297,0.00037789344787597656,0.01973247528076172,127988.0,0.03752030067145824,17.337832946777343,0.0023843843303620817,17.40672836303711,0.00023727806546958163,-17.38328981399536,-5.95437506834666,0.005199925391934812,268.0973291148503,1000.0,128.0,137.87821577383735,35.56003230872689,1000.0,1000.0,0.0,128000
129000,0,63.1154818248412,0.0006287097930908203,0.0001399517059326172,0.017570972442626953,128988.0,0.03862168028950691,17.349705429077147,0.002477353303693235,17.420482482910156,0.0003205221940637178,-17.365298589070637,-5.937931736310323,0.005162908462807536,143.63021963892828,1000.0,129.0,203.80169418013944,45.972699657019604,1000.0,1000.0,0.0,129000
130000,0,62.564237806824465,0.0009698867797851562,0.0001819133758544922,0.01915740966796875,129988.0,0.03630866721272469,17.301937255859375,0.002270033322274685,17.3730485534668,-0.0007242064190601619,-17.424777507781982,-6.140960971514384,0.005138752865605056,169.66600716075345,1000.0,130.0,153.86293035949384,37.15476219606336,1000.0,1000.0,0.0,130000
131000,0,62.60106637978332,0.0005869865417480469,0.0001327991485595703,0.017549514770507812,130988.0,0.03865431524813175,17.390210800170898,0.0023838366847485303,17.46237678527832,-0.0005171507655177265,-17.417296091715496,-6.101374586423238,0.005102527909912169,256.4642926852498,1000.0,131.0,199.19277470244862,70.41099305209089,1000.0,1000.0,0.0,131000
132000,0,63.86368937881,0.0006442070007324219,0.00013375282287597656,0.019285917282104492,131988.0,0.04008875593543053,17.470151672363283,0.0025202873907983303,17.541057205200197,-0.00018653744700714014,-17.62228473027547,-6.036546349525452,0.005104361878087123,258.7860012203667,1000.0,132.0,171.42922143543515,71.5186680277452,1000.0,1000.0,0.0,132000
133000,0,57.567758682027204,0.0006535053253173828,0.00013446807861328125,0.01794743537902832,132988.0,0.049386207461357114,17.44585922241211,0.003039413634687662,17.515694274902344,-0.0008036112837241186,-17.424890995025635,-6.1561843156814575,0.005145516130141914,196.91892189163187,1000.0,133.0,209.7691391664152,67.8250710618877,1000.0,1000.0,0.0,133000
134000,0,63.237780945971046,0.0006203651428222656,0.0001399517059326172,0.01799607276916504,133988.0,0.03681550249457359,17.56953544616699,0.002118573882617056,17.639860610961914,-7.47599527433825e-05,-17.68912633260091,-6.014490127563477,0.005163712349409859,232.7422053973293,1000.0,134.0,177.7816106322682,57.71524413497751,1000.0,1000.0,0.0,134000
135000,0,63.45387990688054,0.0006248950958251953,0.00013566017150878906,0.017888784408569336,134988.0,0.04078557461500168,17.57671371459961,0.0023655968625098467,17.647015838623048,-0.0007672834338639708,-17.510332743326824,-6.148478786150615,0.005167737021110952,204.40459999938992,1000.0,135.0,148.2535789860942,55.3609653745824,1000.0,1000.0,0.0,135000
136000,0,63.04834859572012,0.0006208419799804688,0.00014066696166992188,0.017827510833740234,135988.0,0.0431868052482605,17.625091705322266,0.0027044900273904206,17.689644393920897,0.0006924638194808116,-17.75633668899536,-5.866585930188497,0.005189962568692863,300.2415004142456,1000.0,136.0,205.68885663775276,64.41199759185717,1000.0,1000.0,0.0,136000
137000,0,62.96415056498498,0.0006275177001953125,0.00013375282287597656,0.017366409301757812,136988.0,0.03777382932603359,17.548097839355467,0.0027286041202023627,17.617743911743165,0.000546089417184703,-17.54454247156779,-5.895014762878418,0.005200886051170528,133.30986451363182,1000.0,137.0,214.65490447517112,72.64712424324141,1000.0,1000.0,0.0,137000
138000,0,63.531732663789114,0.00066375732421875,0.00014138221740722656,0.018837928771972656,137988.0,0.03885838314890862,17.591377487182616,0.0023207788076251745,17.659958877563476,0.00044452091970015317,-17.527898629506428,-5.915293296178182,0.005245612352155149,269.2418107865189,1000.0,138.0,180.25736114404887,59.48709676299709,1000.0,1000.0,0.0,138000
139000,0,63.223673182925964,0.0008828639984130859,0.00015735626220703125,0.018674612045288086,138988.0,0.03818063452839851,17.609102478027342,0.0024133516941219567,17.676552352905272,0.0002715912499600866,-17.688121795654297,-5.948316812515259,0.005255143352163334,86.44566745581513,1000.0,139.0,187.0453752828435,66.45209792144558,1000.0,1000.0,0.0,139000
140000,0,61.77785973642179,0.0008490085601806641,0.00015354156494140625,0.018180370330810547,139988.0,0.04631714805960655,17.686614532470703,0.0030063045443966983,17.753430938720705,-0.00012613541305957673,-17.700076421101887,-6.024037877718608,0.0052494145929813385,276.421202618622,1000.0,140.0,209.73366621547888,44.81388184343137,1000.0,1000.0,0.0,140000
141000,0,63.303063561690806,0.0007104873657226562,0.0001399517059326172,0.01763153076171875,140988.0,0.03944273918867111,17.84500793457031,0.0024608180718496443,17.91252716064453,-0.0003663406362951112,-17.891870657602947,-6.070135076840718,0.005224095036586125,301.3038183484585,1000.0,141.0,199.59335409843806,35.416505785500696,1000.0,1000.0,0.0,141000
142000,0,57.58138375306763,0.0006949901580810547,0.0001437664031982422,0.018047332763671875,141988.0,0.03743026569485664,17.86482078552246,0.0021869520004838706,17.9322127532959,-0.0014832663097574066,-17.889273802439373,-6.284243226051331,0.0052181953797116876,218.1872377258242,1000.0,142.0,194.8930459698734,59.87761940854126,1000.0,1000.0,0.0,142000
143000,0,64.01785654323746,0.0007021427154541016,0.00015687942504882812,0.017277240753173828,142988.0,0.04276629544794559,17.824374160766602,0.0023333041463047266,17.890040969848634,5.625492849503644e-05,-17.829570293426514,-5.989233016967773,0.005224629887379706,206.30329629016813,1000.0,143.0,185.2376534647624,30.293901981551027,1000.0,1000.0,0.0,143000
144000,0,62.76643122231533,0.0006096363067626953,0.0001323223114013672,0.01836371421813965,143988.0,0.04521559178829193,17.803857192993163,0.0029328799480572345,17.87108901977539,0.0003548705329497655,-17.794726530710857,-5.931975642840068,0.0052166752284392715,122.31862431806542,1000.0,144.0,232.27035429956405,55.707548676260004,1000.0,1000.0,0.0,144000
145000,0,62.47470062279515,0.0006968975067138672,0.00014209747314453125,0.018158912658691406,144988.0,0.0427401676774025,17.82158271789551,0.0023594962805509566,17.884419403076173,-0.0004430462783299542,-17.919973850250244,-6.084556063016255,0.005239811531888942,178.589893433434,1000.0,145.0,214.81166134660347,50.59944875198684,1000.0,1000.0,0.0,145000
146000,0,62.725655416148726,0.0006189346313476562,0.00013947486877441406,0.017775774002075195,145988.0,0.04300183698534966,17.8188525390625,0.0026049999706447124,17.882827835083006,0.00026999617451413843,-17.915253321329754,-5.94837498664856,0.00522788567468524,273.2346897683946,1000.0,146.0,167.83250157772025,54.72313812490018,1000.0,1000.0,0.0,146000
147000,0,63.14425353666497,0.00067901611328125,0.00014710426330566406,0.017956018447875977,146988.0,0.03763521231710911,17.920565490722655,0.002086526909843087,17.985820922851563,0.00023303396301344037,-17.997814019521076,-5.955616911252339,0.005250493724209567,265.07066869623566,1000.0,147.0,239.0176445813688,61.27383314959559,1000.0,1000.0,0.0,147000
148000,0,62.96483112116714,0.0009047985076904297,0.0001685619354248047,0.01766371726989746,147988.0,0.03668180868029594,17.820530166625975,0.0019971314538270234,17.883234176635742,0.0008986024283027897,-17.92669455210368,-5.828752279281616,0.005247286016431947,84.5996496159055,1000.0,148.0,218.35373682900754,71.18786412416557,1000.0,1000.0,0.0,148000
149000,0,63.62000405294063,0.0006608963012695312,0.00013947486877441406,0.017814159393310547,148988.0,0.04281782418489456,18.001050643920898,0.0024517075065523387,18.06208885192871,-0.0002945003519319774,-18.054115613301594,-6.055888970692952,0.005268959018091361,273.4738082064118,1000.0,149.0,217.24917304002201,63.99397901699136,1000.0,1000.0,0.0,149000
150000,0,62.686019310796695,0.0011076927185058594,0.0002543926239013672,0.019993066787719727,149988.0,0.0365410066395998,17.93091148376465,0.002038814886473119,17.994334869384765,-0.00014022063987795264,-17.91208012898763,-6.026447574297587,0.005302470681878428,193.4072284319113,1000.0,150.0,241.0361684948979,55.061844679497,1000.0,1000.0,0.0,150000
151000,0,58.09304629267466,0.0006000995635986328,0.0001659393310546875,0.017689228057861328,150988.0,0.04226766154170036,18.025088119506837,0.002303010830655694,18.087836456298827,-0.0010350509959001404,-17.998531977335613,-6.194276253382365,0.005328686287005742,275.0017333523119,1000.0,151.0,185.06922135946365,66.40620281337583,1000.0,1000.0,0.0,151000
152000,0,62.80966785468268,0.0006513595581054688,0.00015020370483398438,0.01785564422607422,151988.0,0.046256069391965866,17.949067764282226,0.003068901658989489,18.009688568115234,0.00024463789244085393,-18.02198616663615,-5.954330484072368,0.005355474694321553,222.80201506058157,1000.0,152.0,196.20550432163412,78.12341143371751,1000.0,1000.0,0.0,152000
153000,0,63.088064795801415,0.0006437301635742188,0.00013303756713867188,0.017601728439331055,152988.0,0.037860366255044936,18.08448913574219,0.002054670755751431,18.152655487060546,-0.0007668911554598404,-18.15338150660197,-6.142698327700297,0.005374378408305347,296.6296342883438,1000.0,153.0,222.77523474933906,69.91670087924822,1000.0,1000.0,0.0,153000
154000,0,62.785184848102,0.0006711483001708984,0.0001392364501953125,0.017921924591064453,153988.0,0.042843666970729825,18.199175033569336,0.0024236359819769858,18.263585891723633,-0.00035739428737239604,-18.209227085113525,-6.066080768903096,0.005408480918655793,286.29341999144987,1000.0,154.0,222.47086215698377,53.718764227118136,1000.0,1000.0,0.0,154000
155000,0,62.29250702484985,0.0006718635559082031,0.00019812583923339844,0.017548322677612305,154988.0,0.04272773876786232,18.22052360534668,0.0023807670874521135,18.28333267211914,0.0003017450095891642,-18.251252333323162,-5.944477438926697,0.005431265647833546,196.3090487107246,1000.0,155.0,222.8410847055955,77.9648956642743,1000.0,1000.0,0.0,155000
156000,0,62.46662433025262,0.0006306171417236328,0.00013971328735351562,0.017760276794433594,155988.0,0.03786594688892365,18.099505767822265,0.002351372018456459,18.16588935852051,8.956234038729842e-05,-18.072154362996418,-5.983584403991699,0.005457620602101088,132.72092306802128,1000.0,156.0,204.46753699118915,73.16747354103362,1000.0,1000.0,0.0,156000
157000,0,62.46044756204491,0.0009315013885498047,0.00019359588623046875,0.018541812896728516,156988.0,0.04564195573329925,18.206359100341796,0.002732371469028294,18.270632400512696,-6.481105689696658e-05,-18.208842913309734,-6.011920849482219,0.005438142727750043,211.3369926788383,1000.0,157.0,239.8799835663272,63.03454877818863,1000.0,1000.0,0.0,157000
158000,0,62.75580037620827,0.0007236003875732422,0.00014638900756835938,0.017405986785888672,157988.0,0.04486474335193634,18.078496017456054,0.0023947075847536325,18.14299476623535,-3.609369620486783e-05,-18.093165238698322,-6.00661826133728,0.00545780302491039,271.6756573328673,1000.0,158.0,220.1208258354928,60.068423244583535,1000.0,1000.0,0.0,158000
159000,0,63.532771991136954,0.0006244182586669922,0.0001399517059326172,0.01799178123474121,158988.0,0.04451361507177353,18.242563552856446,0.00239906155038625,18.304776611328126,0.0005087192354646201,-18.346928119659424,-5.9065531094868975,0.005442350792388122,189.14937348015994,1000.0,159.0,235.8115553793306,47.74986871331719,1000.0,1000.0,0.0,159000
160000,0,58.28935775175592,0.0006799697875976562,0.0001976490020751953,0.01780533790588379,159988.0,0.042461892068386076,18.222173919677733,0.0023534285463392736,18.289345779418944,-0.0002905032342823688,-18.195697784423828,-6.053377827008565,0.005443410909113784,162.97775306975882,1000.0,160.0,209.2319456123681,63.871472884661955,1000.0,1000.0,0.0,160000
161000,0,62.83251330412747,0.0006663799285888672,0.00014066696166992188,0.017769813537597656,160988.0,0.041347042545676234,18.240255661010742,0.002640864346176386,18.30131576538086,-0.00016129299910971895,-18.280667622884113,-6.029633243878682,0.005444382588999967,196.87603980472207,1000.0,161.0,278.3565880561657,43.067175020049206,1000.0,1000.0,0.0,161000
162000,0,62.3136816307708,0.0006494522094726562,0.00013065338134765625,0.017618417739868164,161988.0,0.041834037899971005,18.13421371459961,0.002274368619546294,18.197220916748048,-0.0004397486894352672,-18.182575066884358,-6.0801659027735395,0.005486647637250523,107.34096700927489,1000.0,162.0,205.81606645316356,66.20641447512176,1000.0,1000.0,0.0,162000
163000,0,62.47838589240792,0.000728607177734375,0.00017690658569335938,0.018387556076049805,162988.0,0.04639776036143303,18.23439292907715,0.002767517361789942,18.30221549987793,-0.00047297682249336503,-18.312485853830974,-6.085966229438782,0.0055030748868982,197.40703108091049,1000.0,163.0,269.662746896923,41.67294145802025,1000.0,1000.0,0.0,163000
164000,0,63.45411029987988,0.0006203651428222656,0.00015044212341308594,0.01749134063720703,163988.0,0.04561089128255844,18.265289001464843,0.0025023885164409876,18.33218162536621,-0.0006686505391068446,-18.23666588465373,-6.121129194895427,0.005520378860334556,334.64094691975265,1000.0,164.0,219.72169006652257,56.985397733830304,1000.0,1000.0,0.0,164000
165000,0,62.994979390690155,0.0006463527679443359,0.00014448165893554688,0.0177457332611084,164988.0,0.04716701179742813,18.37915885925293,0.0026016144547611475,18.444752044677735,-0.0010007559564352657,-18.38088337580363,-6.181321303049724,0.005519404386480649,246.17872405977448,1000.0,165.0,224.98888736570726,49.05530590954215,1000.0,1000.0,0.0,165000
166000,0,62.600580528302245,0.0009174346923828125,0.00016498565673828125,0.018578052520751953,165988.0,0.04910701647400856,18.3168928527832,0.002973531479947269,18.379117050170898,5.1663207462600745e-05,-18.416991392771404,-5.990696390469869,0.005532414380771418,157.39959513479732,1000.0,166.0,210.82506186128967,81.94311539561284,1000.0,1000.0,0.0,166000
167000,0,62.971410589480186,0.0006804466247558594,0.0001437664031982422,0.01761937141418457,166988.0,0.046002189368009566,18.44233825683594,0.002703680973500013,18.50612129211426,0.0007388741275159797,-18.533809661865234,-5.866502046585083,0.005534329568035901,161.32162518699027,1000.0,167.0,231.97866135060977,67.01934126911702,1000.0,1000.0,0.0,167000
168000,0,62.452598131620405,0.0006642341613769531,0.00015211105346679688,0.01725482940673828,167988.0,0.045125017315149306,18.340194244384765,0.002317433771677315,18.40478080749512,-0.0007993892644056663,-18.350163141886394,-6.143205960591634,0.005583325129312773,221.15090874438118,1000.0,168.0,212.14269569890888,59.99339043655032,1000.0,1000.0,0.0,168000
169000,0,60.075339385310826,0.000652313232421875,0.0001392364501953125,0.017965316772460938,168988.0,0.0450591953843832,18.317842254638673,0.002212447174824774,18.382777099609374,0.0012669369170907885,-18.27544911702474,-5.773551344871521,0.005593711937156816,119.7450428760074,1000.0,169.0,204.16179857136362,54.5919457104237,1000.0,1000.0,0.0,169000
170000,0,62.85416971373904,0.0005826950073242188,0.0001308917999267578,0.01929306983947754,169988.0,0.043928164690732956,18.345735168457033,0.0021714319195598364,18.41007194519043,-9.335319676514094e-05,-18.430443445841473,-6.016677618026733,0.005597990976336102,183.85054434264435,1000.0,170.0,185.17933296562956,42.96324307902044,1000.0,1000.0,0.0,170000
171000,0,63.366642977659815,0.0009989738464355469,0.00019598007202148438,0.018445730209350586,170988.0,0.04246734291315079,18.2718904876709,0.0023738472955301404,18.334001846313477,0.0004979766478451589,-18.289289792378742,-5.911516944567363,0.005627781463166078,126.4249230538006,1000.0,171.0,208.00975749022479,56.62296060320747,1000.0,1000.0,0.0,171000
172000,0,63.015271006121985,0.0006353855133056641,0.00013113021850585938,0.017919063568115234,171988.0,0.045947967171669005,18.391132888793944,0.002321314294822514,18.45654731750488,-7.191242123856985e-05,-18.491882006327312,-6.012768944104512,0.005632466364962359,321.4729397149255,1000.0,172.0,256.32722938869955,56.282767972754804,1000.0,1000.0,0.0,172000
173000,0,63.09725178281195,0.0006537437438964844,0.00015807151794433594,0.01735711097717285,172988.0,0.05249844238162041,18.45845863342285,0.0028944468218833207,18.52076965332031,0.00021680241479771212,-18.558412551879883,-5.961719791094462,0.005663224961608648,294.7382035958151,1000.0,173.0,157.29231577090536,51.63709791803779,1000.0,1000.0,0.0,173000
174000,0,56.62340523651586,0.0006933212280273438,0.00014543533325195312,0.018222570419311523,173988.0,0.05171017900109291,18.499930114746093,0.0026480423659086226,18.566080856323243,5.819583990766356e-05,-18.58301877975464,-5.989732543627421,0.0056680783939858275,223.0719273875747,1000.0,174.0,194.54976448358065,63.239915361278356,1000.0,1000.0,0.0,174000
175000,0,60.87545152552055,0.0007150173187255859,0.0001533031463623047,0.018488407135009766,174988.0,0.04605916529893875,18.54422805786133,0.002273191697895527,18.61269355773926,-0.0009067544451681897,-18.697574615478516,-6.1582075754801435,0.005731676355935633,237.1504045017465,1000.0,175.0,254.8523292136756,62.987733701438515,1000.0,1000.0,0.0,175000
176000,0,60.906674039605925,0.0009202957153320312,0.0001678466796875,0.017772436141967773,175988.0,0.05036058083176613,18.593642959594728,0.0026434542518109084,18.659904251098634,8.744582495031257e-05,-18.59551477432251,-5.984822312990825,0.005761956446804106,201.40848315641466,1000.0,176.0,211.22794544311827,80.72542401416837,1000.0,1000.0,0.0,176000
177000,0,62.08037360381087,0.0006811618804931641,0.0001423358917236328,0.017606735229492188,176988.0,0.049574205577373506,18.5684854888916,0.002920370791107416,18.633658752441406,0.0003826559708007456,-18.5058749516805,-5.933762431144714,0.005776559934020042,241.24095324083473,1000.0,177.0,246.00393537896534,64.52968780094443,1000.0,1000.0,0.0,177000
178000,0,56.305942759505406,0.0006685256958007812,0.00014519691467285156,0.0179140567779541,177988.0,0.050005597919225694,18.55523178100586,0.002519394662231207,18.621476821899414,-0.0002453188165721561,-18.519194920857746,-6.042666832605998,0.005749664696243902,60.06066361293687,1000.0,178.0,259.98160854121176,55.588756150130685,1000.0,1000.0,0.0,178000
179000,0,62.87105323116403,0.0006210803985595703,0.00014925003051757812,0.017481327056884766,178988.0,0.046821775734424594,18.518052597045898,0.002275282172486186,18.584573135375976,-0.0001538445164139072,-18.48799991607666,-6.026713291803996,0.005761683569289744,205.82988453881345,1000.0,179.0,184.30124103622254,73.17346397071357,1000.0,1000.0,0.0,179000
180000,0,63.00803872625427,0.0006170272827148438,0.0001399517059326172,0.019124269485473633,179988.0,0.050255501121282575,18.696893997192383,0.0024535406846553087,18.76185127258301,0.0005374959412923394,-18.724430720011394,-5.906502763430278,0.005748727746928732,200.0212951697696,1000.0,180.0,184.68140451511152,31.963968581123208,1000.0,1000.0,0.0,180000
181000,0,62.9007344185748,0.0006265640258789062,0.000133514404296875,0.01758098602294922,180988.0,0.049894209057092666,18.595117111206054,0.0024506175564602017,18.658273010253907,7.060547492680296e-05,-18.560887177785236,-5.987733801205953,0.00575743798011293,51.152625744132564,1000.0,181.0,198.5932604759306,25.421732764155326,1000.0,1000.0,0.0,181000
182000,0,62.99823425473714,0.0006906986236572266,0.0001461505889892578,0.017918825149536133,181988.0,0.04932625651359558,18.678536834716798,0.002450277735479176,18.743780822753905,0.0010385358412653052,-18.683544158935547,-5.8192058801651,0.005744266634186109,166.59927927888108,1000.0,182.0,237.50687401237946,62.52628805081259,1000.0,1000.0,0.0,182000
183000,0,60.70990411598949,0.0006501674652099609,0.000152587890625,0.0173795223236084,182988.0,0.05039231315255165,18.640389022827147,0.002677602916955948,18.70524772644043,-0.0005085509856144199,-18.659522374471027,-6.089118878046672,0.00570738948105524,132.25758545361745,1000.0,183.0,244.8603301770951,70.61815955899878,1000.0,1000.0,0.0,183000
184000,0,62.24410385968578,0.0009522438049316406,0.00018024444580078125,0.01797199249267578,183988.0,0.04784794881939888,18.680924377441407,0.0024850975442677736,18.747683334350587,-0.00034432511650569114,-18.694656054178875,-6.060274442036946,0.005713447423962255,343.93661235835935,1000.0,184.0,234.71278747564764,60.79805008101595,1000.0,1000.0,0.0,184000
185000,0,63.739037193910676,0.0006375312805175781,0.0001499652862548828,0.01743459701538086,184988.0,0.05237127259373665,18.76152214050293,0.00290369862690568,18.828748016357423,-0.0003180634933717859,-18.7608904838562,-6.055449763933818,0.005736533474798004,282.55168068310763,1000.0,185.0,214.26132518178483,78.32518613624057,1000.0,1000.0,0.0,185000
186000,0,63.59773963874735,0.0006732940673828125,0.0001671314239501953,0.017260074615478516,185988.0,0.04678205624222755,18.778746566772462,0.0024038991145789623,18.84407257080078,-0.0007917242910480127,-18.775314331054688,-6.138205488522847,0.005730273628917833,132.76989777467566,1000.0,186.0,272.5388181512668,88.16414778220134,1000.0,1000.0,0.0,186000
187000,0,59.02110308835019,0.0006337165832519531,0.00014138221740722656,0.017827510833740234,186988.0,0.04695295035839081,18.719828643798827,0.0024001088459044695,18.78563949584961,0.00012139872463497643,-18.74017349878947,-5.97881023089091,0.005728289601393044,189.9181021381684,1000.0,187.0,261.838609379413,76.10816907069079,1000.0,1000.0,0.0,187000
188000,0,63.56169432223352,0.0007059574127197266,0.00015044212341308594,0.018106698989868164,187988.0,0.04590087503194809,18.735499801635743,0.002200788469053805,18.802425537109375,-0.0006587748115028565,-18.740649382273357,-6.115184783935547,0.005719395858856539,139.79069588518843,1000.0,188.0,217.418058516963,70.56331030559932,1000.0,1000.0,0.0,188000
189000,0,63.111834973760985,0.0006000995635986328,0.0001392364501953125,0.01759505271911621,188988.0,0.054176367819309235,18.86073860168457,0.0029644158482551573,18.92766571044922,-0.0004276260782110815,-18.922897497812908,-6.074914813041687,0.0057082431158050895,223.02478275605176,1000.0,189.0,279.8130118604264,88.3678043873667,1000.0,1000.0,0.0,189000
190000,0,62.487358921993895,0.0009326934814453125,0.0001800060272216797,0.01960444450378418,189988.0,0.05110462844371796,18.84546905517578,0.002567720008082688,18.911109771728515,3.6303844050659485e-05,-18.920024236043293,-5.993660569190979,0.005724111921153963,296.58418246269713,1000.0,190.0,253.7402692814325,71.65177628591725,1000.0,1000.0,0.0,190000
191000,0,62.90273428595424,0.0008759498596191406,0.0001575946807861328,0.01766514778137207,190988.0,0.05242208003997803,18.981896896362304,0.002678421400487423,19.046689605712892,-0.00014284805850669122,-19.06487782796224,-6.0250028769175215,0.005713402177207172,267.05738261563494,1000.0,191.0,301.31238883351386,55.8059931240372,1000.0,1000.0,0.0,191000
192000,0,58.87429942696466,0.0006155967712402344,0.00013327598571777344,0.017588376998901367,191988.0,0.05624695673584938,19.022326202392577,0.002751124417409301,19.089652709960937,7.912069122539833e-05,-19.009402910868328,-5.98614239692688,0.005702862904096643,384.54621256557556,1000.0,192.0,254.91078134535815,71.91920580319919,1000.0,1000.0,0.0,192000
193000,0,63.831693776176095,0.0010814666748046875,0.0001914501190185547,0.018358230590820312,192988.0,0.04900642544031143,19.03808448791504,0.0024197432491928337,19.1038175201416,0.00035323995204331976,-19.026980717976887,-5.938704927762349,0.005761627806350589,174.44220086028395,1000.0,193.0,276.68676587242476,84.5800808519424,1000.0,1000.0,0.0,193000
194000,0,62.66799902463747,0.0006551742553710938,0.0001385211944580078,0.01717686653137207,193988.0,0.0576381504535675,19.07542030334473,0.003022153126075864,19.140350036621093,-1.5058013862775018e-05,-19.13635238011678,-6.002616723378499,0.005760459462180734,307.6675914909722,1000.0,194.0,271.08736720621835,81.01542892609389,1000.0,1000.0,0.0,194000
195000,0,63.25883991032797,0.0006649494171142578,0.0001461505889892578,0.017992734909057617,194988.0,0.057740882337093354,19.165731658935545,0.00314455253072083,19.229260864257814,0.00032969811218208633,-19.245676676432293,-5.942687630653381,0.0057521386770531535,222.8374913300496,1000.0,195.0,265.0951750435101,52.9478319295463,1000.0,1000.0,0.0,195000
196000,0,61.14823216566267,0.0006589889526367188,0.0001404285430908203,0.01741194725036621,195988.0,0.055728175491094586,19.194177780151367,0.0024220486963167785,19.258319549560547,-0.0003048662038054317,-19.290587425231934,-6.053011973698934,0.0057508286166315275,267.38084503292356,1000.0,196.0,267.51056867225583,63.43561267655591,1000.0,1000.0,0.0,196000
197000,0,63.40618620536189,0.0006170272827148438,0.00020384788513183594,0.017716169357299805,196988.0,0.04665020868182182,19.370207595825196,0.002462626243941486,19.435817184448243,-0.0005442293477244675,-19.457420190175373,-6.094467123349507,0.005761014414019883,344.9804657866817,1000.0,197.0,293.4254176328344,69.21802216506606,1000.0,1000.0,0.0,197000
198000,0,64.19127306831024,0.0009737014770507812,0.00017499923706054688,0.019191265106201172,197988.0,0.0627686347067356,19.409161148071288,0.002977807307615876,19.471715240478517,0.00012547366592722634,-19.354659875233967,-5.978265404701233,0.005767622225296994,319.2768018941586,1000.0,198.0,246.58732927437035,66.43240166998302,1000.0,1000.0,0.0,198000
199000,0,63.2133823008124,0.0006122589111328125,0.0001678466796875,0.01709270477294922,198988.0,0.053007069677114486,19.42453773498535,0.0024185877200216055,19.48725860595703,-0.00016803873101404557,-19.458486557006836,-6.029066999753316,0.005784899229183793,263.60368505101894,1000.0,199.0,249.31519462496635,55.946367894133296,1000.0,1000.0,0.0,199000
200000,0,62.61916037285708,0.0006492137908935547,0.000141143798828125,0.018086910247802734,199988.0,0.05151879921555519,19.460685577392578,0.0023855306021869182,19.5253279876709,-4.7448370120643325e-05,-19.469180425008137,-6.00815733273824,0.00581710459664464,309.45327823922526,1000.0,200.0,291.063456283933,53.03805916827803,1000.0,1000.0,0.0,200000
