niicovila/Q-Reps/lightning_research_framework/results/XSAC_TEST/sac_2/log copy 2.csv
time/steps,time/epochs,time/steps_per_second,time/dataset,time/preprocess,time/train_step,train/env_steps,train/q_loss,train/target_q,train/alpha_loss,train/actor_loss,train/entropy,train/alpha,train/reward,train/length,train/num_ep,eval/reward,eval/stddev,eval/length,eval/discount,eval/early_termination,step
1000,0,79.90702955621855,0.0006577968597412109,0.0002014636993408203,0.01596236228942871,988.0,-21.98204055786133,30.37437286376953,-0.5622101003925005,-99.78217506408691,-11.601146141688028,0.10038210451602936,2.9644329107339757,1000.0,1.0,0.5624296795586348,0.15013848981591915,1000.0,1000.0,0.0,1000
2000,0,71.60105703769965,0.0004780292510986328,0.00013709068298339844,0.014815568923950195,1988.0,17.994547576904296,0.07235865205526353,0.4224649543563525,41.5400120417277,-1.7494979004065196,0.09938391670584679,5.631957230326473,1000.0,2.0,7.753042133690994,3.5511511504896442,1000.0,1000.0,0.0,2000
3000,0,71.49662929928836,0.00045490264892578125,0.000156402587890625,0.0147705078125,2988.0,29.974935760498045,-inf,-0.16884087274471918,344.4088872273763,-7.717516581217448,0.09830877433220546,14.919578168574201,1000.0,3.0,27.44661743823441,9.804178459577356,1000.0,1000.0,0.0,3000
4000,0,76.8798642144122,0.0004508495330810547,0.0001308917999267578,0.01484060287475586,3988.0,-21.976951904296875,-inf,-0.1353202989945809,66.68827883402507,-7.328549027442932,0.10186153091490269,15.190540075744254,1000.0,4.0,10.135636118955762,0.06749002911032567,1000.0,1000.0,0.0,4000
5000,0,74.60864429874024,0.0005347728729248047,0.0001373291015625,0.014899015426635742,4988.0,-21.984456100463866,-8.095573329925537,-0.7467096845308939,-51.317318280537926,-13.040442864100138,0.10608009062707424,4.331395546619902,1000.0,5.0,0.49812488851726366,0.02122927689150418,1000.0,1000.0,0.0,5000
6000,0,74.57670032865423,0.0005526542663574219,0.0001404285430908203,0.015049219131469727,5988.0,17.990712890625,25.381352844238283,0.3539850264787674,24.185490131378174,-2.893126388390859,0.11393034147719543,2.8478562523493105,1000.0,6.0,24.49589815894926,0.575889886613782,1000.0,1000.0,0.0,6000
7000,0,75.32770745226897,0.0005221366882324219,0.00013208389282226562,0.015515565872192383,6988.0,19.7516064453125,-inf,-0.18388469765583673,160.17699686686197,-7.632680177688599,0.11263118746380012,23.011723114677164,1000.0,7.0,16.417423025545627,1.8980796498471424,1000.0,1000.0,0.0,7000
8000,0,75.11273256576096,0.00048804283142089844,0.00012874603271484375,0.014781713485717773,7988.0,37.38400833129883,-inf,-0.2726855253179868,348.85896555582684,-8.365737438201904,0.11526925923923652,11.761829236842285,1000.0,8.0,7.859760139647977,0.1677301252302147,1000.0,1000.0,0.0,8000
9000,0,75.53711387736284,0.0006880760192871094,0.00018024444580078125,0.014937877655029297,8988.0,-21.977447509765625,-inf,-0.5656977544228236,44.02639134724935,-10.730589230855307,0.11959915173550446,2.537608667016508,1000.0,9.0,0.4672993474970427,0.029016118783408436,1000.0,1000.0,0.0,9000
10000,0,75.71585469675055,0.0004987716674804688,0.00017595291137695312,0.015356302261352539,9988.0,-21.98637435913086,-3.599681282043457,-0.9245974471171697,-54.89378134409586,-13.183154344558716,0.12873914713660875,0.8140518431194341,1000.0,10.0,0.4637352647726326,0.06523240142176548,1000.0,1000.0,0.0,10000
11000,0,75.76208167694817,0.0005152225494384766,0.0001437664031982422,0.014795541763305664,10988.0,17.949240188598633,14.451372489929199,0.2377818562090397,17.39615074793498,-4.247241139411926,0.13565743217865625,19.896461823366966,1000.0,11.0,0.1256982397193379,0.02032972633018877,1000.0,1000.0,0.0,11000
12000,0,74.9336115597353,0.0006036758422851562,0.00014352798461914062,0.015125751495361328,11988.0,18.050246124267577,inf,-0.32331152570744354,-4.581123928229014,-8.31639846165975,0.13960283249616623,23.328122398512207,1000.0,12.0,3.0926001818107656,1.6008669905234911,1000.0,1000.0,0.0,12000
13000,0,75.68175404382656,0.0005245208740234375,0.0001308917999267578,0.01530599594116211,12988.0,38.550157623291014,inf,-1.341139594713847,-110.21080589294434,-15.509773095448812,0.14104784776767096,6.791415893404703,1000.0,13.0,1.1924356297251635,0.8498085731242518,1000.0,1000.0,0.0,13000
14000,0,75.61140932047684,0.0007076263427734375,0.0002014636993408203,0.016326189041137695,13988.0,38.49571914672852,inf,-1.5261308352152507,-129.88492711385092,-16.61829137802124,0.14374762773513794,12.926323661201195,1000.0,14.0,0.03631963721145676,0.023396284176612055,1000.0,1000.0,0.0,14000
15000,0,75.14847646342574,0.0009129047393798828,0.00017189979553222656,0.016299724578857422,14988.0,40.3042025756836,inf,-1.4352230827013652,-112.39656257629395,-15.751462380091349,0.147201140721639,10.91224078544608,1000.0,15.0,4.800422787275899,3.7468464251739864,1000.0,1000.0,0.0,15000
16000,0,74.30817266876335,0.0007348060607910156,0.00015425682067871094,0.015737533569335938,15988.0,20.46789222717285,inf,-0.8969986389080683,-27.24244769414266,-11.946101665496826,0.15089470520615578,7.421729304729592,1000.0,16.0,15.705631631003877,6.163063751108511,1000.0,1000.0,0.0,16000
17000,0,74.94984049742787,0.0009076595306396484,0.00017142295837402344,0.01586461067199707,16988.0,17.913615798950197,inf,-0.015998492017388344,8.513053297996521,-6.104147434234619,0.15370681012670198,36.620723258841636,1000.0,17.0,55.35407049469457,14.065803336271841,1000.0,1000.0,0.0,17000
18000,0,74.38096609509434,0.0006830692291259766,0.0001697540283203125,0.01509857177734375,17988.0,16.334076194763185,inf,-0.79434834420681,-40.77586968739828,-11.048327366511026,0.1573613372941812,39.46372062732537,1000.0,18.0,76.80904419506862,27.427561193527417,1000.0,1000.0,0.0,18000
19000,0,74.68053860102188,0.000629425048828125,0.00012946128845214844,0.015808820724487305,18988.0,14.573456573486329,inf,-0.870166485508283,-27.97475576400757,-11.265886942545572,0.16526205961902937,48.36065142665484,1000.0,19.0,46.35161945835229,15.786788562843192,1000.0,1000.0,0.0,19000
20000,0,66.75894033832265,0.0008633136749267578,0.00013899803161621094,0.015758991241455078,19988.0,3.079208641052246,inf,-0.6334785372018814,-51.540551821390785,-9.682567516962687,0.17203743755817413,52.428582765819485,1000.0,20.0,50.74420697602914,19.013107977915883,1000.0,1000.0,0.0,20000
21000,0,71.50325986226818,0.0005567073822021484,0.0001366138458251953,0.014761686325073242,20988.0,10.5057053565979,inf,-0.33703167488177616,-43.0036096572876,-7.905101140340169,0.17692155639330545,27.066748496865763,1000.0,21.0,56.46450683227158,28.386561854157286,1000.0,1000.0,0.0,21000
22000,0,74.22790172187756,0.0006682872772216797,0.00016260147094726562,0.015547752380371094,21988.0,6.482444152832032,inf,-0.3308400909105937,-42.35160128275553,-7.824853181838989,0.1813011827568213,34.35273716913045,1000.0,22.0,49.6675184329557,16.014312719114326,1000.0,1000.0,0.0,22000
23000,0,74.62313953835928,0.0005083084106445312,0.00014638900756835938,0.015394210815429688,22988.0,7.36693925857544,inf,-0.2970143680771192,-44.038345654805504,-7.588093280792236,0.18704469998677573,50.999165683066224,1000.0,23.0,52.59856720019404,24.998752079340434,1000.0,1000.0,0.0,23000
24000,0,74.77101476558116,0.0005805492401123047,0.00013589859008789062,0.0156252384185791,23988.0,12.511110382080078,inf,-0.09563594109689195,-38.41265869140625,-6.499225735664368,0.19158142929275832,52.47857326920554,1000.0,24.0,52.84377703809719,20.709475642720207,1000.0,1000.0,0.0,24000
25000,0,74.4434363183804,0.0006992816925048828,0.00016546249389648438,0.01550436019897461,24988.0,2.7529684257507325,inf,0.01040301068375508,-50.39870961507162,-5.945529500643413,0.1909019947052002,42.2602994467534,1000.0,25.0,71.70253795562098,22.74656364365347,1000.0,1000.0,0.0,25000
26000,0,75.21860953575154,0.0005903244018554688,0.0001537799835205078,0.015292167663574219,25988.0,11.923399868011474,inf,0.20599993566672006,-42.51908206939697,-4.9133628606796265,0.18956294655799866,134.18472305595753,1000.0,26.0,47.29351350886213,29.72262585266507,1000.0,1000.0,0.0,26000
27000,0,75.42659513708159,0.0007264614105224609,0.00016427040100097656,0.015221357345581055,26988.0,5.605335540771485,inf,0.4331532170375188,-39.2578379313151,-3.591835836569468,0.17984186857938766,91.09017135435798,1000.0,27.0,32.63901079390795,15.911849623556842,1000.0,1000.0,0.0,27000
28000,0,74.35085101977724,0.0006473064422607422,0.00013709068298339844,0.015428781509399414,27988.0,6.873248672485351,inf,0.31477196762959164,-42.24434312184652,-4.142364343007405,0.16943389053146043,65.06337016631103,1000.0,28.0,36.44546452294948,18.267758887895525,1000.0,1000.0,0.0,28000
29000,0,74.83820132978951,0.0005195140838623047,0.00012874603271484375,0.014992475509643555,28988.0,11.56482219696045,inf,0.3458939070502917,-39.931633949279785,-3.8449627161026,0.16048665593067804,51.684850150877914,1000.0,29.0,44.07012294117646,14.417084439361462,1000.0,1000.0,0.0,29000
30000,0,75.55099232296159,0.0005638599395751953,0.00016427040100097656,0.015612125396728516,29988.0,6.920960426330566,inf,0.2932524507244428,-41.065026919047035,-4.079114516576131,0.15264749278624853,30.920991158379845,1000.0,30.0,45.90283645010552,22.43615336765501,1000.0,1000.0,0.0,30000
31000,0,76.35202833376052,0.0006248950958251953,0.00014257431030273438,0.014935493469238281,30988.0,6.836468887329102,inf,0.2624562457203865,-37.822127978006996,-4.205097834269206,0.1462098223467668,71.19902422192114,1000.0,31.0,26.84225262119089,5.6972452951090915,1000.0,1000.0,0.0,31000
32000,0,75.48404187926884,0.000926971435546875,0.0001819133758544922,0.01535344123840332,31988.0,11.855014266967773,inf,0.3070313905676206,-31.73392089207967,-3.800926605860392,0.13960187385479608,24.419089249135403,1000.0,32.0,25.29906294052327,10.437544426937519,1000.0,1000.0,0.0,32000
33000,0,74.93468256010063,0.0008711814880371094,0.0001704692840576172,0.016106128692626953,32988.0,8.331925125122071,inf,0.278481346865495,-28.760855197906494,-3.907290041446686,0.13306443393230438,19.667152269602834,1000.0,33.0,27.429676531189045,14.290195204477195,1000.0,1000.0,0.0,33000
34000,0,75.64757494410709,0.000997781753540039,0.0001819133758544922,0.01640462875366211,33988.0,5.425227088928223,inf,0.24100459118684134,-27.52578576405843,-4.106600244839986,0.12727486342191696,24.101891524951025,1000.0,34.0,29.043287517843403,10.983414084477966,1000.0,1000.0,0.0,34000
35000,0,74.95959195198931,0.0008804798126220703,0.0002560615539550781,0.01635885238647461,34988.0,5.483570823669433,inf,0.16668216014901796,-27.098508675893147,-4.641961971918742,0.12272806279361248,13.933809584721448,1000.0,35.0,24.774831765047125,9.884397847308508,1000.0,1000.0,0.0,35000
36000,0,75.48616115361274,0.0006225109100341797,0.0001361370086669922,0.015372514724731445,35988.0,9.506467132568359,inf,0.03712777001783252,-40.90977764129639,-5.688287576039632,0.11909258179366589,26.775490697269227,1000.0,36.0,41.309940062759416,19.51881219353052,1000.0,1000.0,0.0,36000
37000,0,66.1921712677991,0.0005626678466796875,0.0001747608184814453,0.015427112579345703,36988.0,10.913648834228516,inf,0.08477271689722936,-26.2709797223409,-5.272634069124858,0.11654075607657433,67.09588524459255,1000.0,37.0,28.925675211252685,9.930880378236319,1000.0,1000.0,0.0,37000
38000,0,70.07539659732925,0.0005388259887695312,0.00016188621520996094,0.015110969543457031,37988.0,11.638431072235107,inf,0.09033769151816766,-21.799566904703777,-5.203684727350871,0.11343463324010372,45.676759480180564,1000.0,38.0,31.76693148521308,10.157451773498446,1000.0,1000.0,0.0,38000
39000,0,70.111474848621,0.0005428791046142578,0.00016617774963378906,0.01619100570678711,38988.0,8.715677871704102,inf,0.09656600669647257,-18.54290779431661,-5.11762257417043,0.10943885892629623,41.653565168669786,1000.0,39.0,33.52643643631418,7.1715306724455505,1000.0,1000.0,0.0,39000
40000,0,75.39421811041343,0.0006022453308105469,0.00017261505126953125,0.015329360961914062,39988.0,9.886185665130615,inf,0.0987900619705518,-10.226348876953125,-5.061489383379619,0.10525433160364628,29.435797231817656,1000.0,40.0,34.72627491729159,11.737622695308449,1000.0,1000.0,0.0,40000
41000,0,74.20935784010865,0.0006680488586425781,0.0001366138458251953,0.015714168548583984,40988.0,9.026054039001465,inf,0.09568384010344744,-4.816726893186569,-5.049491922060649,0.1006527195374171,29.450685526238928,1000.0,41.0,29.202827635878855,10.273362168635952,1000.0,1000.0,0.0,41000
42000,0,75.16188919711273,0.0007691383361816406,0.00019621849060058594,0.015527486801147461,41988.0,12.537949905395507,inf,0.08359862801929314,0.2003739302357038,-5.138568162918091,0.09704040301342805,19.36563346648228,1000.0,42.0,22.151746660733394,7.833377353924356,1000.0,1000.0,0.0,42000
43000,0,75.75967319855326,0.0006537437438964844,0.0001373291015625,0.0153350830078125,42988.0,16.766805267333986,inf,0.03477356435420612,5.656967411438624,-5.629876534144084,0.0939368015776078,29.27432506639681,1000.0,43.0,22.954038626647097,10.087187800057643,1000.0,1000.0,0.0,43000
44000,0,75.05950280352157,0.0008566379547119141,0.00017213821411132812,0.01598525047302246,43988.0,12.98684268951416,inf,0.020573024832022686,12.668975035349527,-5.776354869206746,0.0919760422160228,31.584048257370114,1000.0,44.0,34.18664373803203,16.582744712674575,1000.0,1000.0,0.0,44000
45000,0,74.11384361804839,0.0005924701690673828,0.0001385211944580078,0.01570725440979004,44988.0,15.320782947540284,inf,-0.003078679360138873,17.14646275838216,-6.033799568812053,0.09109633788466454,14.83932359001384,1000.0,45.0,27.098257555500616,6.600960002567721,1000.0,1000.0,0.0,45000
46000,0,74.73339182332695,0.0006716251373291016,0.0001361370086669922,0.015319585800170898,45988.0,18.125554122924804,inf,-0.0013514565556154896,23.258581797281902,-6.014796813329061,0.09134729454914729,47.593989088287096,1000.0,46.0,19.24871885854136,5.321093810978586,1000.0,1000.0,0.0,46000
47000,0,75.3979587581127,0.0006318092346191406,0.0003044605255126953,0.015139102935791016,46988.0,15.138885269165039,inf,-0.030502531056602795,28.810664176940918,-6.329504728317261,0.09257280143598716,34.592879530518424,1000.0,47.0,21.859901087986753,10.611691008287986,1000.0,1000.0,0.0,47000
48000,0,75.03715805465687,0.0005960464477539062,0.00013136863708496094,0.015204191207885742,47988.0,16.522248249053956,inf,-0.0529667177858452,34.43215926488241,-6.553536454836528,0.09569444321095943,22.179833681294532,1000.0,48.0,19.500560722936115,7.59492384227244,1000.0,1000.0,0.0,48000
49000,0,75.72832221744767,0.0006620883941650391,0.000141143798828125,0.015305042266845703,48988.0,18.453905754089355,inf,-0.04982184316031635,39.471012115478516,-6.492343584696452,0.10122166698177655,13.70353602021211,1000.0,49.0,17.985072605920266,9.60876589014234,1000.0,1000.0,0.0,49000
50000,0,74.9809254056435,0.0009515285491943359,0.00019073486328125,0.01641368865966797,49988.0,11.659434757232667,inf,-0.07686030026525259,42.281012217203774,-6.720661163330078,0.10666583602627118,6.542049850390624,1000.0,50.0,17.698028297619853,7.63086656344983,1000.0,1000.0,0.0,50000
51000,0,75.32462308092374,0.0008087158203125,0.00016927719116210938,0.016209840774536133,50988.0,11.826448669433594,inf,-0.07010092617323001,45.30385971069336,-6.62572459379832,0.11205521350105603,3.851852788194286,1000.0,51.0,7.213848886108496,7.357729830231164,1000.0,1000.0,0.0,51000
52000,0,73.9489919406025,0.0009851455688476562,0.0002543926239013672,0.015987634658813477,51988.0,12.824275608062743,inf,-0.05596439400687814,47.53495693206787,-6.474090218544006,0.11804516240954399,10.024684319584772,1000.0,52.0,12.133576952512653,5.579235894304897,1000.0,1000.0,0.0,52000
53000,0,75.72897851648403,0.0006642341613769531,0.0001289844512939453,0.015654802322387695,52988.0,5.325323429107666,inf,-0.12786496368547282,45.10150686899821,-7.027115980784099,0.12450089491903782,20.76040672869052,1000.0,53.0,7.089154742621316,7.349557752181306,1000.0,1000.0,0.0,53000
54000,0,75.2563986627796,0.0005886554718017578,0.0001316070556640625,0.01537942886352539,53988.0,19.63019910812378,inf,-0.2371371624370416,29.909018675486248,-7.7327951192855835,0.13688121611873308,0.4230472052077622,1000.0,54.0,1.9896925319623904,3.616239047848792,1000.0,1000.0,0.0,54000
55000,0,69.36228367613965,0.0007066726684570312,0.0001423358917236328,0.015822887420654297,54988.0,16.371492290496825,inf,-0.1409566147873799,35.89979108174642,-6.9750460386276245,0.14457294841607413,0.023534334012239255,1000.0,55.0,5.819599742124058,6.729415228976872,1000.0,1000.0,0.0,55000
56000,0,70.40513084266517,0.0007300376892089844,0.00015974044799804688,0.015173673629760742,55988.0,16.068597946166992,inf,-0.10945913692315419,38.567372957865395,-6.731090823809306,0.14973888422052065,4.667260594588681,1000.0,56.0,6.1682377991848,4.663753101626408,1000.0,1000.0,0.0,56000
57000,0,74.09232004149152,0.0006349086761474609,0.00013709068298339844,0.015264034271240234,56988.0,9.70010440826416,inf,-0.1639006322948262,29.325199127197266,-7.055857022603353,0.15531872088710466,11.938310091409884,1000.0,57.0,4.274405213460964,3.847704548594071,1000.0,1000.0,0.0,57000
58000,0,73.55393002746936,0.0006480216979980469,0.0001666545867919922,0.01603102684020996,57988.0,10.696851196289062,inf,-0.08186492168654998,31.703335603078205,-6.50710928440094,0.1614557976524035,3.8409501310885203,1000.0,58.0,12.625405720270326,7.066279679041449,1000.0,1000.0,0.0,58000
59000,0,75.21267469450876,0.0006349086761474609,0.0001976490020751953,0.015369892120361328,58988.0,12.626744003295899,inf,-0.09437525008494656,25.14494514465332,-6.562963128089905,0.16768400371074677,2.169410880553086,1000.0,59.0,5.4767762090734475,3.4697242440465144,1000.0,1000.0,0.0,59000
60000,0,75.27963081553125,0.0006544589996337891,0.00014519691467285156,0.015144586563110352,59988.0,25.95545810699463,inf,-0.2011436509589354,-0.9169390300909678,-7.146925687789917,0.1753856216867765,2.0741641569827065,1000.0,60.0,12.84310225269591,8.557391759500328,1000.0,1000.0,0.0,60000
61000,0,74.59155458589215,0.0006105899810791016,0.00013899803161621094,0.015392303466796875,60988.0,18.91244359970093,inf,-0.09356288068617384,14.970730940500895,-6.5058326323827105,0.1849809835354487,6.6346414477267075,1000.0,61.0,5.703900238785003,3.779021829271826,1000.0,1000.0,0.0,61000
62000,0,74.35132549906083,0.0006234645843505859,0.00013017654418945312,0.01554107666015625,61988.0,13.609475650787353,inf,-0.002604349283501506,19.983412742614746,-6.0138817230860395,0.18759647632638612,14.110328740617327,1000.0,62.0,8.200135055732911,6.015032712038482,1000.0,1000.0,0.0,62000
63000,0,73.83095380425408,0.0006470680236816406,0.00015401840209960938,0.01484537124633789,62988.0,12.996566562652587,inf,0.022809941554442048,20.046305179595947,-5.878220160802205,0.18730326617757478,11.048997569802417,1000.0,63.0,17.48925238511456,12.185688235491636,1000.0,1000.0,0.0,63000
64000,0,73.70619333170725,0.0005884170532226562,0.0001804828643798828,0.015717744827270508,63988.0,8.054265060424804,inf,0.07563478716959555,20.121798038482666,-5.589678883552551,0.18432742605606714,12.898511802888198,1000.0,64.0,28.09637909617723,7.873285814516557,1000.0,1000.0,0.0,64000
65000,0,75.2775771637953,0.0005586147308349609,0.0001647472381591797,0.015102386474609375,64988.0,14.038249073028565,inf,0.07007250872751077,20.61663595835368,-5.611306667327881,0.18026638279358545,34.59987086725641,1000.0,65.0,29.14606963134719,9.458849944338768,1000.0,1000.0,0.0,65000
66000,0,74.65310359262935,0.0006256103515625,0.000171661376953125,0.01579427719116211,65988.0,27.895901336669922,inf,0.1408723990122477,37.02973874409994,-5.182432413101196,0.17227068543434143,73.96314708270377,1000.0,66.0,32.60780390004696,11.182702007095877,1000.0,1000.0,0.0,66000
67000,0,75.48692194778857,0.0005991458892822266,0.00014209747314453125,0.01552724838256836,66988.0,27.59536636352539,inf,0.19501673430204391,57.03646024068197,-4.7766324281692505,0.15937687953313193,30.12420967935569,1000.0,67.0,41.59660766702679,8.280656589729459,1000.0,1000.0,0.0,67000
68000,0,75.6129905023699,0.0010905265808105469,0.0002086162567138672,0.016390562057495117,67988.0,27.486002044677733,inf,0.199085450420777,73.85197448730469,-4.662015676498413,0.14878036205967268,24.3441832433783,1000.0,68.0,40.593231316921525,8.059986000313074,1000.0,1000.0,0.0,68000
69000,0,75.37736269518697,0.0009324550628662109,0.00016951560974121094,0.015496015548706055,68988.0,26.987637405395507,nan,0.18429596597949663,91.66846783955891,-4.686009486516316,0.14024473478396735,23.345494275841826,1000.0,69.0,29.645663532838427,16.810517899525383,1000.0,1000.0,0.0,69000
70000,0,75.32862740139741,0.0008943080902099609,0.000194549560546875,0.015901803970336914,69988.0,20.79792282104492,nan,0.18345142031709352,98.40079752604167,-4.623288591702779,0.13324807087580362,35.30029437410213,1000.0,70.0,34.80552003733762,11.661370444894526,1000.0,1000.0,0.0,70000
71000,0,75.03850051238601,0.0009367465972900391,0.0001697540283203125,0.01600337028503418,70988.0,17.54147062301636,nan,0.15448984627922377,104.42879931131999,-4.78617246945699,0.1272674724459648,22.737013579506772,1000.0,71.0,21.001499308320195,9.990329642227557,1000.0,1000.0,0.0,71000
72000,0,74.19995810854415,0.0007548332214355469,0.00024127960205078125,0.015330314636230469,71988.0,15.092897109985351,nan,0.14544677548110485,108.10849889119466,-4.808435956637065,0.12204917644460996,17.68410322359368,1000.0,72.0,23.363436899821966,10.734596226343116,1000.0,1000.0,0.0,72000
73000,0,68.22407103898021,0.0006744861602783203,0.00020456314086914062,0.015728235244750977,72988.0,12.076557006835937,nan,0.0883004938562711,106.2303072611491,-5.249524354934692,0.11764791794121265,3.435119504022942,1000.0,73.0,14.682259560642919,4.700674979142801,1000.0,1000.0,0.0,73000
74000,0,70.61854941088127,0.0007028579711914062,0.0001418590545654297,0.015014886856079102,73988.0,15.875621070861817,nan,0.07511006481945515,106.61607615152995,-5.3408792813618975,0.1139504462480545,9.784333163067775,1000.0,74.0,7.498257552054804,8.546806038437548,1000.0,1000.0,0.0,74000
75000,0,68.60917654017582,0.0006215572357177734,0.00012922286987304688,0.015220165252685547,74988.0,15.824737758636475,nan,0.041549187153577805,105.26405461629231,-5.625701030095418,0.11099458299577236,0.6314627200850438,1000.0,75.0,4.761193609213779,5.183703521342647,1000.0,1000.0,0.0,75000
76000,0,74.76019295786497,0.0008502006530761719,0.00022649765014648438,0.015921831130981445,75988.0,13.887646598815918,nan,0.03142530804810425,105.58789126078288,-5.711035331090291,0.10875018313527107,5.031398093563383,1000.0,76.0,8.022620513760698,12.108179993091403,1000.0,1000.0,0.0,76000
77000,0,74.45162911930497,0.0006306171417236328,0.00012922286987304688,0.014782190322875977,76988.0,11.327017498016357,nan,0.021005270226548117,100.42356173197429,-5.805251717567444,0.1078557800501585,3.4277560523788972,1000.0,77.0,3.1454710927420892,1.4244746376557513,1000.0,1000.0,0.0,77000
78000,0,75.36533546463656,0.0007534027099609375,0.0001876354217529297,0.015720129013061523,77988.0,12.934260330200196,nan,0.01313133246731013,99.88937441507976,-5.877129872639974,0.10683761909604073,5.897013507052498,1000.0,78.0,1.9200725964099483,2.417255931140897,1000.0,1000.0,0.0,78000
79000,0,75.40045272946395,0.0006296634674072266,0.00012969970703125,0.014679193496704102,78988.0,10.269701538085938,nan,0.02666459500323981,100.88153648376465,-5.7441933155059814,0.1042259552826484,18.35982517615262,1000.0,79.0,3.3136048383130197,1.08374050093493,1000.0,1000.0,0.0,79000
80000,0,74.28016859703185,0.0006525516510009766,0.0001366138458251953,0.015286922454833984,79988.0,11.533381881713867,nan,0.008104743746419748,101.0033410390218,-5.920820275942485,0.10230965291460355,3.137411920942682,1000.0,80.0,2.4224099932322725,2.7159952564635317,1000.0,1000.0,0.0,80000
81000,0,74.86000017134094,0.0007033348083496094,0.00014472007751464844,0.014575481414794922,80988.0,11.750751304626466,nan,0.020450044811392825,99.04928207397461,-5.798502484957377,0.10146423801779747,7.421409260988659,1000.0,81.0,4.164158088355515,3.5055407025262975,1000.0,1000.0,0.0,81000
82000,0,74.69511500148168,0.0006365776062011719,0.00013256072998046875,0.015213966369628906,81988.0,13.73642765045166,nan,0.01422698343715941,99.78361829121907,-5.857274095217387,0.09967382438480854,5.883759547289546,1000.0,82.0,3.982349782874503,3.3188664018737346,1000.0,1000.0,0.0,82000
83000,0,75.2052844289367,0.0006146430969238281,0.00014019012451171875,0.015619516372680664,82988.0,15.449307327270509,nan,0.037087780268241964,100.82581329345703,-5.6185937722524,0.0972410999238491,11.784083946178095,1000.0,83.0,11.881693521713434,7.15703195680009,1000.0,1000.0,0.0,83000
84000,0,74.24787433511015,0.0006873607635498047,0.00012993812561035156,0.015208244323730469,83988.0,8.753591690063477,nan,-0.009054822769636909,96.3812026977539,-6.094788511594136,0.0955555842568477,9.298477814632824,1000.0,84.0,6.259653125792253,4.766104042362756,1000.0,1000.0,0.0,84000
85000,0,75.79893954234782,0.0007028579711914062,0.00014400482177734375,0.014927148818969727,84988.0,7.5788710403442385,nan,0.0032180697695973017,98.52404530843098,-5.965867042541504,0.09427929172913234,9.29295356942718,1000.0,85.0,15.797351716694214,8.908905705665376,1000.0,1000.0,0.0,85000
86000,0,74.582110837272,0.000667572021484375,0.0001354217529296875,0.015089035034179688,85988.0,12.227331867218018,nan,0.009905007240983347,98.7169558207194,-5.893541177113851,0.09303923944632213,28.399168945638205,1000.0,86.0,8.756226839648441,5.22266296678881,1000.0,1000.0,0.0,86000
87000,0,75.31098993915226,0.001001119613647461,0.00018143653869628906,0.01600813865661621,86988.0,10.625533275604248,nan,0.029548348393291235,96.35413932800293,-5.678732991218567,0.09196706674993038,39.82129544757511,1000.0,87.0,22.066889755941638,8.732869302341964,1000.0,1000.0,0.0,87000
88000,0,75.21321418683085,0.0008802413940429688,0.0001685619354248047,0.01558995246887207,87988.0,9.855207920074463,nan,0.02031631860882044,96.91685803731282,-5.7708660364151,0.08866985763112704,19.729913970772714,1000.0,88.0,30.767756636735577,7.6754484969760846,1000.0,1000.0,0.0,88000
89000,0,74.9455013801552,0.0008542537689208984,0.00015974044799804688,0.017531394958496094,88988.0,12.545931453704833,nan,0.036795448356618486,96.19563293457031,-5.577210148175557,0.08702870706717174,29.0337284850858,1000.0,89.0,22.040647764255823,8.165996305143288,1000.0,1000.0,0.0,89000
90000,0,74.18772627031524,0.0010344982147216797,0.0001823902130126953,0.016513586044311523,89988.0,14.423390026092529,nan,-0.005450446449685842,96.66977183024089,-6.0630202293396,0.08650250049928825,49.726432915194195,1000.0,90.0,36.30753818854466,17.951688972274738,1000.0,1000.0,0.0,90000
91000,0,73.65555860724167,0.0007090568542480469,0.00013017654418945312,0.014510631561279297,90988.0,14.62644983291626,nan,0.01522628745685021,94.3758970896403,-5.823918183644612,0.08642542983094852,46.94143694838769,1000.0,91.0,42.50468206213852,17.06380371791191,1000.0,1000.0,0.0,91000
92000,0,73.99125858582153,0.0009226799011230469,0.00014090538024902344,0.015402555465698242,91988.0,11.770242137908935,nan,0.01870037630821268,92.63275655110677,-5.782404104868571,0.08593677667280038,22.98620047957308,1000.0,92.0,31.88526565533764,12.028950895982524,1000.0,1000.0,0.0,92000
93000,0,69.34907203976651,0.001047372817993164,0.0002162456512451172,0.017475366592407227,92988.0,13.38115665435791,nan,0.03469733094486097,93.31936963399251,-5.5972074667612715,0.08613992171982925,64.61004475359222,1000.0,93.0,28.159461167527546,16.726243703432562,1000.0,1000.0,0.0,93000
94000,0,69.88107416453684,0.0006792545318603516,0.00015354156494140625,0.01613640785217285,93988.0,12.919411029815674,inf,0.006229003265616484,93.12965265909831,-5.926594456036885,0.08480824095507462,17.006644786517015,1000.0,94.0,30.375782839528902,10.533575390686583,1000.0,1000.0,0.0,94000
95000,0,71.37093041617433,0.0007014274597167969,0.00018072128295898438,0.01597142219543457,94988.0,8.55805923461914,inf,-0.005744757829234004,87.12901751200359,-6.066112081209819,0.08690373537441094,99.83893713388747,1000.0,95.0,60.997002871634706,19.96724844799162,1000.0,1000.0,0.0,95000
96000,0,74.7165111165265,0.0006110668182373047,0.00014448165893554688,0.01526498794555664,95988.0,7.042924957275391,inf,0.021658939115392666,88.07202402750652,-5.750475645065308,0.0868010198076566,30.300221038831864,1000.0,96.0,55.041585144143696,16.361200476133593,1000.0,1000.0,0.0,96000
97000,0,75.4192712660097,0.0006568431854248047,0.00012993812561035156,0.015137672424316406,96988.0,9.043818397521973,inf,-0.007601745756498228,81.96447308858235,-6.087387005488078,0.08697976358234882,29.042236648406533,1000.0,97.0,40.34567288653142,12.077781422355352,1000.0,1000.0,0.0,97000
98000,0,74.12557949489394,0.0007078647613525391,0.00013399124145507812,0.01593947410583496,97988.0,13.763138847351074,nan,0.011654610590388378,89.3883565266927,-5.865664641062419,0.08675748979051907,25.869263422531954,1000.0,98.0,44.34432653186356,12.82487506698989,1000.0,1000.0,0.0,98000
99000,0,73.68060840242366,0.0006968975067138672,0.00017380714416503906,0.01594829559326172,98988.0,9.858109378814698,inf,-0.005818418576382101,85.87798881530762,-6.067166646321614,0.08662555242578189,66.52195744167234,1000.0,99.0,42.53198296891226,18.49141449774075,1000.0,1000.0,0.0,99000
100000,0,74.57765506725016,0.0007171630859375,0.00016999244689941406,0.015805482864379883,99988.0,10.933043746948242,inf,-0.008350848336704075,86.46911239624023,-6.096893707911174,0.08618791587650776,41.257783498806866,1000.0,100.0,53.39857288300279,15.171342650299575,1000.0,1000.0,0.0,100000
101000,0,74.58699157729562,0.0006451606750488281,0.00013518333435058594,0.01529073715209961,100988.0,12.0661137008667,inf,-0.05933111533522606,80.96198272705078,-6.691382129987081,0.08583912315467994,51.627287134163296,1000.0,101.0,48.896833187586765,21.43958194066768,1000.0,1000.0,0.0,101000
102000,0,75.58829889995819,0.0006892681121826172,0.00014019012451171875,0.015471696853637695,101988.0,12.190393657684327,inf,0.03176298985878626,85.13465181986491,-5.629689772923787,0.08576713378230731,38.71812973998648,1000.0,102.0,49.36301984426625,11.259035258610227,1000.0,1000.0,0.0,102000
103000,0,74.89817871688754,0.0006728172302246094,0.0001392364501953125,0.015331506729125977,102988.0,4.270945243835449,inf,-0.016873042021567624,83.33275349934895,-6.20309583346049,0.0830868457754453,30.223424490177713,1000.0,103.0,34.45713321049375,10.545844912459623,1000.0,1000.0,0.0,103000
104000,0,74.94678699215349,0.0007450580596923828,0.00017690658569335938,0.0147705078125,103988.0,8.59270767211914,inf,0.01648088466996948,87.59084765116374,-5.796354373296102,0.08089571011563142,24.309930768794946,1000.0,104.0,36.35488761851751,7.923928955742453,1000.0,1000.0,0.0,104000
105000,0,74.89341764213897,0.0006573200225830078,0.00012993812561035156,0.015207052230834961,104988.0,11.108888206481934,inf,0.023290161218028516,88.41997337341309,-5.707715034484863,0.07967999515434106,36.330243467597064,1000.0,105.0,36.23170667887019,11.46095673791818,1000.0,1000.0,0.0,105000
106000,0,74.03472354606625,0.0007522106170654297,0.00018024444580078125,0.015353679656982422,105988.0,12.41850414276123,inf,-0.0021803811735784016,84.12855529785156,-6.02773638566335,0.07854255785544713,48.06776545539911,1000.0,106.0,38.97386285008188,12.339768985498262,1000.0,1000.0,0.0,106000
107000,0,74.23736109380486,0.0008945465087890625,0.00015020370483398438,0.015528440475463867,106988.0,14.17341926574707,inf,0.02094149379990995,89.16003735860188,-5.728249788284302,0.07705569453537464,30.868158283296907,1000.0,107.0,36.65241125868462,11.674038767840004,1000.0,1000.0,0.0,107000
108000,0,74.0912206323971,0.0006260871887207031,0.0001704692840576172,0.014893293380737305,107988.0,11.411082553863526,inf,0.025090761482715607,87.59268887837727,-5.665979544321696,0.07510570995509624,29.560044040689988,1000.0,108.0,36.76552121954842,10.43843849376863,1000.0,1000.0,0.0,108000
109000,0,75.36880238057589,0.0006940364837646484,0.00014352798461914062,0.015530586242675781,108988.0,14.003887825012207,inf,0.01518105286716794,88.0498104095459,-5.793225248654683,0.07341594869891803,30.832003827343176,1000.0,109.0,37.267443798191046,14.31323350934139,1000.0,1000.0,0.0,109000
110000,0,73.63135309661124,0.0006749629974365234,0.0001385211944580078,0.015522003173828125,109988.0,6.8566827392578125,inf,0.011053092777729034,89.2656307220459,-5.84765883286794,0.07254348198572795,18.189511322272157,1000.0,110.0,40.57566506873961,9.10802908015833,1000.0,1000.0,0.0,110000
111000,0,74.5257103949612,0.0006377696990966797,0.00018644332885742188,0.014508724212646484,110988.0,5.983821029663086,inf,0.004277473354401688,88.7872142791748,-5.940313617388408,0.07164963396886985,37.401265822422104,1000.0,111.0,31.73270659883976,11.982497930785858,1000.0,1000.0,0.0,111000
112000,0,74.57701857213675,0.0009593963623046875,0.00017642974853515625,0.019080162048339844,111988.0,10.104172077178955,inf,0.02409580551708738,90.38191668192546,-5.654237985610962,0.06967605588336785,17.568497056480552,1000.0,112.0,27.101680318668173,13.269675455340598,1000.0,1000.0,0.0,112000
113000,0,75.05584938667674,0.0009996891021728516,0.000202178955078125,0.016854047775268555,112988.0,11.195236492156983,inf,0.014767831133212894,93.09706242879231,-5.7809998989105225,0.06741318168739478,41.88441798490786,1000.0,113.0,29.48575208483798,9.731011931078317,1000.0,1000.0,0.0,113000
114000,0,74.29974817151546,0.0008838176727294922,0.0001533031463623047,0.015682697296142578,113988.0,11.081306266784669,inf,0.01916198576024423,92.5374190012614,-5.7066547473271685,0.06531087805827458,35.80352272825245,1000.0,114.0,30.065111643293978,13.490100794436493,1000.0,1000.0,0.0,114000
115000,0,74.20473644543675,0.0009694099426269531,0.00017905235290527344,0.016089677810668945,114988.0,4.268237171173095,inf,0.013487474022743603,94.86970647176106,-5.788963754971822,0.0639099261413018,36.52232838837255,1000.0,115.0,28.547020049883553,12.052658972708242,1000.0,1000.0,0.0,115000
116000,0,73.18517753360446,0.0008907318115234375,0.00015044212341308594,0.015560150146484375,115988.0,11.614442443847656,inf,0.0006654408352915198,97.76468467712402,-5.989367485046387,0.06256272085011005,28.239983641794716,1000.0,116.0,34.583193171557575,21.681506276835094,1000.0,1000.0,0.0,116000
117000,0,74.08457252025433,0.0006213188171386719,0.00013256072998046875,0.015343904495239258,116988.0,12.641585216522216,inf,0.027288787998259068,96.6188252766927,-5.550371487935384,0.06068158304939667,34.71820413649861,1000.0,117.0,22.332452338249304,13.770930758814853,1000.0,1000.0,0.0,117000
118000,0,74.1046775496416,0.0007488727569580078,0.00013756752014160156,0.015513181686401367,117988.0,2.5901599502563477,inf,0.013020728753569225,93.44921557108562,-5.777272780736287,0.05845047440379858,39.4546484448195,1000.0,118.0,26.86243315961614,10.7015198793572,1000.0,1000.0,0.0,118000
119000,0,68.65158034500729,0.0007045269012451172,0.0001506805419921875,0.015725135803222656,118988.0,12.663219604492188,inf,0.0019293258665129542,104.19801966349284,-5.965938250223796,0.056619325342277683,39.31846410761568,1000.0,119.0,32.70773766808697,10.229123543918835,1000.0,1000.0,0.0,119000
120000,0,70.56679502588943,0.000659942626953125,0.00017714500427246094,0.015198230743408203,119988.0,7.145523109436035,inf,0.015638726064935327,103.46134440104167,-5.717377106348674,0.055326986126601696,17.334343302906206,1000.0,120.0,33.00043457284466,10.172077488256363,1000.0,1000.0,0.0,120000
121000,0,69.34659541823184,0.0006477832794189453,0.0001575946807861328,0.01580357551574707,120988.0,10.498867778778076,inf,0.011404766507136324,108.65420087178548,-5.78776216506958,0.05373322063436111,79.88935662974178,1000.0,121.0,32.907129024563275,7.46096898501103,1000.0,1000.0,0.0,121000
122000,0,74.64183768623515,0.0007236003875732422,0.00015211105346679688,0.015515327453613281,121988.0,9.878521327972413,inf,-0.010706516545421133,107.4481856028239,-6.2036110162734985,0.05258293108393749,29.796659563833753,1000.0,122.0,23.684542156342737,6.667092828959455,1000.0,1000.0,0.0,122000
123000,0,75.08406514404211,0.0006592273712158203,0.00014066696166992188,0.015277862548828125,122988.0,14.50770082473755,inf,0.010133215032207469,111.4302978515625,-5.802425662676494,0.051277684358259044,20.328580397408505,1000.0,123.0,29.623075538282837,14.728361764869408,1000.0,1000.0,0.0,123000
124000,0,74.12683713071817,0.0006954669952392578,0.00040078163146972656,0.015207529067993164,123988.0,6.1017535781860355,inf,0.005615907663013786,111.62827237447102,-5.887187918027242,0.049762600722412266,21.176238463400793,1000.0,124.0,26.43830962546037,8.278658300186157,1000.0,1000.0,0.0,124000
125000,0,74.04005569724649,0.0007915496826171875,0.00021123886108398438,0.015849828720092773,124988.0,10.154935741424561,inf,0.0032933324303788445,113.94934463500977,-5.932139992713928,0.04852896090596914,35.704888172549914,1000.0,125.0,20.032834829237252,8.075646922141551,1000.0,1000.0,0.0,125000
126000,0,73.60912701059094,0.0006604194641113281,0.0001380443572998047,0.016025781631469727,125988.0,15.57483081817627,inf,0.00485487503465265,117.92560195922852,-5.898294607798259,0.04773401034375032,11.929889397586653,1000.0,126.0,20.74420039308643,9.173569606369892,1000.0,1000.0,0.0,126000
127000,0,74.18961590464797,0.0007014274597167969,0.00013875961303710938,0.015466690063476562,126988.0,15.232081508636474,inf,0.0037778947153128684,117.21472803751628,-5.91997754573822,0.04721023111293713,30.146726383287177,1000.0,127.0,20.715438626744128,16.840729796322602,1000.0,1000.0,0.0,127000
128000,0,75.13738360282184,0.0007615089416503906,0.00021338462829589844,0.015250205993652344,127988.0,14.598831310272217,inf,-0.007096434264288594,121.6376101175944,-6.155680378278096,0.04558508408566316,7.3899069233619805,1000.0,128.0,9.75225427435439,4.235652537935197,1000.0,1000.0,0.0,128000
129000,0,74.76898877013393,0.0007450580596923828,0.0001888275146484375,0.01513051986694336,128988.0,14.058150844573975,inf,0.013052429654635489,125.93083381652832,-5.70690659681956,0.04453061024347941,42.27456427372077,1000.0,129.0,20.969056603814,14.129047229571778,1000.0,1000.0,0.0,129000
130000,0,73.87131612447806,0.0007081031799316406,0.0001494884490966797,0.015355110168457031,129988.0,13.398890323638916,inf,-0.005293185046563546,123.75375429789226,-6.120479067166646,0.043934853126605354,38.76640900076804,1000.0,130.0,26.015703338325,8.6861376111191,1000.0,1000.0,0.0,130000
131000,0,73.84270425693286,0.0006804466247558594,0.00013780593872070312,0.014994144439697266,130988.0,13.259602603912354,inf,0.0013049126234060775,127.84284909566243,-5.969785730044047,0.04319070838391781,29.595730889639423,1000.0,131.0,23.08828219143507,13.595386305573799,1000.0,1000.0,0.0,131000
132000,0,75.05504353378055,0.0007231235504150391,0.00014901161193847656,0.015613794326782227,131988.0,10.922680149078369,inf,0.007444737624609843,130.02291997273764,-5.822898308436076,0.04202122148126364,13.72249098077846,1000.0,132.0,25.875855784420775,9.379633129762407,1000.0,1000.0,0.0,132000
133000,0,74.23856996504632,0.0006852149963378906,0.00018477439880371094,0.01507568359375,132988.0,12.421599216461182,inf,0.009844110095097372,132.81291834513345,-5.761256814002991,0.041229283126691975,3.9730022550091824,1000.0,133.0,17.264663661447194,9.611573844854076,1000.0,1000.0,0.0,133000
134000,0,73.03439576688916,0.0006265640258789062,0.00014925003051757812,0.016042232513427734,133988.0,12.876114635467529,inf,-0.009225759485464854,135.70382944742838,-6.2257275978724165,0.040891473181545734,11.859974215807663,1000.0,134.0,40.40355847565628,15.235012167221308,1000.0,1000.0,0.0,134000
135000,0,75.92605331164933,0.0006954669952392578,0.000141143798828125,0.015320777893066406,134988.0,14.347698421478272,nan,-0.0018029198787796001,139.25777435302734,-6.044308662414551,0.040702616795897484,20.986243487243502,1000.0,135.0,26.72428892338582,15.253137794516144,1000.0,1000.0,0.0,135000
136000,0,74.4773292099725,0.0006918907165527344,0.0001361370086669922,0.014952421188354492,135988.0,11.475657615661621,nan,0.005735085190584262,141.604855855306,-5.858468174934387,0.040522847014168896,17.333556464155212,1000.0,136.0,23.76533157536047,12.01583555810527,1000.0,1000.0,0.0,136000
137000,0,75.23609578435747,0.0006453990936279297,0.0001373291015625,0.015208959579467773,136988.0,13.03830099105835,nan,3.7939074294020734e-06,141.90219497680664,-5.999908685684204,0.040651618192593254,25.008044034075347,1000.0,137.0,22.07719085405245,10.463716597381094,1000.0,1000.0,0.0,137000
138000,0,74.66447923075171,0.0010519027709960938,0.0001850128173828125,0.017502784729003906,137988.0,11.327990245819091,nan,0.002880577929317951,140.79072062174478,-5.92903733253479,0.040576277300715446,28.302543834279447,1000.0,138.0,31.049939475157856,11.728942773818186,1000.0,1000.0,0.0,138000
139000,0,74.88464601090516,0.0009396076202392578,0.000164031982421875,0.016268253326416016,138988.0,14.882896156311036,nan,0.008566922741010785,146.38667933146158,-5.790862162907918,0.040962195955216885,12.712032815943655,1000.0,139.0,24.96382485783537,9.30159625681566,1000.0,1000.0,0.0,139000
140000,0,74.7225276545953,0.0008978843688964844,0.00015807151794433594,0.01559138298034668,139988.0,9.496516838073731,nan,0.006571874158301701,147.9001604715983,-5.837398489316304,0.040413773929079376,50.20329410019891,1000.0,140.0,35.33078646707213,14.496060535960373,1000.0,1000.0,0.0,140000
141000,0,74.2142949657549,0.0009355545043945312,0.00015425682067871094,0.015671968460083008,140988.0,13.037267227172851,nan,-0.001808485734121253,151.33160273234049,-6.044879635175069,0.04029229128112396,44.79401313824893,1000.0,141.0,34.60750813746976,19.08034431384868,1000.0,1000.0,0.0,141000
142000,0,74.49473708141042,0.0009462833404541016,0.00015091896057128906,0.016873836517333984,141988.0,13.243250007629394,nan,-0.007170092314481735,154.9573516845703,-6.17772110303243,0.04037056894352039,33.94374105336389,1000.0,142.0,35.4633001614754,18.22438767274379,1000.0,1000.0,0.0,142000
143000,0,74.58969748013931,0.0007097721099853516,0.00012874603271484375,0.016396045684814453,142988.0,12.117714443206786,nan,0.005701390279379363,157.94091796875,-5.859668652216594,0.040626601626475654,15.100016645168655,1000.0,143.0,31.626516322467758,12.29948161104935,1000.0,1000.0,0.0,143000
144000,0,74.33577627581005,0.0006983280181884766,0.00013494491577148438,0.015076637268066406,143988.0,15.874804420471191,nan,0.006975748915768539,160.25030517578125,-5.827041546503703,0.04032717179507017,45.95023457894604,1000.0,144.0,30.06280949823296,11.903158008079926,1000.0,1000.0,0.0,144000
145000,0,67.97978841892483,0.0010631084442138672,0.00025463104248046875,0.017462968826293945,144988.0,18.29232406616211,nan,0.0010510652791708708,163.83738072713217,-5.974126815795898,0.04062276830275854,21.292507744613047,1000.0,145.0,27.561015292367593,12.057144236656159,1000.0,1000.0,0.0,145000
146000,0,69.05063412006498,0.0006830692291259766,0.0001976490020751953,0.015675783157348633,145988.0,18.328564205169677,nan,-0.0073392330086790025,166.8818448384603,-6.1792229016621905,0.04095404657224814,48.48321023840046,1000.0,146.0,39.388650044026534,17.76256709212373,1000.0,1000.0,0.0,146000
147000,0,69.20051317519231,0.0006799697875976562,0.00012922286987304688,0.015645742416381836,146988.0,14.28667844772339,nan,0.0007581071889338394,167.07282892862955,-5.982051094373067,0.04222978092730045,33.86772932349248,1000.0,147.0,30.559640892130982,10.319756552265366,1000.0,1000.0,0.0,147000
148000,0,72.43472884710368,0.0006680488586425781,0.00014209747314453125,0.01525425910949707,147988.0,14.927848873138428,nan,-0.0011947937309741974,169.92384974161783,-6.0279107093811035,0.04280856531113386,37.29468333273621,1000.0,148.0,39.82898529673766,10.715220724703766,1000.0,1000.0,0.0,148000
149000,0,75.0505310773283,0.0006802082061767578,0.00013780593872070312,0.015275955200195312,148988.0,20.415859050750733,nan,0.010946561213737974,173.8545061747233,-5.746426224708557,0.04316643656541904,30.024067861596258,1000.0,149.0,36.373744524560635,13.544883152417745,1000.0,1000.0,0.0,149000
150000,0,74.73440384300142,0.0006775856018066406,0.00017595291137695312,0.0155029296875,149988.0,16.184517192840577,nan,0.008341131809478005,175.50331115722656,-5.803244113922119,0.04239206792165836,24.40273775277651,1000.0,150.0,42.17565377276999,13.527907572036012,1000.0,1000.0,0.0,150000
151000,0,73.8664765602766,0.0007326602935791016,0.000148773193359375,0.015020132064819336,150988.0,18.411644916534424,nan,0.004156119684921578,174.8854751586914,-5.900792837142944,0.041892034932971,27.26337739528956,1000.0,151.0,36.79005999307054,12.656887148639818,1000.0,1000.0,0.0,151000
152000,0,74.41702021356173,0.0006804466247558594,0.00016188621520996094,0.015471458435058594,151988.0,21.23308931350708,nan,0.009296379110310227,178.88328552246094,-5.77510678768158,0.04133598258097967,37.68970867072245,1000.0,152.0,33.297227495576564,9.854245191767616,1000.0,1000.0,0.0,152000
153000,0,74.00457475331832,0.0007424354553222656,0.00020360946655273438,0.015468597412109375,152988.0,16.96515075683594,nan,0.007771988884390642,179.2043914794922,-5.811688423156738,0.04127236579855283,36.079602051032424,1000.0,153.0,40.28863258015137,17.570776285186504,1000.0,1000.0,0.0,153000
154000,0,74.65177488906276,0.0006787776947021484,0.0001327991485595703,0.015143632888793945,153988.0,22.032059745788573,nan,-0.009982161379108826,178.9563013712565,-6.238535443941752,0.04184913852562507,30.946186512190604,1000.0,154.0,32.595120193498055,14.600549291130752,1000.0,1000.0,0.0,154000
155000,0,75.19794954321543,0.0006594657897949219,0.0001308917999267578,0.014984369277954102,154988.0,20.584451847076416,nan,0.014206252371271452,182.30145390828451,-5.671627243359883,0.04326176084578037,13.923349935928215,1000.0,155.0,49.55946289541932,19.725181658077783,1000.0,1000.0,0.0,155000
156000,0,74.6247858740573,0.0007071495056152344,0.0001399517059326172,0.015112161636352539,155988.0,23.127287712097168,nan,-0.0020560617558658123,183.38018671671549,-6.0474702914555865,0.043312771866718926,46.72969786886684,1000.0,156.0,54.333107825072695,20.392376597063187,1000.0,1000.0,0.0,156000
157000,0,75.44510102866994,0.0007035732269287109,0.0001289844512939453,0.01519322395324707,156988.0,25.18604705810547,nan,-0.02634978884210189,183.9934336344401,-6.599852720896403,0.0439285971224308,12.506743646250728,1000.0,157.0,49.988678027269835,9.830693755675846,1000.0,1000.0,0.0,157000
158000,0,75.42252614422101,0.0007102489471435547,0.00015163421630859375,0.014913082122802734,157988.0,22.29587902069092,nan,-0.02279000325749318,184.90519587198892,-6.508708357810974,0.04481447581201792,52.932380316993765,1000.0,158.0,46.222082436890986,17.90944396127634,1000.0,1000.0,0.0,158000
159000,0,74.66293746924872,0.00066375732421875,0.00013685226440429688,0.015089988708496094,158988.0,25.300472221374513,nan,-0.008020895989223694,186.6229985555013,-6.170377691586812,0.047085010136167206,78.01810167269683,1000.0,159.0,46.19559415719625,21.11847540133003,1000.0,1000.0,0.0,159000
160000,0,74.74021016977663,0.0006854534149169922,0.00016188621520996094,0.01566910743713379,159988.0,26.35575168609619,nan,-0.029902541156237323,186.8999786376953,-6.623832066853841,0.047960626582304634,51.59526766552845,1000.0,160.0,37.38886135611778,14.502515730821411,1000.0,1000.0,0.0,160000
161000,0,74.0822695155717,0.0010352134704589844,0.00017881393432617188,0.01624608039855957,160988.0,27.118065605163576,nan,0.008486181419963637,188.51386006673178,-5.8262343009312945,0.048836007714271545,26.687675661442363,1000.0,161.0,54.6803100249597,7.762494392373855,1000.0,1000.0,0.0,161000
162000,0,75.176115157016,0.0009553432464599609,0.0001595020294189453,0.015617132186889648,161988.0,29.30157905578613,nan,0.009934450577323636,195.4419962565104,-5.7972521384557085,0.04899534614135822,40.269218117429155,1000.0,162.0,44.11947152916799,14.379948913259264,1000.0,1000.0,0.0,162000
163000,0,74.50352347348122,0.00099945068359375,0.0001609325408935547,0.017693042755126953,162988.0,30.52379020690918,nan,0.011879639991093427,198.9942169189453,-5.760610183080037,0.049622249789536,49.47023127346517,1000.0,163.0,41.8014426341286,12.010302503553048,1000.0,1000.0,0.0,163000
164000,0,75.09627167052565,0.0006747245788574219,0.0001633167266845703,0.014847755432128906,163988.0,27.38052032470703,nan,-0.013160945692410072,196.3541259765625,-6.257643024126689,0.05108494342615207,74.29939395954067,1000.0,164.0,52.092390242660635,20.530280885042426,1000.0,1000.0,0.0,164000
165000,0,75.03914490915805,0.0006766319274902344,0.0001289844512939453,0.014817953109741211,164988.0,30.330670318603516,nan,-0.06400446655849616,193.83041508992514,-7.182626406351726,0.054132490108410515,41.16343836238639,1000.0,165.0,53.74412782948433,11.994366587144581,1000.0,1000.0,0.0,165000
166000,0,68.20281533304107,0.0006868839263916016,0.00013947486877441406,0.014904499053955078,165988.0,30.68230766296387,nan,-0.021597832053278882,196.83045705159506,-6.389930168787639,0.055392734706401825,35.72593110093521,1000.0,166.0,46.52568077122507,13.839469610582084,1000.0,1000.0,0.0,166000
167000,0,70.59544303592936,0.0006589889526367188,0.0001785755157470703,0.015042543411254883,166988.0,27.937118530273438,nan,0.0008936001201315472,196.12448247273764,-5.984206676483154,0.05658388106773297,42.21451392957524,1000.0,167.0,48.048632004295925,20.988452130732288,1000.0,1000.0,0.0,167000
168000,0,69.54759204356276,0.0006580352783203125,0.00013017654418945312,0.015165090560913086,167988.0,31.307610397338866,nan,-0.04386026505380869,198.82909774780273,-6.755199591318767,0.05808292422443628,39.05988670133615,1000.0,168.0,41.07003674202463,15.562855045438344,1000.0,1000.0,0.0,168000
169000,0,75.49974907243202,0.000667572021484375,0.0001304149627685547,0.015489578247070312,168988.0,31.450436630249023,nan,-0.02194862354857226,198.19780604044595,-6.36575444539388,0.060010501804451145,58.3384129802931,1000.0,169.0,57.27643705821181,18.145428609394322,1000.0,1000.0,0.0,169000
170000,0,75.26936367721439,0.0007185935974121094,0.0001361370086669922,0.015363216400146484,169988.0,30.863269653320312,nan,0.010059304962245127,201.35519663492838,-5.834275245666504,0.06069890627016624,55.87093850225703,1000.0,170.0,53.99989227639626,18.55270176760828,1000.0,1000.0,0.0,170000
171000,0,74.76472387541969,0.0007007122039794922,0.00013566017150878906,0.015102386474609375,170988.0,29.984773559570314,nan,-0.017963824308632564,197.0046730041504,-6.291576981544495,0.06160954044510921,40.34523139544299,1000.0,171.0,67.7232673448493,16.809822906029723,1000.0,1000.0,0.0,171000
172000,0,74.2199156849255,0.0007560253143310547,0.00013637542724609375,0.01595282554626465,171988.0,26.93698736190796,nan,0.0038779538687473782,198.56497701009116,-5.937734683354695,0.06227898007879654,60.48870831883631,1000.0,172.0,55.219399206914034,17.465695388795037,1000.0,1000.0,0.0,172000
173000,0,75.39091147009171,0.0006816387176513672,0.00015735626220703125,0.01536417007446289,172988.0,30.88271987915039,nan,-0.01193162853208681,199.0358009338379,-6.184757272402446,0.06458064913749695,58.03171661591342,1000.0,173.0,57.27630304160724,24.407174262740064,1000.0,1000.0,0.0,173000
174000,0,75.43142424493114,0.0007505416870117188,0.00021457672119140625,0.015184640884399414,173988.0,31.464150009155272,nan,0.007404074208655705,201.4154790242513,-5.888349970181783,0.0663137665639321,55.95683037138427,1000.0,174.0,53.15782333487571,14.349185783024286,1000.0,1000.0,0.0,174000
175000,0,75.64866645071506,0.0007617473602294922,0.00016760826110839844,0.01505279541015625,174988.0,32.680939559936526,nan,-0.050789558328688145,194.7527198791504,-6.752017776171367,0.06753793420890968,60.899275366329945,1000.0,175.0,53.70467258888294,19.790235278918,1000.0,1000.0,0.0,175000
176000,0,72.46155876769686,0.0007052421569824219,0.00013017654418945312,0.01512289047241211,175988.0,30.624092636108397,nan,-0.08495551875482003,203.25281524658203,-7.257447004318237,0.06756305942932765,47.63419460532978,1000.0,176.0,39.55437242463002,13.200410138773691,1000.0,1000.0,0.0,176000
177000,0,75.759946881568,0.0006668567657470703,0.00015306472778320312,0.014941215515136719,176988.0,30.592191772460936,nan,-0.0010197539522778243,200.50247955322266,-6.014807780583699,0.06886807394524415,66.72180912203886,1000.0,177.0,58.978978728778614,27.714421037536397,1000.0,1000.0,0.0,177000
178000,0,74.62298021940484,0.0006768703460693359,0.00013685226440429688,0.014814615249633789,177988.0,31.773727111816406,nan,-0.05231103192393979,200.51216761271158,-6.743370334307353,0.07038640168805917,26.964630373730458,1000.0,178.0,56.4381262047584,14.670539779509998,1000.0,1000.0,0.0,178000
179000,0,74.80141787813353,0.0007176399230957031,0.0001575946807861328,0.015367507934570312,178988.0,29.0208678817749,nan,-0.04183832975104451,199.92082595825195,-6.574812173843384,0.07278760708868504,49.49688988466365,1000.0,179.0,51.323147063190106,19.45586340521269,1000.0,1000.0,0.0,179000
180000,0,75.49485685815843,0.0007016658782958984,0.0001380443572998047,0.015090227127075195,179988.0,30.928488464355468,nan,-0.015079178129478047,198.28227869669595,-6.198891679445903,0.07581750551859538,56.151843312586905,1000.0,180.0,47.70616067746762,11.221579099673828,1000.0,1000.0,0.0,180000
181000,0,75.01632926669609,0.0011224746704101562,0.0001575946807861328,0.015167951583862305,180988.0,31.876733551025392,nan,-0.05377178080379963,202.8593978881836,-6.689927299817403,0.07794677279889584,54.20618259628221,1000.0,181.0,44.720871525563055,9.352946492395606,1000.0,1000.0,0.0,181000
182000,0,75.40197087976253,0.0010552406311035156,0.00018930435180664062,0.015707015991210938,181988.0,30.333822021484377,nan,0.0066310094359020395,207.11870829264322,-5.916598558425903,0.07950692189236482,30.431110141934173,1000.0,182.0,39.31691024558266,14.82921114399285,1000.0,1000.0,0.0,182000
183000,0,75.69109587854498,0.0009527206420898438,0.00015807151794433594,0.015416622161865234,182988.0,31.517581634521484,nan,-0.06341803415368001,204.1791000366211,-6.769844730695088,0.08238143225510915,47.52464141558651,1000.0,183.0,49.18134172481003,23.635935528041674,1000.0,1000.0,0.0,183000
184000,0,75.4809990267724,0.0009605884552001953,0.00016117095947265625,0.015604019165039062,183988.0,31.112281837463378,nan,0.0021150908820951977,207.9791628519694,-5.9750120639801025,0.08462011876205604,15.144740576031603,1000.0,184.0,43.20185885729545,18.370170926132783,1000.0,1000.0,0.0,184000
185000,0,73.74527828824894,0.0010254383087158203,0.0001850128173828125,0.01923966407775879,184988.0,32.337572479248045,nan,0.02953014549954484,206.57058461507162,-5.658288359642029,0.08641599863767624,43.262331587166926,1000.0,185.0,48.46714326816095,16.9835840908922,1000.0,1000.0,0.0,185000
186000,0,75.3886349355163,0.0006604194641113281,0.00012969970703125,0.01529693603515625,185988.0,30.09679889678955,nan,0.007494284422136843,203.18704732259116,-5.914020856221517,0.08716459386050701,52.87055181192932,1000.0,186.0,54.06061323497971,17.526221544738956,1000.0,1000.0,0.0,186000
187000,0,72.49687840074559,0.0006916522979736328,0.0002048015594482422,0.015401363372802734,186988.0,31.450946426391603,nan,0.017948435473954305,209.35423278808594,-5.791023373603821,0.08587941775719325,30.413307038318305,1000.0,187.0,53.2895454622341,19.634455445491298,1000.0,1000.0,0.0,187000
188000,0,68.1543628305182,0.0007326602935791016,0.00016498565673828125,0.014847755432128906,187988.0,33.02052696228027,nan,-0.009029170323628932,202.61047871907553,-6.105662663777669,0.08545411253968875,69.63098671587176,1000.0,188.0,35.8182585728103,10.987775619688296,1000.0,1000.0,0.0,188000
189000,0,69.01182362948899,0.0006959438323974609,0.00015354156494140625,0.015207767486572266,188988.0,30.325405044555666,nan,-0.03638696499789754,203.70201873779297,-6.41275958220164,0.08815784379839897,52.19894023994488,1000.0,189.0,58.08777958346546,14.596566962022834,1000.0,1000.0,0.0,189000
190000,0,69.10305659186152,0.0007126331329345703,0.00013399124145507812,0.017130613327026367,189988.0,31.990888900756836,nan,0.02978957467712462,204.2861467997233,-5.675528009732564,0.09180992593367894,77.62809450078055,1000.0,190.0,58.67654364082714,29.70185344427374,1000.0,1000.0,0.0,190000
191000,0,74.26622707457602,0.0007300376892089844,0.0001430511474609375,0.01544809341430664,190988.0,32.185127868652344,nan,-0.21693276365598044,200.02270126342773,-8.338369131088257,0.09282970428466797,53.037968959939384,1000.0,191.0,25.407198565336564,9.370206203237395,1000.0,1000.0,0.0,191000
192000,0,74.06003195262761,0.0008044242858886719,0.00022792816162109375,0.015989303588867188,191988.0,31.92725616455078,nan,-0.03250998832906286,204.13157653808594,-6.342165986696879,0.09501878047982852,33.14926923166972,1000.0,192.0,42.869584207344026,10.577264466161397,1000.0,1000.0,0.0,192000
193000,0,74.81417320812173,0.0006191730499267578,0.00013136863708496094,0.015091180801391602,192988.0,29.400751495361327,nan,0.013821951462887228,201.35407638549805,-5.855999112129211,0.09598121978342533,90.00343411610827,1000.0,193.0,52.14369915128769,10.829615047176054,1000.0,1000.0,0.0,193000
194000,0,75.08164581932591,0.0007929801940917969,0.0001373291015625,0.015072345733642578,193988.0,31.73430046081543,nan,-0.04056876494238774,203.71385447184244,-6.423838019371033,0.09571885814269383,52.05180629479526,1000.0,194.0,44.98834310537241,7.3143480111746975,1000.0,1000.0,0.0,194000
195000,0,75.50703421081246,0.0007281303405761719,0.0001392364501953125,0.015258312225341797,194988.0,31.751262435913088,nan,0.03816402625913421,208.4567782084147,-5.602645357449849,0.09604134658972423,31.688981188806373,1000.0,195.0,42.61833038418355,9.269761017657329,1000.0,1000.0,0.0,195000
196000,0,74.95128698150835,0.0007355213165283203,0.00015211105346679688,0.015237569808959961,195988.0,32.22212425231933,nan,0.029147827221701544,201.7541300455729,-5.696187535921733,0.09593612949053447,34.9192614068998,1000.0,196.0,45.7739711484492,16.294303064823588,1000.0,1000.0,0.0,196000
197000,0,74.2774851048487,0.0007627010345458984,0.00014781951904296875,0.015474557876586914,196988.0,31.508704910278322,nan,-0.06372929054001968,202.6721331278483,-6.653039256731669,0.09759603999555111,43.54652109536692,1000.0,197.0,50.93620033194925,19.624337885039463,1000.0,1000.0,0.0,197000
198000,0,74.8113442449382,0.0006492137908935547,0.00014734268188476562,0.014937400817871094,197988.0,31.55910453796387,nan,-0.011032320733647794,205.77924219767252,-6.109698851903279,0.100569657360514,58.48833929254769,1000.0,198.0,52.42956999190709,12.953681197773257,1000.0,1000.0,0.0,198000
199000,0,75.37367827080803,0.00069427490234375,0.00013184547424316406,0.015052080154418945,198988.0,32.46595252990723,nan,-0.014924719386423627,201.81561406453451,-6.146708607673645,0.10174028637508552,77.76390560536996,1000.0,199.0,54.38497862795447,25.116546355371376,1000.0,1000.0,0.0,199000
200000,0,75.18576385278855,0.0007348060607910156,0.00014638900756835938,0.01484537124633789,199988.0,30.633407249450684,nan,-0.033846049065080784,199.1800168355306,-6.326504111289978,0.10366292670369148,7.720942124726167,1000.0,200.0,31.398368942595045,19.161770373109388,1000.0,1000.0,0.0,200000
