niicovila/Q-Reps/lightning_research_framework/results/XSAC_TEST/sac_2/log copy.csv
time/steps,time/epochs,time/steps_per_second,time/dataset,time/preprocess,time/train_step,train/env_steps,train/q_loss,train/target_q,train/alpha_loss,train/actor_loss,train/entropy,train/alpha,train/reward,train/length,train/num_ep,eval/reward,eval/stddev,eval/length,eval/discount,eval/early_termination,step
1000,0,79.98907619885284,0.0004482269287109375,0.00013017654418945312,0.014693737030029297,988.0,-21.98770149230957,37.02842071533203,-0.465141033132871,-115.26669820149739,-10.656014204025269,0.09990966816743214,5.786051653900212,1000.0,1.0,6.322078582798914,3.5144934134013264,1000.0,1000.0,0.0,1000
2000,0,77.87274651417538,0.0004978179931640625,0.0001506805419921875,0.014992713928222656,1988.0,17.99584930419922,-17.25266067504883,0.32689667244752246,59.37443542480469,-2.6854119896888733,0.09861823295553525,3.3573686330453922,1000.0,2.0,13.604865826321378,4.956860965104787,1000.0,1000.0,0.0,2000
3000,0,76.98151549723444,0.0005102157592773438,0.00014281272888183594,0.014835596084594727,2988.0,30.17946029663086,-inf,-0.5141784275571505,304.9756622314453,-11.192562500635782,0.09903351093331973,12.382727612111605,1000.0,3.0,4.8996790777710215,1.3570911428293975,1000.0,1000.0,0.0,3000
4000,0,74.77437389468881,0.0004937648773193359,0.00013518333435058594,0.015485286712646484,3988.0,33.7410807800293,-inf,-0.48411984990040463,285.219965616862,-10.54579226175944,0.10650779741505782,3.219956783579643,1000.0,4.0,6.254361399666588,0.9299389902307694,1000.0,1000.0,0.0,4000
5000,0,72.85714087194332,0.00051116943359375,0.0001285076141357422,0.015570878982543945,4988.0,-21.962759857177733,-inf,-0.3061591113607089,24.672388553619385,-8.807332515716553,0.10906281135976315,12.314552714716285,1000.0,5.0,0.135963509623822,0.05188678599761823,1000.0,1000.0,0.0,5000
6000,0,75.30449970124558,0.0005977153778076172,0.000148773193359375,0.015210390090942383,5988.0,-21.98431106567383,14.566059608459472,-1.034812221924464,-72.44409497578938,-14.927638212839762,0.11593012697994709,0.5333325274601041,1000.0,6.0,0.29816179508216,0.04178478728447495,1000.0,1000.0,0.0,6000
7000,0,75.14336041690255,0.0008211135864257812,0.0001895427703857422,0.016227006912231445,6988.0,12.99609525680542,-1.537305896282196,0.29752970735232037,24.76474078496297,-3.5261049469312034,0.1202629879117012,5.008490797784017,1000.0,7.0,0.07940145574292032,0.01705670258093124,1000.0,1000.0,0.0,7000
8000,0,75.00087619851439,0.0008397102355957031,0.0001952648162841797,0.016026020050048828,7988.0,17.609533615112305,21.468838577270507,0.4098992720246315,1.8330262005329132,-2.697125415007273,0.12409818544983864,4.732404882844429,1000.0,8.0,0.43930711095889335,0.017807055563053294,1000.0,1000.0,0.0,8000
9000,0,72.65848414275092,0.001817464828491211,0.00018787384033203125,0.016145706176757812,8988.0,17.335702972412108,16.922272300720216,0.5649803976217905,0.5296585770944754,-1.5013356705506642,0.1255797470609347,9.340500488283041,1000.0,9.0,37.41684995734865,7.887110639988812,1000.0,1000.0,0.0,9000
10000,0,73.63843725069384,0.0008594989776611328,0.00015854835510253906,0.016286134719848633,9988.0,17.060599822998046,9.134885864257813,0.38059016813834506,6.271862546602885,-3.0125067035357156,0.1273886263370514,31.76627626019374,1000.0,10.0,71.46278550961107,12.882088781089244,1000.0,1000.0,0.0,10000
11000,0,76.05348380943401,0.0007350444793701172,0.00015783309936523438,0.016016244888305664,10988.0,-21.995901260375977,7.69317060470581,-1.677640567223231,-93.71458625793457,-18.96623929341634,0.12941287582119307,26.774929062691687,1000.0,11.0,2.9930303912146377,1.9474114889199645,1000.0,1000.0,0.0,11000
12000,0,75.57800187255525,0.0008759498596191406,0.0001804828643798828,0.0168764591217041,11988.0,-2.1615092849731443,-22.477299041748047,0.31151774525642395,40.315643628438316,-3.6169861555099487,0.13071878626942635,3.3691833888186347,1000.0,12.0,7.406415385835484,0.7474626826581637,1000.0,1000.0,0.0,12000
13000,0,74.5190900020183,0.0006937980651855469,0.0001609325408935547,0.01566600799560547,12988.0,17.820619583129883,11.12286018371582,0.2197555216650168,22.413182258605957,-4.368297656377156,0.13467361157139143,4.962598851104333,1000.0,13.0,3.481966536732292,0.8983073234138272,1000.0,1000.0,0.0,13000
14000,0,74.65661159731498,0.0005652904510498047,0.00013780593872070312,0.015707015991210938,13988.0,-2.0697987365722654,33.61714294433594,-0.09609217041482528,-10.193607727686564,-6.685988386472066,0.14007875447471937,4.773133976561528,1000.0,14.0,4.019178514635099,3.0572004357069194,1000.0,1000.0,0.0,14000
15000,0,74.60535312419735,0.0005609989166259766,0.0001373291015625,0.01524972915649414,14988.0,-2.086675109863281,20.23599609375,0.13385093646744886,5.700501799583435,-5.0752837260564165,0.1447469803194205,18.055965205770114,1000.0,15.0,35.9238706594093,18.371668172144055,1000.0,1000.0,0.0,15000
16000,0,69.34416483206174,0.0006225109100341797,0.00013756752014160156,0.015000104904174805,15988.0,24.30087547302246,inf,-0.8239487955967585,-56.2710158030192,-11.508790969848633,0.14958487947781882,28.0679468837953,1000.0,16.0,90.58067908080332,53.37781101177205,1000.0,1000.0,0.0,16000
17000,0,69.72146680408258,0.000644683837890625,0.00013780593872070312,0.015376091003417969,16988.0,15.914854469299316,inf,-0.5195205708344778,-50.22357622782389,-9.323067744572958,0.15634899834791818,55.88142118555317,1000.0,17.0,35.064335078921914,13.592187044197052,1000.0,1000.0,0.0,17000
18000,0,70.22120252041357,0.0005762577056884766,0.00015115737915039062,0.015284538269042969,17988.0,15.978816833496094,inf,-0.28882113347450894,-35.41582934061686,-7.79496157169342,0.1609132637580236,40.43081013013702,1000.0,18.0,49.33954693209991,16.135306406093825,1000.0,1000.0,0.0,18000
19000,0,69.34356867656959,0.0006761550903320312,0.0001728534698486328,0.015650033950805664,18988.0,12.002597122192382,inf,-0.01545495008273671,-17.883814652760822,-6.094639341036479,0.16330256188909212,40.5260077473301,1000.0,19.0,45.594507177496475,19.61488577721852,1000.0,1000.0,0.0,19000
20000,0,70.34840229794834,0.0006189346313476562,0.00014710426330566406,0.01555490493774414,19988.0,7.7784904098510745,inf,0.08156848636766274,-29.88372278213501,-5.502686699231465,0.16401582583785057,13.786706969946534,1000.0,20.0,56.99331762759717,24.56640166083873,1000.0,1000.0,0.0,20000
21000,0,73.31089536982789,0.0008254051208496094,0.0001747608184814453,0.015680789947509766,20988.0,6.78685733795166,inf,0.10330562417705853,-40.08262411753336,-5.368202129999797,0.16351053987940153,74.92841562040361,1000.0,21.0,38.39020799291297,10.8721099581547,1000.0,1000.0,0.0,21000
22000,0,74.7933613131293,0.0006761550903320312,0.0001366138458251953,0.01475667953491211,21988.0,-0.13478317260742187,inf,0.04541917081223801,-55.20927492777506,-5.720298171043396,0.16238389164209366,42.48618841261652,1000.0,22.0,38.0648865500891,20.32672508816798,1000.0,1000.0,0.0,22000
23000,0,74.97840549615876,0.0005941390991210938,0.00014257431030273438,0.015259027481079102,22988.0,26.48523338317871,inf,-0.3186215211947759,-90.74891916910808,-7.945057233174642,0.16382718334595361,23.55664924281624,1000.0,23.0,68.61082521735224,43.24470428245315,1000.0,1000.0,0.0,23000
24000,0,74.61751068123661,0.0006248950958251953,0.0001938343048095703,0.015443086624145508,23988.0,6.456644554138183,inf,-0.07270613498985767,-66.8586877187093,-6.439086516698201,0.16558563336730003,30.1328004331073,1000.0,24.0,46.18860027409601,21.81922877891999,1000.0,1000.0,0.0,24000
25000,0,74.76946860123844,0.0006983280181884766,0.00024771690368652344,0.015675783157348633,24988.0,20.803368701934815,inf,0.11414482817053795,-54.10948785146078,-5.3158191839853925,0.16682619974017143,62.90491817778132,1000.0,25.0,36.20911432468158,12.621996404639951,1000.0,1000.0,0.0,25000
26000,0,74.21497781143613,0.0006265640258789062,0.0001308917999267578,0.014774560928344727,25988.0,16.400326824188234,inf,0.3339450682202975,-36.93701585133871,-3.8598058223724365,0.15600423266490301,13.695647470861037,1000.0,26.0,31.602158250083278,15.465979279890727,1000.0,1000.0,0.0,26000
27000,0,74.79256108686364,0.0006308555603027344,0.0001361370086669922,0.014945268630981445,26988.0,11.7553759765625,inf,0.35334084928035736,-26.77670669555664,-3.5648610989252725,0.14508279288808504,48.17065990928308,1000.0,27.0,47.86903041161123,42.929156290553635,1000.0,1000.0,0.0,27000
28000,0,74.05914272779216,0.0006654262542724609,0.0001392364501953125,0.015178680419921875,27988.0,7.885904331207275,inf,0.3704189906517665,-16.91730046272278,-3.2803569634755454,0.13618650287389755,50.393997329517696,1000.0,28.0,65.91514439985725,34.79206944401118,1000.0,1000.0,0.0,28000
29000,0,74.97336618527983,0.0006031990051269531,0.00014138221740722656,0.015145063400268555,28988.0,7.612397575378418,inf,0.2973819027344386,-15.6788969039917,-3.694661478201548,0.12898856649796167,29.19687288285978,1000.0,29.0,28.16100013096757,10.121337438968444,1000.0,1000.0,0.0,29000
30000,0,74.59829400340061,0.0006191730499267578,0.00013017654418945312,0.01569676399230957,29988.0,8.491757678985596,inf,0.25279712428649265,-14.662034034729004,-3.950827896595001,0.12335484847426414,44.52371343247448,1000.0,30.0,49.85177988240601,16.79430289054391,1000.0,1000.0,0.0,30000
31000,0,75.71208244040227,0.0006151199340820312,0.00015807151794433594,0.015290260314941406,30988.0,4.089326171875,inf,0.22058026865124702,-14.964667479197184,-4.136603097120921,0.11836636749406655,51.972806335413885,1000.0,31.0,63.5757675552724,19.000969475239927,1000.0,1000.0,0.0,31000
32000,0,74.21245659752941,0.0005884170532226562,0.00016427040100097656,0.015254497528076172,31988.0,8.185874824523927,inf,0.19683135176698366,-11.948641538619995,-4.27409553527832,0.11403510719537735,34.972485006793036,1000.0,32.0,72.9784394117362,22.228674802210957,1000.0,1000.0,0.0,32000
33000,0,75.06578966207451,0.0006892681121826172,0.0001316070556640625,0.015029191970825195,32988.0,11.612222309112548,inf,0.1671698528031508,-10.113917589187622,-4.480615297953288,0.11001892077426116,90.31134709448922,1000.0,33.0,60.816944641601616,26.937979434768607,1000.0,1000.0,0.0,33000
34000,0,75.71902586969473,0.000652313232421875,0.00013637542724609375,0.015554189682006836,33988.0,11.041920738220215,inf,0.16574938222765923,-10.420733213424683,-4.43793253103892,0.10610249452292919,57.18603279297168,1000.0,34.0,55.56271575190276,14.744929900759695,1000.0,1000.0,0.0,34000
35000,0,75.1187054585885,0.0006422996520996094,0.0001361370086669922,0.015553712844848633,34988.0,8.16744873046875,inf,0.0904941080758969,-13.952500661214193,-5.117825110753377,0.10257031333943208,41.596345544660636,1000.0,35.0,65.77922841123642,34.813557619872924,1000.0,1000.0,0.0,35000
36000,0,74.98371358798059,0.0006792545318603516,0.00012946128845214844,0.015064716339111328,35988.0,4.352940139770507,inf,0.08118141597757737,-14.831831932067871,-5.188480973243713,0.10002599656581879,41.49804155346922,1000.0,36.0,51.38096666157596,27.96953716405372,1000.0,1000.0,0.0,36000
37000,0,75.8531687471426,0.0006282329559326172,0.00013589859008789062,0.015111923217773438,36988.0,14.869559993743897,inf,0.08702587150037289,-5.211357633272807,-5.1068553527196245,0.09743054956197739,45.326303958468195,1000.0,37.0,46.59775556887931,19.550231326939112,1000.0,1000.0,0.0,37000
38000,0,74.56588166608711,0.0005846023559570312,0.00012993812561035156,0.014992952346801758,37988.0,5.426106491088867,inf,-0.028407723119016737,-21.928627490997314,-6.299792766571045,0.09475793068607648,28.362464897789934,1000.0,38.0,44.70063578338031,9.54782077183691,1000.0,1000.0,0.0,38000
39000,0,74.07813493465207,0.0006575584411621094,0.0001475811004638672,0.015040874481201172,38988.0,8.999622764587402,inf,0.052774445774654545,-10.928906798362732,-5.4334849913914995,0.09315167553722858,72.68609630147805,1000.0,39.0,57.71408263093507,19.251003379100148,1000.0,1000.0,0.0,39000
40000,0,75.2484597968403,0.0007169246673583984,0.00015020370483398438,0.015321731567382812,39988.0,8.149560089111327,inf,0.02452714826601247,-11.540342092514038,-5.7288070519765215,0.09040981158614159,33.71338849453581,1000.0,40.0,46.14826594012195,16.324367982134984,1000.0,1000.0,0.0,40000
41000,0,75.30157945913183,0.0006585121154785156,0.0001366138458251953,0.015233278274536133,40988.0,4.941356964111328,inf,0.023978712308841448,-11.615358511606852,-5.727737307548523,0.088070934638381,38.020314582893185,1000.0,41.0,62.31440321030484,24.34175916421742,1000.0,1000.0,0.0,41000
42000,0,75.08616201824995,0.0005664825439453125,0.00017380714416503906,0.015114545822143555,41988.0,3.8690945053100587,inf,0.007809088604214291,-13.027067104975382,-5.911028703053792,0.08777037387092908,18.3630755439602,1000.0,42.0,29.998954978722516,10.256333785179525,1000.0,1000.0,0.0,42000
43000,0,74.13857712327818,0.0006632804870605469,0.0001323223114013672,0.015659809112548828,42988.0,11.17859432220459,inf,0.03292595990933478,-6.045314371585846,-5.617523829142253,0.08609174316128095,62.35018727016795,1000.0,43.0,33.67448174886685,10.493584758398422,1000.0,1000.0,0.0,43000
44000,0,75.09740110922675,0.0006601810455322266,0.00013589859008789062,0.015352249145507812,43988.0,10.289334526062012,inf,0.0554053271189332,-8.813290198644003,-5.347990194956462,0.08496907415489356,36.57406765210791,1000.0,44.0,37.97911345756364,10.397762314596728,1000.0,1000.0,0.0,44000
45000,0,75.23426042584455,0.0006251335144042969,0.00012969970703125,0.015002250671386719,44988.0,7.804443073272705,inf,0.016948043485172093,-7.572303295135498,-5.7957561413447065,0.08297192119061947,28.467286078232167,1000.0,45.0,54.4198789179459,27.183190993095536,1000.0,1000.0,0.0,45000
46000,0,73.21634927916624,0.0008981227874755859,0.00019621849060058594,0.016056299209594727,45988.0,5.277238540649414,inf,-0.0026797228880847492,-8.643682916959127,-6.033173839251201,0.08080566426118214,25.15994314015059,1000.0,46.0,28.179550557451513,9.301639028362054,1000.0,1000.0,0.0,46000
47000,0,74.88555516990684,0.0009751319885253906,0.00019812583923339844,0.01677989959716797,46988.0,21.299975605010985,inf,0.08775559874872367,2.4845960289239883,-4.855621695518494,0.07667034740249316,43.50347676753725,1000.0,47.0,23.774583181295913,11.655790351280736,1000.0,1000.0,0.0,47000
48000,0,75.2608818916853,0.0010056495666503906,0.0001671314239501953,0.01607346534729004,47988.0,13.054917335510254,inf,0.10559744574129581,10.119763533274332,-4.499271074930827,0.07035159319639206,24.437786782304666,1000.0,48.0,34.43965683268296,14.051117577252878,1000.0,1000.0,0.0,48000
49000,0,74.29669476297636,0.0008673667907714844,0.000152587890625,0.0156557559967041,48988.0,12.463182468414306,inf,0.07198370061814785,13.711201429367065,-4.916939735412598,0.06645575786630313,15.406818184537844,1000.0,49.0,31.10410005330874,10.167261354298388,1000.0,1000.0,0.0,49000
50000,0,75.64069917670507,0.0008952617645263672,0.0001983642578125,0.017581462860107422,49988.0,6.52633638381958,inf,0.062185961132248245,13.858888626098633,-5.023401141166687,0.06367213651537895,52.9672996206378,1000.0,50.0,37.504305653727386,16.722958257237096,1000.0,1000.0,0.0,50000
51000,0,76.31007663931057,0.0008661746978759766,0.00015497207641601562,0.015662431716918945,50988.0,13.840154647827148,inf,0.03719413668538133,15.95102047920227,-5.4000000556310015,0.06198619492352009,33.97639247020671,1000.0,51.0,34.568903672448194,36.59366840337896,1000.0,1000.0,0.0,51000
52000,0,75.63573412197498,0.00113677978515625,0.00016760826110839844,0.0161435604095459,51988.0,14.247222023010254,inf,0.0104838697394977,18.313156604766846,-5.827110926310222,0.06064181743810574,25.03221231353511,1000.0,52.0,41.362395783452314,15.873885912014877,1000.0,1000.0,0.0,52000
53000,0,74.36366408640737,0.0006372928619384766,0.00012922286987304688,0.014492511749267578,52988.0,7.0037109375,inf,0.00784944622622182,20.058641751607258,-5.866724689801534,0.0588762437303861,25.20563937021435,1000.0,53.0,37.64439866988432,19.339821008237077,1000.0,1000.0,0.0,53000
54000,0,74.56667704906609,0.0006864070892333984,0.00015211105346679688,0.015526771545410156,53988.0,9.377551078796387,inf,0.00961171321493263,19.980331103007,-5.8335104783376055,0.05772293700526158,16.632030731811916,1000.0,54.0,38.40849606409752,19.895300170548058,1000.0,1000.0,0.0,54000
55000,0,75.16560682599044,0.0007236003875732422,0.00013899803161621094,0.015001296997070312,54988.0,9.525678291320801,inf,0.025413347175344825,22.17016824086507,-5.552205562591553,0.05674013619621595,49.521850134826586,1000.0,55.0,26.406899466540892,14.636829519917026,1000.0,1000.0,0.0,55000
56000,0,74.86892639957617,0.0007913112640380859,0.00015807151794433594,0.01549386978149414,55988.0,10.556008071899415,inf,0.01526677591027692,21.465298811594646,-5.726889530817668,0.055899476942916713,43.90655821312908,1000.0,56.0,18.677524358595846,8.562828338203834,1000.0,1000.0,0.0,56000
57000,0,70.82805060343017,0.0006840229034423828,0.00013446807861328125,0.015548467636108398,56988.0,7.156633834838868,inf,0.008011186223787567,22.166353225708008,-5.855321168899536,0.055368044413626194,30.56196290143394,1000.0,57.0,34.164357742394245,20.68161740448795,1000.0,1000.0,0.0,57000
58000,0,67.25676431499926,0.0006418228149414062,0.00013780593872070312,0.015606880187988281,57988.0,10.702973365783691,inf,0.0033462113545586667,27.257505257924397,-5.940051555633545,0.05579758062958717,10.952210705382875,1000.0,58.0,29.58143956401698,9.68693397441407,1000.0,1000.0,0.0,58000
59000,0,70.3094396908084,0.0007202625274658203,0.00017189979553222656,0.015085935592651367,58988.0,14.93418779373169,inf,-0.035486268888538085,24.70931069056193,-6.630015850067139,0.056326452953120075,29.882683273843547,1000.0,59.0,28.801610913919358,7.354145838089121,1000.0,1000.0,0.0,59000
60000,0,69.81119388129429,0.0006282329559326172,0.0001289844512939453,0.01539158821105957,59988.0,6.832007884979248,inf,0.010273288935422897,26.39137585957845,-5.818278352419536,0.056526819554468,26.265234957411153,1000.0,60.0,31.72589590312264,18.390545722819407,1000.0,1000.0,0.0,60000
61000,0,70.18726626857719,0.0006232261657714844,0.0001304149627685547,0.015164613723754883,60988.0,13.972983779907226,inf,-0.003523227535576249,31.131936232248943,-6.062193314234416,0.056650083201626934,64.8551443627547,1000.0,61.0,24.482542117259385,10.214246235142756,1000.0,1000.0,0.0,61000
62000,0,75.44385254511913,0.0006544589996337891,0.0001285076141357422,0.015042781829833984,61988.0,9.772614917755128,inf,0.006381130893714726,30.982920169830322,-5.884951710700989,0.055426446410516896,23.97263284582772,1000.0,62.0,23.90105181178006,7.573464822967957,1000.0,1000.0,0.0,62000
63000,0,75.10546951662371,0.0006883144378662109,0.0001685619354248047,0.015223979949951172,62988.0,11.694300384521485,inf,-0.0030680590231592455,31.360633214314777,-6.055769522984822,0.055090841837227345,18.454422030894616,1000.0,63.0,32.005620928704936,11.07574379135618,1000.0,1000.0,0.0,63000
64000,0,75.12354904205611,0.0006458759307861328,0.0001289844512939453,0.015073299407958984,63988.0,16.722905502319335,inf,0.022320461634080857,41.21234385172526,-5.582507133483887,0.05346354655921459,54.48701172680388,1000.0,64.0,22.102825586677763,7.010443373407514,1000.0,1000.0,0.0,64000
65000,0,75.25483235931381,0.0006146430969238281,0.0001385211944580078,0.015073299407958984,64988.0,12.95670518875122,inf,0.007953611318953335,46.10117530822754,-5.84349250793457,0.05081889281670252,15.94476463350057,1000.0,65.0,30.887800773776483,11.308901737881959,1000.0,1000.0,0.0,65000
66000,0,75.44656669252122,0.0007576942443847656,0.0001399517059326172,0.014810323715209961,65988.0,11.479662246704102,inf,0.017163969033087294,45.44908618927002,-5.652976910273234,0.04945775493979454,40.88833852163765,1000.0,66.0,42.18120388033427,21.883096639328144,1000.0,1000.0,0.0,66000
67000,0,74.13558936173071,0.00078582763671875,0.00015044212341308594,0.015328168869018555,66988.0,11.906488227844239,inf,-0.03108481364324689,46.03046226501465,-6.619551181793213,0.05017860637356838,27.36419679137862,1000.0,67.0,43.70707598294161,17.194293171992314,1000.0,1000.0,0.0,67000
68000,0,75.51350502738741,0.0007545948028564453,0.00020599365234375,0.01531672477722168,67988.0,23.971853408813477,inf,0.03217714947337905,52.70766798655192,-5.357557853062947,0.0500780384366711,67.06448982538866,1000.0,68.0,33.12851795590554,8.262663987545542,1000.0,1000.0,0.0,68000
69000,0,74.57049512357821,0.0006453990936279297,0.00016689300537109375,0.015463590621948242,68988.0,23.006200370788573,inf,0.04721696209162474,69.6095650990804,-4.978773752848308,0.04622952298571666,56.8222362336545,1000.0,69.0,34.682245453749275,11.752360431387382,1000.0,1000.0,0.0,69000
70000,0,75.38121005211242,0.0006656646728515625,0.00013685226440429688,0.015383243560791016,69988.0,22.14012134552002,inf,0.0456723611180981,83.9121863047282,-4.947272698084514,0.043378003872931004,32.75856089847672,1000.0,70.0,38.181915685169905,14.562189522041802,1000.0,1000.0,0.0,70000
71000,0,75.01257272687602,0.0006754398345947266,0.0001385211944580078,0.015167713165283203,70988.0,18.75429054260254,inf,0.02383762365207076,96.0554593404134,-5.423740744590759,0.041360228322446346,24.514081595207983,1000.0,71.0,36.293004899164714,10.636286533531223,1000.0,1000.0,0.0,71000
72000,0,74.02662223743987,0.0007660388946533203,0.00017380714416503906,0.015633106231689453,71988.0,17.491292896270753,inf,0.022998472054799397,105.73951721191406,-5.423039436340332,0.03986028643945853,33.98995150556375,1000.0,72.0,36.91612344626408,6.779399473900721,1000.0,1000.0,0.0,72000
73000,0,75.3979587581127,0.0006892681121826172,0.00016021728515625,0.015429258346557617,72988.0,9.512179527282715,inf,0.007058049047676225,108.8619155883789,-5.817834933598836,0.038744822765390076,21.84310194691742,1000.0,73.0,45.89726289043334,8.964273054727053,1000.0,1000.0,0.0,73000
74000,0,75.04027263014089,0.0006914138793945312,0.00013756752014160156,0.014896631240844727,73988.0,12.997636032104491,inf,-0.0019571568991523236,111.4091199239095,-6.051429470380147,0.03805694915354252,45.534633576663836,1000.0,74.0,56.962361040755596,13.852597927270688,1000.0,1000.0,0.0,74000
75000,0,75.71093443698902,0.0006558895111083984,0.0001621246337890625,0.015188932418823242,74988.0,7.8376025390625,inf,-0.012923307484015822,107.9345874786377,-6.340174476305644,0.03798943944275379,25.844879550557817,1000.0,75.0,57.78080716455173,10.755894302936534,1000.0,1000.0,0.0,75000
76000,0,75.01471927498896,0.0007109642028808594,0.000141143798828125,0.015024662017822266,75988.0,7.762746505737304,inf,-0.004737541079521179,108.79160753885905,-6.121705532073975,0.03892884124070406,72.3024395262695,1000.0,76.0,55.73565566853059,17.491823720039747,1000.0,1000.0,0.0,76000
77000,0,73.72272421754818,0.0006825923919677734,0.00013756752014160156,0.015103578567504883,76988.0,12.583653144836425,inf,-0.007812490007684876,111.10906791687012,-6.192901849746704,0.04050604812800884,52.020893883133034,1000.0,77.0,53.58915676883596,21.09362658462754,1000.0,1000.0,0.0,77000
78000,0,74.95085838781202,0.0007796287536621094,0.00014519691467285156,0.016093730926513672,77988.0,9.80524663925171,inf,-0.02509898894156019,107.63721783955891,-6.594899773597717,0.042189521404604115,80.49412226534275,1000.0,78.0,60.776683066148465,18.187985178194868,1000.0,1000.0,0.0,78000
79000,0,75.53286972406748,0.0006732940673828125,0.00012922286987304688,0.015563726425170898,78988.0,6.521850738525391,inf,-0.01637118395107488,106.59948348999023,-6.374216437339783,0.0437507051974535,48.14525840048774,1000.0,79.0,76.20609791654252,26.16737220442917,1000.0,1000.0,0.0,79000
80000,0,74.77592026191425,0.0006277561187744141,0.00017070770263671875,0.015030622482299805,79988.0,12.938365097045898,inf,-0.011725524343394985,112.24956639607747,-6.25921614964803,0.045247314497828484,58.22139853053251,1000.0,80.0,70.71869044927851,24.08170515958027,1000.0,1000.0,0.0,80000
81000,0,75.20096961699412,0.0006737709045410156,0.00013828277587890625,0.015246152877807617,80988.0,11.373258647918702,inf,-0.02449352596886456,109.71853001912434,-6.517075975735982,0.04738623773058256,50.459317215529715,1000.0,81.0,54.66237798367473,20.594754677348902,1000.0,1000.0,0.0,81000
82000,0,75.94304503382244,0.0006439685821533203,0.0001354217529296875,0.015001058578491211,81988.0,11.549394664764405,inf,-0.0024010304380984357,111.52649561564128,-6.048632224400838,0.04937203414738178,55.399457920862105,1000.0,82.0,68.93466699192388,27.02267088996409,1000.0,1000.0,0.0,82000
83000,0,74.83622510189764,0.0006766319274902344,0.00015544891357421875,0.015146255493164062,82988.0,9.660613040924073,inf,-0.012551373685710132,114.70900408426921,-6.247859040896098,0.05065338872373104,32.13930083609016,1000.0,83.0,59.479531657496,20.34707101584695,1000.0,1000.0,0.0,83000
84000,0,74.5393786062964,0.0006518363952636719,0.0002562999725341797,0.015633821487426758,83988.0,4.370463600158692,inf,-0.017316466779448092,110.87638028462727,-6.331288973490397,0.05226797020683686,62.45264146895453,1000.0,84.0,79.22925313061901,18.35364798670747,1000.0,1000.0,0.0,84000
85000,0,74.66277798031352,0.0006995201110839844,0.00013709068298339844,0.015511512756347656,84988.0,9.462542839050293,inf,-0.02030804008245468,114.4977175394694,-6.3808073202768965,0.05333177652209997,43.45922130803788,1000.0,85.0,44.893003319086084,16.583983926188953,1000.0,1000.0,0.0,85000
86000,0,75.59489265005598,0.0006163120269775391,0.0001361370086669922,0.01529550552368164,85988.0,15.403222408294678,inf,0.0001542338189513733,122.52549107869466,-5.997209231058757,0.05521681408087412,56.17660932278703,1000.0,86.0,52.00751153528802,17.91413415385349,1000.0,1000.0,0.0,86000
87000,0,75.42323140486357,0.0006334781646728516,0.00012922286987304688,0.015056133270263672,86988.0,8.298614616394042,inf,-0.003118642586438606,121.73795636494954,-6.054731845855713,0.05698559836794933,90.3346902964321,1000.0,87.0,52.529245045726285,24.155344902745163,1000.0,1000.0,0.0,87000
88000,0,74.96125316694595,0.0009889602661132812,0.00019860267639160156,0.016230106353759766,87988.0,8.503793678283692,inf,-0.013330827001482248,122.91853841145833,-6.23034405708313,0.05787824715177218,43.06982425163793,1000.0,88.0,44.37900464228374,21.38801729929038,1000.0,1000.0,0.0,88000
89000,0,74.5991431502532,0.000675201416015625,0.00013136863708496094,0.01521921157836914,88988.0,9.341051807403565,inf,-0.010288817264760533,128.7812360127767,-6.176848769187927,0.05820418273409208,36.44474230560461,1000.0,89.0,41.49326152553682,15.48651847916405,1000.0,1000.0,0.0,89000
90000,0,73.98609007091848,0.0007383823394775391,0.0001666545867919922,0.014852762222290039,89988.0,14.34342571258545,inf,-0.00037859494720275205,133.43346150716147,-6.006385326385498,0.05929711150626341,46.97251237318667,1000.0,90.0,49.72579688549085,25.47476777078604,1000.0,1000.0,0.0,90000
91000,0,74.3524326409403,0.0006725788116455078,0.00014090538024902344,0.015260696411132812,90988.0,12.357268829345703,inf,-0.00796535040717572,137.48306528727213,-6.132251103719075,0.06022439431399107,31.91108966262303,1000.0,91.0,44.673893783044,23.32502305604269,1000.0,1000.0,0.0,91000
92000,0,74.85358742922084,0.0006277561187744141,0.00013494491577148438,0.014723062515258789,91988.0,10.522361850738525,inf,-0.0016056872652067493,140.29716110229492,-6.026462276776631,0.06067775593449672,62.454830894070085,1000.0,92.0,49.611043741354436,22.113725858894092,1000.0,1000.0,0.0,92000
93000,0,74.7922943485803,0.0007631778717041016,0.0001342296600341797,0.01484227180480957,92988.0,7.517908039093018,inf,0.00046322615041087073,143.02812830607095,-5.992533922195435,0.06175231312712034,35.4171567670183,1000.0,93.0,47.569702528235354,18.927514771617208,1000.0,1000.0,0.0,93000
94000,0,74.79928351974137,0.0005996227264404297,0.00016546249389648438,0.015041351318359375,93988.0,10.178019275665283,nan,-0.006560090017349769,146.04289754231772,-6.105681260426839,0.06211203305671612,29.449155624441886,1000.0,94.0,51.628219215412436,18.08026734895781,1000.0,1000.0,0.0,94000
95000,0,76.143338067893,0.0006151199340820312,0.00013971328735351562,0.015166997909545898,94988.0,14.69619104385376,nan,0.0021286539655799666,153.24329121907553,-5.965846498807271,0.06232124256591002,23.82768776566681,1000.0,95.0,37.425453995820604,16.437042492106606,1000.0,1000.0,0.0,95000
96000,0,75.25688477021579,0.0006716251373291016,0.00016808509826660156,0.015205144882202148,95988.0,13.565035343170166,nan,0.0033720471255946904,156.46246210734049,-5.9466389417648315,0.06318372053404649,71.87318696563796,1000.0,96.0,55.29142717113941,16.891226685920945,1000.0,1000.0,0.0,96000
97000,0,74.925740646394,0.0009763240814208984,0.0002090930938720703,0.018399715423583984,96988.0,15.348148078918458,nan,-0.01597702914538483,156.61815388997397,-6.25138243039449,0.06356158666312695,38.58623124823008,1000.0,97.0,37.94572431623416,16.296236421213898,1000.0,1000.0,0.0,97000
98000,0,75.82519455689045,0.0009679794311523438,0.00018906593322753906,0.016030311584472656,97988.0,17.85562084197998,nan,0.0007949504943098873,163.3012466430664,-5.987657904624939,0.0643858549495538,67.92367797037926,1000.0,98.0,35.22946710563407,11.520913951500146,1000.0,1000.0,0.0,98000
99000,0,75.95492725950436,0.0008924007415771484,0.0001544952392578125,0.01468515396118164,98988.0,15.169624633789063,nan,0.008254455150260279,164.67908096313477,-5.87315571308136,0.0650754738599062,46.99541768524315,1000.0,99.0,47.661755906299575,23.774720851173115,1000.0,1000.0,0.0,99000
100000,0,73.65866302884105,0.0008420944213867188,0.00016045570373535156,0.016207218170166016,99988.0,15.254410533905029,nan,-0.004422141704708338,168.3191006978353,-6.066094795862834,0.06693270678321521,43.77433149160913,1000.0,100.0,32.013305447245735,12.829668203816674,1000.0,1000.0,0.0,100000
101000,0,74.75475658164895,0.0008757114410400391,0.00016355514526367188,0.015927553176879883,100988.0,19.944662494659426,nan,0.004745152041626473,171.27532450358072,-5.931646823883057,0.06942303230365117,50.69269647887509,1000.0,101.0,50.805647307687266,21.64216261421637,1000.0,1000.0,0.0,101000
102000,0,75.22621829303026,0.0009093284606933594,0.000164031982421875,0.015053272247314453,101988.0,21.416817989349365,nan,-0.003810268419329077,174.7615089416504,-6.054951270421346,0.06934112558762233,37.021181056480124,1000.0,102.0,44.39367768530083,15.356391923993234,1000.0,1000.0,0.0,102000
103000,0,75.26579785294481,0.0009899139404296875,0.00016379356384277344,0.01592111587524414,102988.0,23.311386165618895,nan,0.0025273732220133147,178.72079722086588,-5.9644062121709185,0.07099777522186439,26.873235521677064,1000.0,103.0,39.39554212317038,20.807540693475417,1000.0,1000.0,0.0,103000
104000,0,75.82431726904727,0.0008640289306640625,0.00016546249389648438,0.015527486801147461,103988.0,18.001863021850586,nan,-0.023587135287622612,177.4922218322754,-6.32198965549469,0.07327819429337978,33.94323343136193,1000.0,104.0,38.56328310979993,19.92103187112597,1000.0,1000.0,0.0,104000
105000,0,75.49985779550634,0.0005888938903808594,0.000164031982421875,0.016222238540649414,104988.0,20.623129596710204,nan,-0.015846285852603614,180.44448471069336,-6.207828044891357,0.07624566368758678,64.02669801605597,1000.0,105.0,53.1682086363655,15.66817677809273,1000.0,1000.0,0.0,105000
106000,0,76.4514515609256,0.000598907470703125,0.00013494491577148438,0.014940738677978516,105988.0,24.904133377075194,nan,-0.0014478495577350259,185.0692278544108,-6.018543680508931,0.0780779297153155,30.321623375352043,1000.0,106.0,52.11207306561353,21.891350252935016,1000.0,1000.0,0.0,106000
107000,0,74.87288241489495,0.0005955696105957031,0.0001347064971923828,0.015399932861328125,106988.0,21.770613288879396,nan,-0.051184989201525845,180.56755956013998,-6.627546826998393,0.0815684547026952,44.4786130759902,1000.0,107.0,51.93923661318157,11.651757625571433,1000.0,1000.0,0.0,107000
108000,0,75.25218599470654,0.0007383823394775391,0.0001456737518310547,0.014916181564331055,107988.0,25.73596736907959,nan,-0.0010368218451427917,183.46997578938803,-6.012490312258403,0.08317091564337413,34.65572945288023,1000.0,108.0,33.759404817970314,12.93737808131089,1000.0,1000.0,0.0,108000
109000,0,73.31694397131582,0.0006182193756103516,0.00013065338134765625,0.015286922454833984,108988.0,26.326960792541502,nan,-0.010679143539164215,186.8965301513672,-6.123949925104777,0.08616303528348605,30.66433964900419,1000.0,109.0,36.31159153194555,9.185976831613988,1000.0,1000.0,0.0,109000
110000,0,68.73082345815851,0.0006396770477294922,0.0001347064971923828,0.014978170394897461,109988.0,26.665142631530763,nan,-0.016265072918031365,187.91253026326498,-6.183712283770244,0.08853734967609246,43.17657770371857,1000.0,110.0,43.90573491928248,17.01657577101991,1000.0,1000.0,0.0,110000
111000,0,70.0091469317719,0.0006735324859619141,0.00013685226440429688,0.014590263366699219,110988.0,29.060168685913087,nan,-0.029002424601155024,191.00289154052734,-6.317676266034444,0.09129418681065242,34.77350619273103,1000.0,111.0,56.130077481919976,14.92037307244539,1000.0,1000.0,0.0,111000
112000,0,70.36922205534371,0.0006461143493652344,0.00013566017150878906,0.015192747116088867,111988.0,27.522117462158203,nan,-0.03144065236362318,189.78077189127603,-6.330838720003764,0.0950358926008145,27.13975211820868,1000.0,112.0,50.636407325716874,19.736675311805143,1000.0,1000.0,0.0,112000
113000,0,74.26533289138571,0.0006263256072998047,0.00012803077697753906,0.014887809753417969,112988.0,26.190289115905763,nan,-0.3280400186777115,164.69545618693033,-9.141560951868692,0.10443422632912795,29.14900570100946,1000.0,113.0,24.708737806416764,17.714658070735577,1000.0,1000.0,0.0,113000
114000,0,75.59532864101922,0.0006573200225830078,0.00013828277587890625,0.015956401824951172,113988.0,26.018727989196776,nan,-0.11100153190394242,179.83920923868814,-7.010428071022034,0.10986182528237502,30.63286370863549,1000.0,114.0,36.32281605858598,15.444575685875616,1000.0,1000.0,0.0,114000
115000,0,75.34313309870996,0.0006480216979980469,0.00014543533325195312,0.014838457107543945,114988.0,29.228392791748046,nan,-0.055926987125227846,187.68778228759766,-6.499598383903503,0.11194968658188979,50.53464162018037,1000.0,115.0,42.32260426879596,11.761444046264618,1000.0,1000.0,0.0,115000
116000,0,75.13189223349457,0.0006117820739746094,0.00012922286987304688,0.014707803726196289,115988.0,32.0842552947998,nan,-0.014851614221697673,194.02609634399414,-6.130449891090393,0.11384041731556256,38.32750112579642,1000.0,116.0,51.13302431318064,20.068132219759885,1000.0,1000.0,0.0,116000
117000,0,74.66623372646866,0.0006387233734130859,0.00013756752014160156,0.015234947204589844,116988.0,32.46550193786621,nan,-0.0789029107739528,197.02712758382162,-6.676403045654297,0.11665571977694829,61.74165020627518,1000.0,117.0,41.374324291494396,29.37273947602918,1000.0,1000.0,0.0,117000
118000,0,74.07755927011517,0.0007309913635253906,0.0001418590545654297,0.016206741333007812,117988.0,32.822446746826174,nan,-0.07135819115986426,196.236452738444,-6.589927315711975,0.1209826214859883,17.084094041735533,1000.0,118.0,30.597993641074787,9.87154388357844,1000.0,1000.0,0.0,118000
119000,0,74.05454002292453,0.0006635189056396484,0.00013589859008789062,0.014833211898803711,118988.0,31.68214080810547,nan,-0.06702499246845643,202.6554069519043,-6.537726203600566,0.12465384354194005,48.70423065489143,1000.0,119.0,45.08177894211059,14.715242958162074,1000.0,1000.0,0.0,119000
120000,0,75.56803440780864,0.0006060600280761719,0.0001285076141357422,0.015081644058227539,119988.0,34.20822845458984,nan,-0.0401262022399654,200.53502146402994,-6.31099812189738,0.1290407031774521,53.59627385403699,1000.0,120.0,46.51954886453704,14.071687888324005,1000.0,1000.0,0.0,120000
121000,0,75.85443081470507,0.00064849853515625,0.00012946128845214844,0.015690088272094727,120988.0,33.910681915283206,nan,-0.07322191384931405,200.71404012044272,-6.5366049607594805,0.13646030922730765,41.42527441215128,1000.0,121.0,55.98235267821112,16.77469851387291,1000.0,1000.0,0.0,121000
122000,0,74.94898334802184,0.0007650852203369141,0.00020837783813476562,0.01511240005493164,121988.0,33.7298592376709,nan,-0.04979541680465142,205.9573860168457,-6.351111014684041,0.14182581628362337,69.96797593506396,1000.0,122.0,38.47884143843055,10.258373303401354,1000.0,1000.0,0.0,122000
123000,0,75.2403066510911,0.0006542205810546875,0.0001277923583984375,0.015022754669189453,122988.0,34.41325294494629,nan,-0.07839130129044254,205.08529917399088,-6.531665841738383,0.14746067052086195,38.04881040264306,1000.0,123.0,40.12668460300547,17.09982868361074,1000.0,1000.0,0.0,123000
124000,0,74.30190676690025,0.0007143020629882812,0.00016164779663085938,0.015036582946777344,123988.0,34.396035232543944,nan,-0.051427095041920744,209.44523493448892,-6.3411630392074585,0.1507504197458426,42.39013672944984,1000.0,124.0,44.35481258123578,12.888905990767158,1000.0,1000.0,0.0,124000
125000,0,76.04173616409031,0.0007662773132324219,0.00016117095947265625,0.015090227127075195,124988.0,34.526209335327145,nan,-0.024564567836932838,209.78341420491537,-6.157562732696533,0.15591465681791306,40.83936199173034,1000.0,125.0,60.954061571291696,19.40987974023163,1000.0,1000.0,0.0,125000
126000,0,75.60088796666736,0.0006556510925292969,0.0001399517059326172,0.015514612197875977,125988.0,35.097092132568356,nan,-0.03673954354599118,208.32317988077799,-6.2271697123845415,0.1617488438884417,56.73573063656155,1000.0,126.0,43.79919067519516,12.511944270542214,1000.0,1000.0,0.0,126000
127000,0,75.01750997120423,0.0006544589996337891,0.00013327598571777344,0.015219449996948242,126988.0,34.580814361572266,nan,-0.04568566343126198,210.2915064493815,-6.269157250722249,0.1697474035123984,41.035815779567834,1000.0,127.0,51.80171330758428,19.722264558452782,1000.0,1000.0,0.0,127000
128000,0,74.14932457230219,0.0006182193756103516,0.0001289844512939453,0.014787673950195312,127988.0,35.000741729736326,nan,-0.06882692128419876,204.1567866007487,-6.3820423285166425,0.18015925089518228,53.77353843598927,1000.0,128.0,48.306657798536705,17.78223527434697,1000.0,1000.0,0.0,128000
129000,0,76.33551997938326,0.0007147789001464844,0.00017213821411132812,0.015583992004394531,128988.0,35.70574295043945,nan,-0.07941960962489247,207.0702044169108,-6.423780043919881,0.18743466213345528,32.71065953043521,1000.0,129.0,46.372648818559796,12.584836768983088,1000.0,1000.0,0.0,129000
130000,0,75.89302645387761,0.000637054443359375,0.00016951560974121094,0.014906167984008789,129988.0,35.9691748046875,nan,0.009775845644374689,209.46701939900717,-5.949257731437683,0.19266188268860182,67.54389342993792,1000.0,130.0,33.974464909452216,16.06123607669936,1000.0,1000.0,0.0,130000
131000,0,75.00522173040993,0.0005857944488525391,0.00013113021850585938,0.015265226364135742,130988.0,36.05286178588867,nan,-0.012721410719677806,212.90159606933594,-6.0651014645894366,0.19540927683313689,23.216705448221454,1000.0,131.0,41.87001850191409,17.42916413122061,1000.0,1000.0,0.0,131000
132000,0,76.28809126260917,0.0010833740234375,0.00022172927856445312,0.01566791534423828,131988.0,36.15361572265625,nan,0.02330836021186163,215.09626897176108,-5.882246255874634,0.1979347604016463,24.386602896616548,1000.0,132.0,15.60554235790778,11.555095707355477,1000.0,1000.0,0.0,132000
133000,0,75.54364427538111,0.0006318092346191406,0.0001556873321533203,0.014922142028808594,132988.0,36.34248870849609,nan,-0.05380376738806566,215.33725865681967,-6.268376270929973,0.20049254347880682,13.036409449203152,1000.0,133.0,21.49247035856965,16.78739691974538,1000.0,1000.0,0.0,133000
134000,0,75.38299839395887,0.0006244182586669922,0.00015664100646972656,0.015070438385009766,133988.0,36.01873748779297,nan,0.029052291841556627,215.47183481852213,-5.8594406843185425,0.2066782129307588,21.666180026294526,1000.0,134.0,33.35819240110603,13.92419581996205,1000.0,1000.0,0.0,134000
135000,0,76.41417928666321,0.0006709098815917969,0.00015544891357421875,0.015024423599243164,134988.0,36.242972717285156,nan,-0.039378061114499964,215.74956130981445,-6.18838365872701,0.20907357955972353,34.697683101697415,1000.0,135.0,33.25546729029738,15.428628605731973,1000.0,1000.0,0.0,135000
136000,0,75.69060414553775,0.0006890296936035156,0.00013947486877441406,0.015133857727050781,135988.0,36.35401016235352,nan,-0.03176658654895922,218.63350931803384,-6.152552803357442,0.2082273835937182,25.11908699389414,1000.0,136.0,52.29991568487228,24.827036341462428,1000.0,1000.0,0.0,136000
137000,0,74.01507440499299,0.0006468296051025391,0.00014257431030273438,0.015379905700683594,136988.0,36.71190704345703,nan,-0.009027533233165741,214.37847391764322,-6.042283018430074,0.21351810544729233,46.878937551257735,1000.0,137.0,17.719579981658825,14.835987225943963,1000.0,1000.0,0.0,137000
138000,0,75.264771390406,0.0006802082061767578,0.00013113021850585938,0.015423297882080078,137988.0,36.49287872314453,nan,-0.018242586442890268,216.87406158447266,-6.083099524180095,0.21958661700288454,14.306414048236542,1000.0,138.0,32.91738163598076,14.841388385691744,1000.0,1000.0,0.0,138000
139000,0,75.83484606316581,0.0006716251373291016,0.0001456737518310547,0.01473236083984375,138988.0,36.439677963256834,nan,-0.034581049461849034,216.88861465454102,-6.154702345530192,0.22355562075972557,27.14653647934013,1000.0,139.0,32.68213954496036,11.719206457151982,1000.0,1000.0,0.0,139000
140000,0,75.35677788142426,0.0010373592376708984,0.00020456314086914062,0.016305208206176758,139988.0,36.82412490844727,nan,-0.058195890548328556,217.7542406717936,-6.255008816719055,0.22823852052291235,35.56096441312718,1000.0,140.0,33.21313254630577,16.701402749480735,1000.0,1000.0,0.0,140000
141000,0,75.2842249158723,0.0009381771087646484,0.00016832351684570312,0.015021562576293945,140988.0,36.4316943359375,nan,0.03322774978975455,220.07692209879556,-5.856491883595784,0.2315175806482633,25.066875681380154,1000.0,141.0,40.77838836078598,15.193326806483986,1000.0,1000.0,0.0,141000
142000,0,75.44146425693565,0.0009105205535888672,0.00015211105346679688,0.015845537185668945,141988.0,36.67433380126953,nan,0.03213086538016796,220.3335393269857,-5.85966428120931,0.2289202647904555,33.685609924854184,1000.0,142.0,30.58232123734864,19.3250215623835,1000.0,1000.0,0.0,142000
143000,0,75.02625907619569,0.0008807182312011719,0.00017070770263671875,0.015156269073486328,142988.0,36.86482528686523,nan,0.021152859670110047,217.97652435302734,-5.909536759058635,0.2338255817691485,17.917367654255752,1000.0,143.0,36.04459689732126,7.240411945619877,1000.0,1000.0,0.0,143000
144000,0,74.37690361991014,0.0010440349578857422,0.00019979476928710938,0.016069412231445312,143988.0,36.92733489990234,nan,0.034838711066792406,217.4707819620768,-5.85510516166687,0.24043152605493864,34.00645725467134,1000.0,144.0,24.877635433092316,11.808332308263036,1000.0,1000.0,0.0,144000
145000,0,75.62100647617949,0.0006558895111083984,0.00018072128295898438,0.015219688415527344,144988.0,36.50206787109375,nan,0.05905101029202342,216.9063262939453,-5.754347960154216,0.24037816872199377,15.026769845481443,1000.0,145.0,34.76833125567321,14.389033575422177,1000.0,1000.0,0.0,145000
146000,0,76.21467649450982,0.0006573200225830078,0.00012969970703125,0.014817476272583008,145988.0,36.18572082519531,nan,0.06491943192668259,214.72675959269205,-5.737939874331157,0.24768579502900442,27.732535502323756,1000.0,146.0,47.37386987058038,16.467849054291197,1000.0,1000.0,0.0,146000
147000,0,76.39881297162921,0.001107931137084961,0.0002148151397705078,0.016115903854370117,146988.0,36.47923812866211,nan,-0.059024625147382416,214.88890965779623,-6.2378249168396,0.24823709825674692,8.012288312848787,1000.0,147.0,38.006327208700746,23.033999990402595,1000.0,1000.0,0.0,147000
148000,0,67.71235988722528,0.0006282329559326172,0.00017404556274414062,0.015134811401367188,147988.0,36.00855911254883,nan,-0.001551935604463021,215.9315045674642,-6.006180604298909,0.25196096549431485,33.158109589176796,1000.0,148.0,31.574082375563034,13.887650102983104,1000.0,1000.0,0.0,148000
149000,0,69.05163449868591,0.0006427764892578125,0.00014495849609375,0.015343904495239258,148988.0,35.98806091308594,nan,-0.01803566748276353,213.21180216471353,-6.07301386197408,0.24708623190720877,31.061581173834554,1000.0,149.0,21.49325148219013,9.89396987478799,1000.0,1000.0,0.0,149000
150000,0,71.36485863840139,0.0006988048553466797,0.00012874603271484375,0.015596151351928711,149988.0,35.661297912597654,nan,-0.02550934945854048,215.65576680501303,-6.105148633321126,0.24260491381088892,11.161924300812569,1000.0,150.0,7.577023708937328,6.581266836381219,1000.0,1000.0,0.0,150000
151000,0,76.75032589991194,0.0006244182586669922,0.00016808509826660156,0.015299797058105469,150988.0,35.87334060668945,nan,-0.05327837929750482,210.30982208251953,-6.217945575714111,0.244459867477417,22.763267131900292,1000.0,151.0,31.32318284592579,8.794831721167329,1000.0,1000.0,0.0,151000
152000,0,75.77007454338923,0.0006341934204101562,0.00013947486877441406,0.014989137649536133,151988.0,35.90779975891113,nan,-0.018134595438217122,205.02555211385092,-6.074242313702901,0.2442900314927101,43.944498181032685,1000.0,152.0,39.61239581617521,7.720701638280614,1000.0,1000.0,0.0,152000
153000,0,75.22146938453427,0.0006284713745117188,0.00018596649169921875,0.014761209487915039,152988.0,35.855850830078126,nan,0.030183809615361195,210.2328643798828,-5.874664465586345,0.24079391856988272,52.0049012774835,1000.0,153.0,33.88674741299804,9.616116159872812,1000.0,1000.0,0.0,153000
154000,0,75.8494376625744,0.0006186962127685547,0.00013136863708496094,0.01491236686706543,153988.0,35.730605926513675,nan,-0.037433853334126375,205.53087107340494,-6.157163302103679,0.23821050052841505,17.07534341960563,1000.0,154.0,38.78740595308765,11.27964293582074,1000.0,1000.0,0.0,154000
155000,0,75.87880243923442,0.000667572021484375,0.0001361370086669922,0.015001773834228516,154988.0,35.9266926574707,nan,0.0452992906793952,206.96303431193033,-5.807237505912781,0.2349851131439209,40.60170277020006,1000.0,155.0,55.984979839611036,19.492595952029887,1000.0,1000.0,0.0,155000
156000,0,75.49561782762615,0.00061798095703125,0.0001316070556640625,0.015014171600341797,155988.0,35.188140869140625,nan,-0.0031565360259264708,206.52134577433267,-6.0135875542958575,0.23247680813074112,95.38998792977723,1000.0,156.0,34.616502280727744,11.988171033155432,1000.0,1000.0,0.0,156000
157000,0,75.35092951228451,0.0006577968597412109,0.00013875961303710938,0.01537179946899414,156988.0,34.60189147949219,nan,-0.0697402887744829,200.28028996785483,-6.3004642724990845,0.23216132819652557,29.723730994744592,1000.0,157.0,41.73367169709711,15.837772693434752,1000.0,1000.0,0.0,157000
158000,0,75.09299111267072,0.0006608963012695312,0.00013208389282226562,0.015290021896362305,157988.0,34.77940353393555,nan,0.05634767080967625,202.0722452799479,-5.759593486785889,0.2343806413312753,89.42037112751008,1000.0,158.0,44.53917625092285,23.475864992709386,1000.0,1000.0,0.0,158000
159000,0,75.29606406415607,0.0006330013275146484,0.0001361370086669922,0.015334844589233398,158988.0,34.843250122070316,nan,0.059294711565598845,199.15004221598306,-5.739257216453552,0.22732838864127794,70.74656644076457,1000.0,159.0,52.437820546929416,18.215798610872636,1000.0,1000.0,0.0,159000
160000,0,75.76323123198631,0.0006124973297119141,0.00012826919555664062,0.015115022659301758,159988.0,34.862895812988285,nan,0.022284479501346748,198.0622355143229,-5.900519092877706,0.2240046188235283,23.929953403791806,1000.0,160.0,58.90828298984337,19.095031888616088,1000.0,1000.0,0.0,160000
161000,0,75.49056310366475,0.0006797313690185547,0.0001442432403564453,0.015131235122680664,160988.0,34.883236236572266,nan,-0.014334830533092221,195.3084627787272,-6.063399791717529,0.22616834565997124,44.91642759887779,1000.0,161.0,24.167370939446037,18.23794991714215,1000.0,1000.0,0.0,161000
162000,0,75.2273516439052,0.0006613731384277344,0.00013017654418945312,0.015423774719238281,161988.0,34.72323257446289,nan,0.0139668226086845,196.9947395324707,-5.937777082125346,0.2244221568107605,50.59083737172685,1000.0,162.0,26.561799102605164,20.34420107456887,1000.0,1000.0,0.0,162000
163000,0,74.81486713742748,0.0006475448608398438,0.00018310546875,0.015095710754394531,162988.0,34.61983818054199,nan,0.03770209829478214,194.4892946879069,-5.828996102015178,0.22047229980429014,37.62041287550975,1000.0,163.0,31.935493284260737,16.221695309003355,1000.0,1000.0,0.0,163000
164000,0,75.93342095639485,0.0006587505340576172,0.00013065338134765625,0.014985799789428711,163988.0,34.5998210144043,nan,-0.05332109126417587,193.78989791870117,-6.241807341575623,0.22052011638879776,38.660569209096174,1000.0,164.0,47.905153241816116,13.398198283513624,1000.0,1000.0,0.0,164000
165000,0,76.15815926324046,0.0006263256072998047,0.0001671314239501953,0.014815807342529297,164988.0,34.347433471679686,nan,-0.06516699337710936,191.6368153889974,-6.295646945635478,0.2204258143901825,29.776004992922495,1000.0,165.0,37.598784697728824,20.607083138243144,1000.0,1000.0,0.0,165000
166000,0,75.54092313898954,0.0006182193756103516,0.00018715858459472656,0.015097856521606445,165988.0,34.317290725708006,nan,-0.04101376134591798,188.26781209309897,-6.187604387601216,0.2186724878847599,56.47843950065981,1000.0,166.0,54.760841879956544,20.748526964825924,1000.0,1000.0,0.0,166000
167000,0,73.83693254955202,0.0006098747253417969,0.0001289844512939453,0.014691829681396484,166988.0,35.089183502197265,nan,-0.12414850449810426,185.21238072713217,-6.565961837768555,0.21935420607527098,16.519089842426908,1000.0,167.0,25.11740057265366,9.244664915828656,1000.0,1000.0,0.0,167000
168000,0,75.09777759634343,0.0006496906280517578,0.00014352798461914062,0.015545368194580078,167988.0,33.86843437194824,nan,-0.019267589746353526,183.84741846720377,-6.086907466252645,0.22171414146820703,45.24072668114971,1000.0,168.0,46.00838739825964,22.23197761658252,1000.0,1000.0,0.0,168000
169000,0,75.86749293655014,0.0006937980651855469,0.0001499652862548828,0.015137195587158203,168988.0,33.24554214477539,nan,0.00913453137036413,186.66394424438477,-5.959195971488953,0.22378939762711525,39.844031574986474,1000.0,169.0,22.975285484758054,17.6455207171561,1000.0,1000.0,0.0,169000
170000,0,75.36869403462468,0.0006232261657714844,0.0001285076141357422,0.014835119247436523,169988.0,33.61517913818359,nan,0.05964831092084447,187.33568700154623,-5.728855808575948,0.21997038026650748,42.65498511304964,1000.0,170.0,26.182898737280645,14.014873525458189,1000.0,1000.0,0.0,170000
171000,0,74.18121826657035,0.0009391307830810547,0.00016355514526367188,0.015471220016479492,170988.0,33.857369079589844,nan,-0.01939210152098288,182.11128107706705,-6.087186376253764,0.2224212164680163,0.48588481753860924,1000.0,171.0,45.51816780387145,11.756052479518628,1000.0,1000.0,0.0,171000
172000,0,75.96582256655311,0.0007753372192382812,0.00014066696166992188,0.015177488327026367,171988.0,33.14304306030274,nan,-0.0021671315965553126,183.8876609802246,-6.009814977645874,0.22095997631549835,13.805790689192754,1000.0,172.0,33.972810161403075,11.602524623471794,1000.0,1000.0,0.0,172000
173000,0,73.65959440635092,0.0006413459777832031,0.0001919269561767578,0.01482081413269043,172988.0,32.887846069335936,nan,0.005088139014939467,183.8868865966797,-5.976686517397563,0.21825300653775534,19.571053624603707,1000.0,173.0,35.592169855244,15.739488270630691,1000.0,1000.0,0.0,173000
174000,0,74.62584806467247,0.0006465911865234375,0.0002193450927734375,0.01539301872253418,173988.0,33.122323226928714,nan,0.028037661337293684,180.46051788330078,-5.871226350466411,0.21772698312997818,10.899477433380186,1000.0,174.0,31.406625171560655,19.925670477508945,1000.0,1000.0,0.0,174000
175000,0,73.98666431469395,0.0006661415100097656,0.00013184547424316406,0.015269041061401367,174988.0,33.36505386352539,nan,0.019282776745967567,180.8648910522461,-5.911111831665039,0.21690406277775764,6.413599686601081,1000.0,175.0,27.288505998441202,10.418412554806125,1000.0,1000.0,0.0,175000
176000,0,77.09278696141891,0.0006437301635742188,0.00013756752014160156,0.015129804611206055,175988.0,33.40476791381836,nan,-0.04473432463904222,182.03571955362955,-6.205278674761455,0.21792742609977722,8.412215618440026,1000.0,176.0,15.95094133654498,10.343996071869785,1000.0,1000.0,0.0,176000
177000,0,75.20425961626732,0.0006551742553710938,0.00012993812561035156,0.014955997467041016,176988.0,33.63910697937012,nan,-0.041633259233397744,177.6723403930664,-6.1902815500895185,0.2188019851843516,27.020593416707694,1000.0,177.0,28.77760984074584,14.821614670299402,1000.0,1000.0,0.0,177000
178000,0,74.23772900697153,0.0007097721099853516,0.00014090538024902344,0.01660013198852539,177988.0,33.71046737670898,nan,0.06241970951668918,181.3985392252604,-5.716685930887858,0.22031190743048987,5.367883160069073,1000.0,178.0,25.46901257008677,9.955335843200288,1000.0,1000.0,0.0,178000
179000,0,75.20819720691908,0.0006313323974609375,0.00013446807861328125,0.015098094940185547,178988.0,32.64280059814453,nan,-0.0024583232201014957,180.77325693766275,-6.011250416437785,0.21890856449802717,63.213507095728595,1000.0,179.0,37.38408221781531,11.881136949887818,1000.0,1000.0,0.0,179000
180000,0,75.47643520797884,0.0007064342498779297,0.0001316070556640625,0.015706539154052734,179988.0,33.29789428710937,nan,0.006675488315522671,179.90325419108072,-5.969682216644287,0.22017910455664,68.19062344359155,1000.0,180.0,31.9549888927844,12.26418993123231,1000.0,1000.0,0.0,180000
181000,0,73.76634120844217,0.0006010532379150391,0.00013566017150878906,0.014820337295532227,180988.0,32.73242156982422,nan,-0.016907911592473585,178.6562067667643,-6.076621135075887,0.22067114214102426,29.79389407084755,1000.0,181.0,40.845373050311736,15.626153921539892,1000.0,1000.0,0.0,181000
182000,0,74.7561955454668,0.0008444786071777344,0.0001506805419921875,0.015127897262573242,181988.0,32.929681549072264,nan,-0.014684785933544239,176.2216885884603,-6.065810600916545,0.22314639016985893,44.166304054403405,1000.0,182.0,51.23134330809106,10.727370229007239,1000.0,1000.0,0.0,182000
183000,0,75.74681232694535,0.0006947517395019531,0.00014901161193847656,0.015913009643554688,182988.0,32.819674758911134,nan,-0.024018242489546537,174.28008906046549,-6.106975515683492,0.22458022832870483,17.662027936853626,1000.0,183.0,43.62451043000115,21.48056045233745,1000.0,1000.0,0.0,183000
184000,0,75.3316579809849,0.0006349086761474609,0.00012922286987304688,0.014763355255126953,183988.0,32.841306838989254,nan,-0.006048546366704007,176.04216130574545,-6.02653702100118,0.22793560599287352,16.217378746086002,1000.0,184.0,43.6872458440098,10.970940355035284,1000.0,1000.0,0.0,184000
185000,0,75.71492526536213,0.0006527900695800781,0.00013780593872070312,0.015496969223022461,184988.0,33.25579521179199,nan,0.008199955491969982,176.3953768412272,-5.963964819908142,0.22757373874386153,56.54381602893107,1000.0,185.0,61.90127828001945,24.96118366526968,1000.0,1000.0,0.0,185000
186000,0,75.49730288604154,0.0006589889526367188,0.0001633167266845703,0.014878273010253906,185988.0,32.79512649536133,nan,-0.035893054601425924,177.3947893778483,-6.15745997428894,0.22795873756210008,67.47047324710476,1000.0,186.0,44.12939328470709,10.1534628361054,1000.0,1000.0,0.0,186000
187000,0,75.73844142523853,0.0006132125854492188,0.0001766681671142578,0.015001058578491211,186988.0,33.03633110046387,nan,-0.08562604803591967,175.39390436808267,-6.367485880851746,0.2330446516474088,45.39725981949738,1000.0,187.0,44.229367915830174,18.369288183237725,1000.0,1000.0,0.0,187000
188000,0,75.32153896215377,0.0006632804870605469,0.00013685226440429688,0.014703512191772461,187988.0,33.02475410461426,nan,0.033295440720394254,175.0097401936849,-5.8588160673777265,0.2358077180882295,39.02075473838865,1000.0,188.0,37.92903033253749,11.646493528232398,1000.0,1000.0,0.0,188000
189000,0,75.90412378895188,0.0006520748138427734,0.0001354217529296875,0.015120744705200195,188988.0,33.13353912353516,nan,-0.03817007523806145,176.1526896158854,-6.1612363656361895,0.23674864694476128,35.19713980252787,1000.0,189.0,56.092493868407324,17.26990214635407,1000.0,1000.0,0.0,189000
190000,0,75.3089886631738,0.0008404254913330078,0.00016260147094726562,0.014804363250732422,189988.0,33.85591743469238,nan,0.014756041346117854,177.7549285888672,-5.936673720677693,0.2330214542647203,25.72689980225959,1000.0,190.0,55.96399678930237,17.792890435014158,1000.0,1000.0,0.0,190000
191000,0,75.76410710685903,0.0006020069122314453,0.000171661376953125,0.014841079711914062,190988.0,33.40213768005371,nan,-0.013269705465063453,178.03496424357095,-6.05666446685791,0.23422385628024736,65.18190056181331,1000.0,191.0,57.074200907301666,21.677969713121502,1000.0,1000.0,0.0,191000
192000,0,75.87929662059483,0.0006482601165771484,0.00012969970703125,0.01517343521118164,191988.0,34.50959297180176,nan,-0.033093143720179796,177.83566919962564,-6.140855471293132,0.23497681816418967,52.91962110216657,1000.0,192.0,56.42206056644447,15.686565121801507,1000.0,1000.0,0.0,192000
193000,0,75.34654383112101,0.000965118408203125,0.0001881122589111328,0.016711711883544922,192988.0,33.91617118835449,nan,0.04532734029150257,182.91851043701172,-5.806026617685954,0.23367686197161674,41.781897120330925,1000.0,193.0,58.569635278719396,19.90764678054566,1000.0,1000.0,0.0,193000
194000,0,74.91589094865864,0.001905202865600586,0.00018858909606933594,0.015707015991210938,193988.0,34.09551956176758,nan,0.01720034486303727,183.07293319702148,-5.9258986711502075,0.23211774850885072,62.09434496449521,1000.0,194.0,60.18703447028347,16.83939695739369,1000.0,1000.0,0.0,194000
195000,0,74.86860565989912,0.0009589195251464844,0.00016880035400390625,0.017751455307006836,194988.0,35.13297912597656,nan,-0.003958376978213589,187.3464152018229,-6.0172905921936035,0.22908608863751093,42.52125258501509,1000.0,195.0,59.21572584850744,12.563950101884695,1000.0,1000.0,0.0,195000
196000,0,75.15908774877396,0.0008742809295654297,0.00015211105346679688,0.015691280364990234,195988.0,35.41573135375977,nan,0.0019685715281714997,188.30481465657553,-5.991526643435161,0.2321649007499218,30.047040256263745,1000.0,196.0,74.37921083176397,12.69165439170349,1000.0,1000.0,0.0,196000
197000,0,76.25785431696532,0.0008919239044189453,0.0001952648162841797,0.015939712524414062,196988.0,36.11742095947265,nan,0.0035133257042616606,190.64348220825195,-5.98469074567159,0.22917905946572623,40.09055343332863,1000.0,197.0,58.259141798623126,15.83526506711485,1000.0,1000.0,0.0,197000
198000,0,75.52748360088364,0.0006265640258789062,0.00017786026000976562,0.015067338943481445,197988.0,36.19168212890625,nan,-0.06270657708713163,192.89331181844076,-6.273396849632263,0.22940660392244658,34.01130484985056,1000.0,198.0,57.30013483973888,27.914958408174645,1000.0,1000.0,0.0,198000
199000,0,75.44846671190129,0.0006194114685058594,0.00012993812561035156,0.01514124870300293,198988.0,36.11456741333008,nan,-0.02678600427073737,194.81500498453775,-6.1153965791066485,0.23214350764950117,76.85718993320225,1000.0,199.0,59.52397062240938,11.265765967971078,1000.0,1000.0,0.0,199000
200000,0,75.33463468044552,0.0006303787231445312,0.00012993812561035156,0.015206575393676758,199988.0,36.51708465576172,nan,-0.0030197473242878914,196.76281611124674,-6.013037125269572,0.23240109657247862,72.9622771199699,1000.0,200.0,64.19996574279823,18.255262426161217,1000.0,1000.0,0.0,200000
