niicovila/Q-Reps/lightning_research_framework/results/XSAC_TEST/sac_2/log.csv
time/steps,time/epochs,time/steps_per_second,time/dataset,time/preprocess,time/train_step,train/env_steps,train/q_loss,train/target_q,train/alpha_loss,train/actor_loss,train/entropy,train/alpha,train/reward,train/length,train/num_ep,eval/reward,eval/stddev,eval/length,eval/discount,eval/early_termination,step
1000,0,70.34929904034007,0.0004849433898925781,0.0001437664031982422,0.014484405517578125,988.0,-21.981045761108398,25.455165023803712,-0.7039821694294611,-86.67615127563477,-12.989527781804403,0.10073125983277957,4.077606436689158,1000.0,1.0,0.8617021088696649,0.11111202945506629,1000.0,1000.0,0.0,1000
2000,0,74.37231408446408,0.00043582916259765625,0.0001709461212158203,0.014642477035522461,1988.0,33.80187103271484,inf,-1.5453073581059773,-109.45128504435222,-20.342140833536785,0.10776018910109997,1.208343834137108,1000.0,2.0,11.963436723755999,3.6760522852329767,1000.0,1000.0,0.0,2000
3000,0,75.0223941892445,0.000484466552734375,0.00013208389282226562,0.01529550552368164,2988.0,18.01106330871582,-9.58167724609375,-0.8512950787941614,68.91898918151855,-13.4663987159729,0.11402410206695397,52.06083091036506,1000.0,3.0,50.68878548295413,10.106625468288478,1000.0,1000.0,0.0,3000
4000,0,75.21677503027104,0.0005052089691162109,0.000133514404296875,0.01578068733215332,3988.0,31.80420234680176,-inf,-0.4869954511523247,419.26719665527344,-10.20155119895935,0.11591386857132117,5.257957325649116,1000.0,4.0,3.581650601927538,0.4550692427168333,1000.0,1000.0,0.0,4000
5000,0,75.09912222400477,0.0005521774291992188,0.00015473365783691406,0.015495538711547852,4988.0,10.322723159790039,-inf,-0.5278158883253733,371.06605529785156,-10.432989120483398,0.11907201260328293,4.427503689400614,1000.0,5.0,0.6445672093013339,0.37992529013085685,1000.0,1000.0,0.0,5000
6000,0,75.80178889376447,0.0004987716674804688,0.00012636184692382812,0.0153045654296875,5988.0,-21.991950073242187,-inf,-0.9440160840749741,-20.881567637125652,-13.661944150924683,0.12322108075022697,33.71480187221479,1000.0,6.0,111.6215051503224,14.237569571647992,1000.0,1000.0,0.0,6000
7000,0,75.36755642094383,0.0006995201110839844,0.00015234947204589844,0.015809297561645508,6988.0,18.01249298095703,7.221575603485108,-0.382402536769708,67.11570803324382,-8.902944246927897,0.13173378755648932,59.31956305114338,1000.0,7.0,47.158802841171266,4.2481444265433215,1000.0,1000.0,0.0,7000
8000,0,74.45829040250008,0.0005371570587158203,0.0001347064971923828,0.015526771545410156,7988.0,30.235244522094728,-inf,-0.5077429289619128,348.9289143880208,-9.772790590922037,0.1345881981154283,2.450795292588867,1000.0,8.0,3.9710297521306464,0.8199747680337811,1000.0,1000.0,0.0,8000
9000,0,75.22816120115277,0.0006184577941894531,0.00017905235290527344,0.015163660049438477,8988.0,-21.995206832885742,-inf,-0.3875321348508199,64.8380651473999,-8.778282960255941,0.13949416826168695,7.6896462687902805,1000.0,9.0,0.9613812675156546,0.15088272813430684,1000.0,1000.0,0.0,9000
10000,0,75.60513976744002,0.0006270408630371094,0.00013637542724609375,0.015047311782836914,9988.0,-21.985360794067383,-19.12951217651367,-0.9072118153174719,-49.70321559906006,-12.261208216349283,0.14491163194179535,39.69797669683915,1000.0,10.0,12.950171947000948,7.734711370406377,1000.0,1000.0,0.0,10000
11000,0,74.78957372676146,0.0006673336029052734,0.0001552104949951172,0.01545572280883789,10988.0,18.003065567016602,-9.459586811065673,0.13049708120524883,73.11096445719402,-5.151172240575154,0.15373593692978224,12.860057748639944,1000.0,11.0,1.4791931621756413,0.24613904764594027,1000.0,1000.0,0.0,11000
12000,0,75.82020525287116,0.0005691051483154297,0.0001308917999267578,0.0157625675201416,11988.0,28.354180450439454,-inf,-0.30679923047622043,254.30221684773764,-7.9893366893132525,0.15422836566964784,0.9895837792552263,1000.0,12.0,1.2518714627974068,0.020575537526467565,1000.0,1000.0,0.0,12000
13000,0,75.06267296808582,0.0007288455963134766,0.0001399517059326172,0.015961647033691406,12988.0,-17.705690765380858,-inf,-0.2420108194152514,111.15430196126302,-7.517584522565206,0.1594817340373993,3.8364484919228934,1000.0,13.0,0.1936658599533952,0.06611849710447121,1000.0,1000.0,0.0,13000
14000,0,75.62253352103575,0.0006089210510253906,0.0001392364501953125,0.015325069427490234,13988.0,-21.989424209594727,-inf,-0.5231835866967837,-8.565734306971232,-9.199862877527872,0.16351804261406264,1.2904117519281046,1000.0,14.0,0.3956501370003963,0.08323840598220246,1000.0,1000.0,0.0,14000
15000,0,74.79000047787953,0.0005633831024169922,0.00013399124145507812,0.015943527221679688,14988.0,3.400929412841797,inf,-1.1516570448875427,-108.32506052652995,-12.550689935684204,0.17583597203095755,16.862987339331383,1000.0,15.0,58.19706447719269,21.41589848689456,1000.0,1000.0,0.0,15000
16000,0,75.92077587798529,0.0006060600280761719,0.00013208389282226562,0.015136480331420898,15988.0,31.545683441162108,inf,-1.6436432003974915,-158.29804865519205,-14.880039612452189,0.18512228752175966,26.46390358409581,1000.0,16.0,29.09878316572425,5.499830129929499,1000.0,1000.0,0.0,16000
17000,0,74.6134754195414,0.0005619525909423828,0.00013303756713867188,0.015195846557617188,16988.0,-2.0274124145507812,-30.53782440185547,0.632750208179156,64.34895420074463,-2.5905556082725525,0.1855737715959549,16.564774677334857,1000.0,17.0,0.15448038437931824,0.020916983376497843,1000.0,1000.0,0.0,17000
18000,0,75.48757406928803,0.0006401538848876953,0.000125885009765625,0.015294313430786133,17988.0,1.8646367645263673,-inf,-0.15854797015587488,178.06942494710287,-6.865153233210246,0.1832622749110063,1.0437918640119213,1000.0,18.0,1.4439516187128205,0.12191279825583387,1000.0,1000.0,0.0,18000
19000,0,74.74239443446525,0.0005643367767333984,0.00012540817260742188,0.015170097351074219,18988.0,5.146468963623047,-inf,-0.2655490996936957,284.3485972086589,-7.416309475898743,0.18750571211179098,1.9759721540343056,1000.0,19.0,0.3011013073741894,0.06136804077745746,1000.0,1000.0,0.0,19000
20000,0,75.30990815514512,0.0006062984466552734,0.00017833709716796875,0.015286445617675781,19988.0,-21.995168380737304,-inf,-0.0063500564234952135,20.829169909159344,-6.033734838167827,0.18823528413971266,15.903771439440703,1000.0,20.0,50.83343857363047,18.786143463830825,1000.0,1000.0,0.0,20000
21000,0,75.20695655167566,0.0005903244018554688,0.00016188621520996094,0.014770269393920898,20988.0,5.4460296630859375,inf,-1.5805366734663646,-104.1839542388916,-14.039963006973267,0.19663760686914125,16.318771940467286,1000.0,21.0,4.080168027950917,0.42405667368649197,1000.0,1000.0,0.0,21000
22000,0,76.29169910435598,0.0006191730499267578,0.00012493133544921875,0.01585865020751953,21988.0,-22.0,2.0200610169768334,-1.6923496623833973,-121.43005434672038,-14.417087157567343,0.20110948632160822,8.715538540930373,1000.0,22.0,7.069045363851257,7.984259258278427,1000.0,1000.0,0.0,22000
23000,0,75.35006316443017,0.0005533695220947266,0.00012636184692382812,0.015347003936767578,22988.0,17.997298583984374,-inf,0.4088296915094058,98.16150410970052,-4.044739703337352,0.2090833062926928,15.531106072610095,1000.0,23.0,3.4772152705261377,1.2467157673272393,1000.0,1000.0,0.0,23000
24000,0,74.4924614262159,0.0006203651428222656,0.0001461505889892578,0.015459537506103516,23988.0,27.97428825378418,-inf,-0.3520763888955116,238.5691680908203,-7.682018717130025,0.20932980254292488,1.0651192221663395,1000.0,24.0,0.9450494711788495,0.1997302780687124,1000.0,1000.0,0.0,24000
25000,0,74.41406277721399,0.0005567073822021484,0.00014543533325195312,0.015039682388305664,24988.0,-21.992018280029296,-inf,0.14746751760443053,51.76289780934652,-5.301620960235596,0.2111518532037735,4.898284844718626,1000.0,25.0,0.35580433827420854,0.04564325734479949,1000.0,1000.0,0.0,25000
26000,0,75.55839624606112,0.00061798095703125,0.00014090538024902344,0.015277862548828125,25988.0,-21.99410354614258,-10.424091300964356,-0.2507805774609248,-35.552473068237305,-7.20214303334554,0.2086199832459291,3.119076411449849,1000.0,26.0,0.9495703852103855,0.3160660307473278,1000.0,1000.0,0.0,26000
27000,0,75.35677788142426,0.0005462169647216797,0.00018358230590820312,0.01488351821899414,26988.0,-1.9989986038208007,12.218321113586425,0.02193488572568943,35.25861104329427,-5.9008147319157915,0.22114703555901846,31.30019155565109,1000.0,27.0,15.576281356377482,3.836609417469676,1000.0,1000.0,0.0,27000
28000,0,74.57123757236121,0.0006380081176757812,0.0001804828643798828,0.0156705379486084,27988.0,-1.8927505111694336,-inf,0.30998096863428753,106.6780776977539,-4.542186578114827,0.2126220129430294,7.2839092505272625,1000.0,28.0,0.12440612027481293,0.05018863172591855,1000.0,1000.0,0.0,28000
29000,0,76.04592739572637,0.0005409717559814453,0.00018262863159179688,0.014759063720703125,28988.0,-21.999127349853516,-inf,-0.756232296427091,-16.205034017562866,-9.558506488800049,0.21254458278417587,4.863851470747285,1000.0,29.0,8.382826449696775,4.794032044983933,1000.0,1000.0,0.0,29000
30000,0,75.21548013910089,0.0005998611450195312,0.0001266002655029297,0.014936447143554688,29988.0,-1.9862617874145507,-inf,0.6987126519282659,92.63098208109538,-2.844326078891754,0.2213956800599893,23.645641203130726,1000.0,30.0,1.6702201128390286,0.2703637663256653,1000.0,1000.0,0.0,30000
31000,0,75.45606774650614,0.0006346702575683594,0.00016546249389648438,0.01535654067993164,30988.0,-22.0,-inf,-1.2566988567511241,-26.711187203725178,-11.819225231806437,0.2159903682768345,6.5388487803015,1000.0,31.0,6.775735262235619,0.06602898375062244,1000.0,1000.0,0.0,31000
32000,0,74.82965622957231,0.0005903244018554688,0.00012731552124023438,0.015350341796875,31988.0,-2.0167161560058595,-inf,0.934072881937027,87.29369735717773,-1.8170552750428517,0.223284595956405,4.514642264325462,1000.0,32.0,2.594609734458263,0.14454863796433087,1000.0,1000.0,0.0,32000
33000,0,75.4318583523308,0.0007107257843017578,0.0001556873321533203,0.014986515045166016,32988.0,-21.971068801879884,-13.557877540588379,-1.7656207780043285,-82.16230138142903,-13.881423632303873,0.2240554429590702,36.423263888897964,1000.0,33.0,27.211456803981793,6.821759091608443,1000.0,1000.0,0.0,33000
34000,0,75.31953712549473,0.0006060600280761719,0.0001270771026611328,0.015156030654907227,33988.0,-2.0334704971313475,-51.055010375976565,0.15468872338533401,69.19189389546712,-5.336628158887227,0.23318318898479143,9.237481190279931,1000.0,34.0,0.0,0.0,1000.0,1000.0,0.0,34000
35000,0,75.34567758411194,0.0005614757537841797,0.00012564659118652344,0.014658927917480469,34988.0,-21.998691864013672,-29.949544677734377,-1.2449103395144145,-46.70945326487223,-11.306980768839518,0.23460916553934416,8.361680375384651,1000.0,35.0,19.155514785126933,5.26522068057472,1000.0,1000.0,0.0,35000
36000,0,74.92054781992364,0.0006322860717773438,0.0001437664031982422,0.014832496643066406,35988.0,-2.051094665527344,-55.67122222900391,0.20920912052194277,74.04553540547688,-5.124850511550903,0.23904888331890106,21.891375178080768,1000.0,36.0,0.016595484331691435,0.016965978690086096,1000.0,1000.0,0.0,36000
37000,0,74.83366150231693,0.0006554126739501953,0.00013828277587890625,0.015571832656860352,36988.0,-4.890449752807617,inf,-1.7386385997136433,-94.7851791381836,-13.065683205922445,0.24610710889101028,22.272426477050242,1000.0,37.0,61.845408350010345,10.37712723785558,1000.0,1000.0,0.0,37000
38000,0,75.02872851800917,0.0006139278411865234,0.0001342296600341797,0.015563249588012695,37988.0,-22.0,-28.490158920288085,-2.7416609724362693,-104.67383448282878,-17.0402356783549,0.24840139225125313,14.94562608713888,1000.0,38.0,54.74149907606778,8.859271207249598,1000.0,1000.0,0.0,38000
39000,0,75.07546380887466,0.0006682872772216797,0.00014090538024902344,0.015178918838500977,38988.0,-2.3865512084960936,-46.21249328613281,1.0020408481359482,56.786743799845375,-2.0488732953866324,0.2535831282536189,33.21950227986565,1000.0,39.0,0.0,0.0,1000.0,1000.0,0.0,39000
40000,0,75.23620374941164,0.0007698535919189453,0.0001380443572998047,0.015145540237426758,39988.0,-2.037283630371094,-5.991314592361451,0.24867971365650496,33.858242670694985,-5.060038685798645,0.2645605131983757,11.70587112070787,1000.0,40.0,1.8871990117503306,0.3659319586996862,1000.0,1000.0,0.0,40000
41000,0,74.91433878688291,0.0007255077362060547,0.0001354217529296875,0.015366315841674805,40988.0,28.260107650756837,inf,-1.4370540777842205,-22.062668025493622,-11.286676406860352,0.2718648339311282,41.18210186561068,1000.0,41.0,101.96516852693324,9.460191137072757,1000.0,1000.0,0.0,41000
42000,0,75.82047937340741,0.0006451606750488281,0.00016498565673828125,0.014735937118530273,41988.0,-21.9945987701416,23.558819274902344,-1.4259002804756165,-102.16317939758301,-11.19196891784668,0.2746658871571223,2.9896755480355752,1000.0,42.0,21.56369006102348,4.933444608904822,1000.0,1000.0,0.0,42000
43000,0,75.39389285424113,0.0007879734039306641,0.00019550323486328125,0.015971660614013672,42988.0,-22.0,5.774935235977173,-1.4442841112613678,-90.03625551859538,-11.204643885294596,0.27753593772649765,11.077232728455286,1000.0,43.0,13.16321276278568,3.832589063101435,1000.0,1000.0,0.0,43000
44000,0,75.45498179065405,0.0006895065307617188,0.00018024444580078125,0.015241384506225586,43988.0,-17.669776191711424,-10.389713554382324,0.8442206308245659,-33.53110712518295,-3.0028337836265564,0.28159455706675846,9.659936023620016,1000.0,44.0,1.3577807152557166,1.2766724340764957,1000.0,1000.0,0.0,44000
45000,0,75.25629063975771,0.0005924701690673828,0.00013113021850585938,0.014803171157836914,44988.0,-2.057556037902832,18.728914184570314,0.45120714604854584,9.273847977320353,-4.462828675905864,0.2935229291518529,12.489162470831229,1000.0,45.0,14.172625696559786,0.9944887342122777,1000.0,1000.0,0.0,45000
46000,0,75.58530212106467,0.0006256103515625,0.00013208389282226562,0.014971494674682617,45988.0,-2.0427536392211914,38.78566055297851,0.31992458055416745,-10.458674987157186,-4.935131827990214,0.3004298234979312,22.02467216767178,1000.0,46.0,87.26747985438195,5.986440533072155,1000.0,1000.0,0.0,46000
47000,0,73.89260732854423,0.0006668567657470703,0.00013518333435058594,0.015772104263305664,46988.0,16.964512634277344,inf,-1.2299446761608124,-76.62791124979655,-10.008282899856567,0.3068797414501508,27.355388557795816,1000.0,47.0,0.06858879538618831,0.11325881357094128,1000.0,1000.0,0.0,47000
48000,0,71.96074529046426,0.0006885528564453125,0.00016617774963378906,0.015371322631835938,47988.0,15.06560089111328,inf,-0.3384675631920497,-63.28338495890299,-7.072078267733256,0.3157235582669576,29.054282752422296,1000.0,48.0,42.12483710700811,24.419282873731003,1000.0,1000.0,0.0,48000
49000,0,74.1491148361731,0.0007510185241699219,0.0001468658447265625,0.01590275764465332,48988.0,15.259263916015625,inf,0.377069391310215,-44.17700799306234,-4.804162979125977,0.31530389189720154,21.240711699761036,1000.0,49.0,49.65804162019321,35.101345329545154,1000.0,1000.0,0.0,49000
50000,0,73.81042548608579,0.0007138252258300781,0.000141143798828125,0.015475273132324219,49988.0,15.025986709594726,inf,0.7041308730840683,-26.06541697184245,-3.6929317514101663,0.30517882605393726,41.33111451349828,1000.0,50.0,46.56013908802892,6.751797307733334,1000.0,1000.0,0.0,50000
51000,0,74.40249934543318,0.0006551742553710938,0.00015044212341308594,0.015201807022094727,50988.0,14.387524070739746,inf,0.9417300472656885,-5.654419302940369,-2.749039908250173,0.289641593893369,60.95410844588221,1000.0,51.0,39.87912981761453,5.460210283259779,1000.0,1000.0,0.0,51000
52000,0,73.63600676685869,0.0007004737854003906,0.00013256072998046875,0.015955448150634766,51988.0,13.109504470825195,inf,1.0119873235623043,12.619459867477417,-2.2974313696225486,0.27328770359357196,13.80735043023175,1000.0,52.0,16.92101336560691,9.233943878639163,1000.0,1000.0,0.0,52000
53000,0,73.34632976665877,0.0006167888641357422,0.00013017654418945312,0.015252113342285156,52988.0,11.252604866027832,inf,0.8857919623454412,23.490554809570312,-2.582689722379049,0.25918201605478924,6.3922690704962735,1000.0,53.0,5.599880948259093,2.80847552346733,1000.0,1000.0,0.0,53000
54000,0,73.31376576813415,0.0007100105285644531,0.0001785755157470703,0.015016555786132812,53988.0,9.869073867797852,inf,0.6136838595072428,29.70455725987752,-3.5302712519963584,0.24846349780758223,26.500200876012723,1000.0,54.0,34.91873023661678,20.784953448026272,1000.0,1000.0,0.0,54000
55000,0,74.40725100568463,0.0006318092346191406,0.0001308917999267578,0.01557159423828125,54988.0,9.356536407470703,inf,0.44572972506284714,30.728818893432617,-4.1490135590235395,0.2407978189488252,39.74684745011587,1000.0,55.0,50.28740368795432,11.110196343739343,1000.0,1000.0,0.0,55000
56000,0,74.25371046904974,0.0006725788116455078,0.00013375282287597656,0.015892982482910156,55988.0,10.719810981750488,inf,0.22921468565861383,19.059589703877766,-5.021477897961934,0.23424193014701208,23.508590450524416,1000.0,56.0,47.9229926104877,11.079942011235186,1000.0,1000.0,0.0,56000
57000,0,72.82536375316873,0.0007047653198242188,0.00013518333435058594,0.01552438735961914,56988.0,12.996711502075195,inf,0.33506794025500614,36.71945603688558,-4.529266397158305,0.22781157493591309,101.1881856105717,1000.0,57.0,34.21550211710844,16.58499907308269,1000.0,1000.0,0.0,57000
58000,0,69.75634613670321,0.0008213520050048828,0.0001766681671142578,0.015841007232666016,57988.0,12.175812110900878,inf,0.45549139380455017,51.08287779490153,-3.9159370064735413,0.21854029347499213,34.35191552319658,1000.0,58.0,59.893451604632745,33.24364416793755,1000.0,1000.0,0.0,58000
59000,0,67.71397777386011,0.0006320476531982422,0.00012540817260742188,0.016196012496948242,58988.0,11.876154556274415,inf,0.5196194797754288,62.276466369628906,-3.4999216397603354,0.20782014975945154,20.97169200728308,1000.0,59.0,27.510065510481866,5.625984532835163,1000.0,1000.0,0.0,59000
60000,0,67.83804154091499,0.0006377696990966797,0.00017499923706054688,0.015362977981567383,59988.0,11.302838096618652,inf,0.5113033006588618,71.64030011494954,-3.4083656072616577,0.19726921866337457,22.639257546721975,1000.0,60.0,25.95921729982021,8.54485876326032,1000.0,1000.0,0.0,60000
61000,0,68.62394903674927,0.0007143020629882812,0.00013399124145507812,0.015372514724731445,60988.0,11.345698146820068,inf,0.4451388195157051,76.77860450744629,-3.6320107777913413,0.1879604011774063,19.58308851432014,1000.0,61.0,40.1345644941691,15.392318116901759,1000.0,1000.0,0.0,61000
62000,0,67.32287534196708,0.000705718994140625,0.00016617774963378906,0.015801668167114258,61988.0,11.551743373870849,inf,0.36131560305754346,82.78966522216797,-3.9914191166559854,0.17986837774515152,26.414947584743263,1000.0,62.0,31.388038310703898,14.924810619555132,1000.0,1000.0,0.0,62000
63000,0,68.55871070582566,0.0009484291076660156,0.0001316070556640625,0.014863014221191406,62988.0,11.18718864440918,inf,0.2941988706588745,86.74512418111165,-4.29897137482961,0.17293953026334444,23.43798711715986,1000.0,63.0,44.472413864191864,13.599695937668658,1000.0,1000.0,0.0,63000
64000,0,68.59553222611531,0.0006747245788574219,0.0001277923583984375,0.015729188919067383,63988.0,12.405534629821778,inf,0.22488257040580115,91.21261533101399,-4.657278418540955,0.1674776573975881,34.446638708997185,1000.0,64.0,38.4017503158752,8.573303065109688,1000.0,1000.0,0.0,64000
65000,0,69.09486033438566,0.0006701946258544922,0.00013375282287597656,0.015403270721435547,64988.0,11.289220943450928,inf,0.13838410563766956,92.89940706888835,-5.150103529294332,0.16281755020221075,33.60519065276436,1000.0,65.0,52.907588714718564,17.316916024857804,1000.0,1000.0,0.0,65000
66000,0,69.20243131405793,0.00075531005859375,0.0002231597900390625,0.015588045120239258,65988.0,14.892448959350586,inf,0.15759948392709097,101.78159014383952,-5.006298462549846,0.1585878332455953,72.66469478216327,1000.0,66.0,48.58767146060363,26.98723517148306,1000.0,1000.0,0.0,66000
67000,0,67.71695138875883,0.0007395744323730469,0.0001373291015625,0.015592098236083984,66988.0,15.249726943969726,inf,0.16614140073458353,115.54179509480794,-4.913776199022929,0.1529417224228382,108.64617078772956,1000.0,67.0,70.62840762330066,37.21941424634707,1000.0,1000.0,0.0,67000
68000,0,68.66915914045673,0.000782012939453125,0.00016069412231445312,0.01566910743713379,67988.0,15.056066818237305,nan,0.10314579618473847,127.8739668528239,-5.30083707968394,0.147520262748003,69.2654448923856,1000.0,68.0,50.099463529649455,29.252578393513225,1000.0,1000.0,0.0,68000
69000,0,66.19125202552013,0.0009522438049316406,0.00016570091247558594,0.01591348648071289,68988.0,15.807193908691406,nan,0.10962141615649064,139.58818562825522,-5.234754125277202,0.14323307946324348,11.684245543593539,1000.0,69.0,37.54412741543645,15.543341785094302,1000.0,1000.0,0.0,69000
70000,0,68.50106876133435,0.0006935596466064453,0.00014972686767578125,0.015964269638061523,69988.0,18.319484329223634,nan,0.05705545066545407,150.06643295288086,-5.592563549677531,0.14003148674964905,35.631300147082264,1000.0,70.0,41.97963689772711,18.412498771113633,1000.0,1000.0,0.0,70000
71000,0,67.37928672451163,0.0006663799285888672,0.0001735687255859375,0.01582622528076172,70988.0,19.414723358154298,nan,0.03620182420127094,157.9292106628418,-5.737849434216817,0.13809618229667345,43.041189745344866,1000.0,71.0,33.50116058788979,13.32224439758,1000.0,1000.0,0.0,71000
72000,0,68.50778194609413,0.0007269382476806641,0.00014209747314453125,0.015642881393432617,71988.0,20.97556221008301,nan,0.0076604277128353715,162.82707722981772,-5.943990667661031,0.13677028069893518,45.06081578758836,1000.0,72.0,39.495817246050265,13.486940609564705,1000.0,1000.0,0.0,72000
73000,0,67.68635313513245,0.0007293224334716797,0.00015354156494140625,0.01586294174194336,72988.0,23.853239440917967,nan,-0.0009385561182474097,167.27205530802408,-6.006834626197815,0.13736074914534888,48.82308928317315,1000.0,73.0,34.53550075469555,10.78988163678491,1000.0,1000.0,0.0,73000
74000,0,67.89189105193402,0.0007169246673583984,0.000171661376953125,0.015377998352050781,73988.0,24.010044631958007,nan,0.009878031307986626,172.76633071899414,-5.92763888835907,0.13650118311246237,28.394848728065487,1000.0,74.0,34.174101643525724,8.4559330207713,1000.0,1000.0,0.0,74000
75000,0,67.44199508355513,0.0007834434509277344,0.00021314620971679688,0.01587224006652832,74988.0,23.165739822387696,nan,-0.03775780062035968,171.71898142496744,-6.274179975191752,0.1377586101492246,24.97628737165216,1000.0,75.0,32.20507554140572,11.21698109232144,1000.0,1000.0,0.0,75000
76000,0,67.6756065999103,0.0008487701416015625,0.00017023086547851562,0.015892982482910156,75988.0,25.331291046142578,nan,-0.06638437424165507,171.13345336914062,-6.466576973597209,0.14228112250566483,33.91185798754918,1000.0,76.0,46.439585453320845,24.827198062329344,1000.0,1000.0,0.0,76000
77000,0,66.34444857111944,0.0007658004760742188,0.00013875961303710938,0.015797138214111328,76988.0,24.675346755981444,nan,-0.05886942016271254,174.5724360148112,-6.400014917055766,0.14720006038745245,41.97589789706117,1000.0,77.0,50.74378202958092,24.22566926746508,1000.0,1000.0,0.0,77000
78000,0,69.29494775004345,0.0007278919219970703,0.00015425682067871094,0.01522970199584961,77988.0,24.864785079956054,nan,0.0049004824832081795,172.27551142374674,-5.967658281326294,0.1515053262313207,15.67991731760197,1000.0,78.0,29.17267241213704,13.662751220348856,1000.0,1000.0,0.0,78000
79000,0,66.51843572158549,0.0007264614105224609,0.0001361370086669922,0.015834331512451172,78988.0,24.83966796875,nan,-0.03790809897085031,171.67180506388345,-6.242998401323955,0.1560030778249105,51.192836840571324,1000.0,79.0,39.388716786879755,12.320359499974035,1000.0,1000.0,0.0,79000
80000,0,68.56157965938121,0.0007278919219970703,0.00017333030700683594,0.015851497650146484,79988.0,25.37277198791504,nan,-0.012644289759919047,172.6000836690267,-6.078951398531596,0.16023260851701102,39.103893966696155,1000.0,80.0,56.363033581715726,16.116967655605553,1000.0,1000.0,0.0,80000
81000,0,68.4047230739122,0.0007603168487548828,0.00013899803161621094,0.015903472900390625,80988.0,24.289960403442382,nan,0.0007069634739309549,176.13178126017252,-5.995623628298442,0.16098115717371306,45.43722201227865,1000.0,81.0,46.20957877110552,14.945759365929835,1000.0,1000.0,0.0,81000
82000,0,68.35197313313556,0.0007240772247314453,0.00013828277587890625,0.015764236450195312,81988.0,25.34861312866211,nan,0.09066146922608216,175.72344207763672,-5.438457051912944,0.16141401852170625,15.4361795671708,1000.0,82.0,55.39601961142214,12.054192188565297,1000.0,1000.0,0.0,82000
83000,0,66.92443097613872,0.0007305145263671875,0.0001971721649169922,0.015072822570800781,82988.0,26.104283752441408,nan,0.010491574978611121,174.4448496500651,-5.933992226918538,0.15892748783032098,28.75523719892105,1000.0,83.0,66.00718666945204,22.23796362667633,1000.0,1000.0,0.0,83000
84000,0,68.8505516180841,0.0009169578552246094,0.00019431114196777344,0.016104936599731445,83988.0,25.387927627563478,nan,0.022669865070686985,178.0640551249186,-5.85533591111501,0.15671640386184058,37.83979068842198,1000.0,84.0,79.98416494329004,20.78518111312423,1000.0,1000.0,0.0,84000
85000,0,67.98613533479691,0.0010328292846679688,0.000179290771484375,0.016410112380981445,84988.0,24.319866638183594,nan,-0.02019410510547459,178.18188603719076,-6.129718740781148,0.15569236253698668,50.628095417668646,1000.0,85.0,51.69900982523609,29.18501233661637,1000.0,1000.0,0.0,85000
86000,0,69.01209615054275,0.0006587505340576172,0.00013256072998046875,0.016601085662841797,85988.0,25.259748153686523,nan,0.04401547291005651,178.67532602945963,-5.716659108797709,0.1553441733121872,19.98674900218076,1000.0,86.0,43.14640591752225,15.491417363470402,1000.0,1000.0,0.0,86000
87000,0,69.07719945690877,0.0006949901580810547,0.00019097328186035156,0.016047000885009766,86988.0,25.82052230834961,nan,0.011244255079266926,180.37906901041666,-5.9271031220753985,0.15422217299540839,50.12528714847899,1000.0,87.0,62.64490053136384,22.390547100248416,1000.0,1000.0,0.0,87000
88000,0,69.37214981181232,0.0006906986236572266,0.00018310546875,0.01570439338684082,87988.0,25.62397415161133,nan,0.0045503338721270365,180.40955225626627,-5.9713508288065595,0.1588262307147185,76.50029804729496,1000.0,88.0,53.75564602805575,18.993864191442476,1000.0,1000.0,0.0,88000
89000,0,69.70200150228999,0.0008478164672851562,0.00017142295837402344,0.016234636306762695,88988.0,26.34919921875,nan,0.03356951793345312,181.87114079793295,-5.789928396542867,0.15977322310209274,28.846984790133728,1000.0,89.0,60.51739979522163,12.452481390639928,1000.0,1000.0,0.0,89000
90000,0,68.14479573315171,0.0007264614105224609,0.00014400482177734375,0.01590704917907715,89988.0,27.255776672363282,nan,0.02062162234991168,184.6225446065267,-5.871405005455017,0.16034181291858354,120.84694431711556,1000.0,90.0,52.0020098205184,20.116495912215658,1000.0,1000.0,0.0,90000
91000,0,70.59240134778965,0.0007719993591308594,0.0001766681671142578,0.014986991882324219,90988.0,26.737699813842774,nan,0.03297304082661867,187.7067019144694,-5.7919074694315595,0.15845799446105957,71.71833725499219,1000.0,91.0,53.51412092101789,8.121918212051396,1000.0,1000.0,0.0,91000
92000,0,69.77783840796947,0.0007696151733398438,0.00015687942504882812,0.015199899673461914,91988.0,28.02859619140625,nan,-0.04418220852191249,178.07207616170248,-6.267363945643107,0.16526087000966072,80.15267261555432,1000.0,92.0,63.6796261923129,7.473127788460186,1000.0,1000.0,0.0,92000
93000,0,69.44331491800521,0.0006439685821533203,0.0001342296600341797,0.014985084533691406,92988.0,28.761347045898436,nan,0.04961947666015476,187.98227183024088,-5.697922110557556,0.1642542431751887,70.00502724984003,1000.0,93.0,39.815133476317,14.612813312030179,1000.0,1000.0,0.0,93000
94000,0,69.58252845311034,0.0007715225219726562,0.00013780593872070312,0.01567530632019043,93988.0,29.624262466430665,nan,0.07666332429895799,193.55560557047525,-5.5203178723653155,0.1598184493680795,66.14867554580565,1000.0,94.0,67.05944535113525,12.925305241424166,1000.0,1000.0,0.0,94000
95000,0,69.73282658500172,0.0006208419799804688,0.00013327598571777344,0.01549220085144043,94988.0,29.604565734863282,nan,-0.011486219513850907,195.5085245768229,-6.07146159807841,0.16073990861574808,49.619137165045125,1000.0,95.0,63.8149501412877,16.377383997944694,1000.0,1000.0,0.0,95000
96000,0,69.23194751826244,0.0007145404815673828,0.0001533031463623047,0.01563405990600586,95988.0,30.017970275878906,nan,-0.0018279729799057047,201.4995435078939,-6.011284152666728,0.162053016324838,73.92991904539072,1000.0,96.0,59.74399262513447,19.8591753329187,1000.0,1000.0,0.0,96000
97000,0,69.89695861946682,0.0006906986236572266,0.0001468658447265625,0.015578269958496094,96988.0,30.607057952880858,nan,0.047109306789934635,206.7481320699056,-5.704540848731995,0.15943076585729918,68.30442350449952,1000.0,97.0,49.63320675364086,11.07809170488418,1000.0,1000.0,0.0,97000
98000,0,69.80115601241619,0.0007505416870117188,0.0001327991485595703,0.015855789184570312,97988.0,30.679348220825194,nan,0.041455858231832586,210.22782389322916,-5.7331284284591675,0.15533796201149622,41.99389100181003,1000.0,98.0,56.79419479315792,15.582032316918863,1000.0,1000.0,0.0,98000
99000,0,69.50158678816577,0.0006806850433349609,0.00016117095947265625,0.015421628952026367,98988.0,31.481028366088868,nan,0.012557717195401588,215.94637298583984,-5.916736284891765,0.15069436778624853,31.141290621848192,1000.0,99.0,48.81543825674295,21.556558934562016,1000.0,1000.0,0.0,99000
100000,0,70.21306799158977,0.0007436275482177734,0.0002086162567138672,0.01599740982055664,99988.0,31.83234649658203,nan,0.012360524851828814,221.0496622721354,-5.9165375630060835,0.14809877052903175,53.031291978668875,1000.0,100.0,36.63308227577424,13.400104380448948,1000.0,1000.0,0.0,100000
101000,0,70.33901147479182,0.0007162094116210938,0.00015878677368164062,0.015505313873291016,100988.0,31.904496536254882,nan,-0.04049106283734242,225.80613327026367,-6.277672529220581,0.14584450299541155,29.932156147239997,1000.0,101.0,33.36714108105665,14.51758060112491,1000.0,1000.0,0.0,101000
102000,0,70.54457676994514,0.0006289482116699219,0.00013136863708496094,0.015328407287597656,101988.0,32.375982666015624,nan,0.009006224883099398,228.9995091756185,-5.93766721089681,0.1444645350178083,36.09220124247603,1000.0,102.0,36.46965722589965,6.244844382782263,1000.0,1000.0,0.0,102000
103000,0,69.77663114760098,0.0006861686706542969,0.00013685226440429688,0.015341758728027344,102988.0,32.55412117004394,nan,0.07000211269284289,234.66830825805664,-5.506168365478516,0.14172699550787607,40.23523027119244,1000.0,103.0,42.94801173387548,8.561591290540175,1000.0,1000.0,0.0,103000
104000,0,71.10609603272339,0.0007419586181640625,0.00013589859008789062,0.014855623245239258,103988.0,35.20989807128906,nan,-0.05359518015757203,229.67061869303384,-6.3649347225824995,0.14688999826709428,65.51632569330226,1000.0,104.0,56.43748884919938,12.610146136855695,1000.0,1000.0,0.0,104000
105000,0,67.80452760449774,0.0006053447723388672,0.00013256072998046875,0.014747142791748047,104988.0,36.291050872802735,nan,-0.1667235642671585,225.9546915690104,-7.062570174535115,0.1569832315047582,27.3594940735538,1000.0,105.0,33.285656974660796,8.373301134275625,1000.0,1000.0,0.0,105000
106000,0,67.02311730464513,0.0006511211395263672,0.00013828277587890625,0.014971733093261719,105988.0,35.68667190551758,nan,-0.07327166385948658,229.26435343424478,-6.443281849225362,0.16531777754426003,46.55695666372833,1000.0,106.0,40.18880201723763,13.877926315108322,1000.0,1000.0,0.0,106000
107000,0,69.52255357688664,0.0006110668182373047,0.00013256072998046875,0.014898300170898438,106988.0,35.56219848632813,nan,-0.08101087901741266,229.22824223836264,-6.469631950060527,0.17253085101644197,23.941556795114764,1000.0,107.0,20.400977620906353,7.575072134406429,1000.0,1000.0,0.0,107000
108000,0,69.79344368573196,0.0006663799285888672,0.00013947486877441406,0.015070199966430664,107988.0,35.65517395019531,nan,-0.08722389411802094,225.75477091471353,-6.483700593312581,0.18033056830366453,18.80012506751921,1000.0,108.0,27.21643853596489,15.516647961400903,1000.0,1000.0,0.0,108000
109000,0,73.90984709488744,0.0006177425384521484,0.00016880035400390625,0.015084981918334961,108988.0,36.00297470092774,nan,-0.007309552902976672,224.52952575683594,-6.03928017616272,0.18620683501164118,27.019908950786814,1000.0,109.0,20.75092899378965,8.51673488655834,1000.0,1000.0,0.0,109000
110000,0,75.33458055653743,0.0007369518280029297,0.00018143653869628906,0.015640735626220703,109988.0,35.725108489990234,nan,0.012877719981285432,224.48364893595377,-5.9304542144139605,0.18516886234283447,5.4215550780785895,1000.0,110.0,5.029253301860686,3.361619464523342,1000.0,1000.0,0.0,110000
111000,0,75.29990312617367,0.0006353855133056641,0.0001323223114013672,0.015015602111816406,110988.0,35.255901947021485,nan,-0.006254738895222545,223.60063298543295,-6.033080339431763,0.18916969373822212,1.5022981092203387,1000.0,111.0,0.8515518441792332,0.4975299996318613,1000.0,1000.0,0.0,111000
112000,0,75.09600276155649,0.0007104873657226562,0.00013184547424316406,0.01596665382385254,111988.0,34.60094711303711,nan,0.03305367504556974,224.57524617513022,-5.82566773891449,0.18959993869066238,2.6354251520240117,1000.0,112.0,2.3519949850455264,2.536482499464613,1000.0,1000.0,0.0,112000
113000,0,75.06724062514989,0.000820159912109375,0.00013709068298339844,0.015067815780639648,112988.0,35.61084167480469,nan,-0.030715829188314576,226.71886571248373,-6.162423253059387,0.189145694176356,8.545800972922372,1000.0,113.0,7.680960114638161,2.34457021087874,1000.0,1000.0,0.0,113000
114000,0,75.30709566216605,0.0006868839263916016,0.00013375282287597656,0.01534581184387207,113988.0,35.09513153076172,nan,-0.0032295482233166695,228.51721318562826,-6.017038861910502,0.18949751804272333,3.8567266157188467,1000.0,114.0,12.235126056124042,10.339949307073097,1000.0,1000.0,0.0,114000
115000,0,75.09793894912045,0.0006449222564697266,0.00013256072998046875,0.015417337417602539,114988.0,35.20142623901367,nan,-0.1497168472657601,223.71454111735025,-6.771136045455933,0.19417048866550127,6.438716625127381,1000.0,115.0,46.06778827379209,10.493041570124548,1000.0,1000.0,0.0,115000
116000,0,75.6422270169979,0.0006864070892333984,0.0001285076141357422,0.015366315841674805,115988.0,35.65698684692383,nan,0.009071625924358765,227.32593409220377,-5.954020460446675,0.19727482149998346,13.670789728223422,1000.0,116.0,28.72719484476871,10.073366220475416,1000.0,1000.0,0.0,116000
117000,0,74.60965294261628,0.00061798095703125,0.00017571449279785156,0.016177892684936523,116988.0,35.59947280883789,nan,-0.01261099986732006,230.8853327433268,-6.063836375872294,0.19755438715219498,18.97353394456346,1000.0,117.0,15.521850340112469,4.814805435770687,1000.0,1000.0,0.0,117000
118000,0,74.03362584557077,0.0006396770477294922,0.00013327598571777344,0.015340328216552734,117988.0,36.02175521850586,nan,-0.013585803021366397,232.05899810791016,-6.068774978319804,0.1975418416162332,9.536738513016298,1000.0,118.0,14.182799863190017,7.403853093824037,1000.0,1000.0,0.0,118000
119000,0,74.78333304805756,0.0006368160247802734,0.0001537799835205078,0.01523137092590332,118988.0,35.7423063659668,nan,-0.011289650108665228,232.1784235636393,-6.055618405342102,0.20289059852560362,24.040283514305777,1000.0,119.0,13.942797748056702,5.467151503112077,1000.0,1000.0,0.0,119000
120000,0,76.00552332008074,0.0006420612335205078,0.0001308917999267578,0.015240192413330078,119988.0,36.03283737182617,nan,0.013802482397295535,236.68332544962564,-5.932505051294963,0.20450048272808394,43.28983374880819,1000.0,120.0,33.29723618835828,9.859212386008311,1000.0,1000.0,0.0,120000
121000,0,75.22449134783766,0.0006566047668457031,0.0001323223114013672,0.015002965927124023,120988.0,36.08059463500977,nan,-0.21952970139682293,226.8991953531901,-7.041221459706624,0.21101181209087372,42.02698070291647,1000.0,121.0,25.00381316680517,10.237130502278138,1000.0,1000.0,0.0,121000
122000,0,75.70437508528308,0.0006222724914550781,0.00013017654418945312,0.014920949935913086,121988.0,36.41283599853516,nan,-0.02229157299734652,226.9317258199056,-6.102650920550029,0.21716221297780672,29.598123076474156,1000.0,122.0,17.54104814433997,8.408467524406525,1000.0,1000.0,0.0,122000
123000,0,76.24271711239551,0.0006823539733886719,0.00013780593872070312,0.01499795913696289,122988.0,35.87883163452148,nan,0.03594453838498642,233.4958979288737,-5.832926313082377,0.2151017871995767,10.02494572919562,1000.0,123.0,29.951391218191645,9.027795251451662,1000.0,1000.0,0.0,123000
124000,0,74.7561955454668,0.00067138671875,0.00013446807861328125,0.015393733978271484,123988.0,36.469678497314455,nan,-0.028162527674188215,233.00967152913412,-6.1333285967508955,0.21122709785898527,22.68763701931739,1000.0,124.0,24.64192332567729,11.630863508227728,1000.0,1000.0,0.0,124000
125000,0,74.95701989344508,0.0006392002105712891,0.0001342296600341797,0.014989614486694336,124988.0,36.437776489257814,nan,-0.0025541870466743908,235.10960133870444,-6.0123153527577715,0.20777496819694838,43.04195619863046,1000.0,125.0,39.529647640074664,17.208744769209808,1000.0,1000.0,0.0,125000
126000,0,75.78984496914056,0.0006561279296875,0.00013303756713867188,0.015111207962036133,125988.0,36.18549133300781,nan,0.012809472158551216,236.33137893676758,-5.9379756053288775,0.2065004383524259,39.96275069365548,1000.0,126.0,35.417632710856,14.864379120771467,1000.0,1000.0,0.0,126000
127000,0,74.536888287361,0.0007002353668212891,0.00015807151794433594,0.015025138854980469,126988.0,35.71793350219727,nan,-0.01988844301862021,235.26325861612955,-6.096138119697571,0.20688411593437195,36.14854073776567,1000.0,127.0,16.737494855355283,9.02198238153878,1000.0,1000.0,0.0,127000
128000,0,75.75759327225963,0.0006649494171142578,0.00014400482177734375,0.015150308609008789,127988.0,36.269747467041014,nan,0.002323881722986698,239.19604110717773,-5.988672494888306,0.20496555666128793,10.503898959002008,1000.0,128.0,22.65293129908115,9.508466352125504,1000.0,1000.0,0.0,128000
129000,0,74.71784212555251,0.0007572174072265625,0.00014591217041015625,0.01492929458618164,128988.0,36.903441467285155,nan,-0.48109279821316403,214.67505264282227,-8.254042188326517,0.21349341670672098,37.535295818643526,1000.0,129.0,31.713274961714422,11.509804596948372,1000.0,1000.0,0.0,129000
130000,0,74.75678180586746,0.0006968975067138672,0.000148773193359375,0.015498161315917969,129988.0,36.31299072265625,nan,0.02176410083969434,222.0604387919108,-5.9040699402491255,0.22685593739151955,22.998787665902704,1000.0,130.0,36.82552529765169,21.83862642751057,1000.0,1000.0,0.0,130000
131000,0,75.145460604345,0.0008056163787841797,0.0001404285430908203,0.015253543853759766,130988.0,36.6902734375,nan,0.07749798622292776,224.5508918762207,-5.655534982681274,0.22496641923983893,37.72699765343024,1000.0,131.0,34.44139462293903,12.859328631734092,1000.0,1000.0,0.0,131000
132000,0,74.18840862716465,0.000659942626953125,0.0001316070556640625,0.014598608016967773,131988.0,36.45050598144531,nan,0.056990563248594604,231.04106903076172,-5.742860198020935,0.22161456321676573,20.198046704439285,1000.0,132.0,26.368909256602574,15.994617912689503,1000.0,1000.0,0.0,132000
133000,0,74.83419557107877,0.0006730556488037109,0.0001354217529296875,0.015288352966308594,132988.0,35.8886897277832,nan,0.06324232501598696,233.47877629597983,-5.707237958908081,0.21602033699552217,21.102957125133248,1000.0,133.0,14.31781800800602,10.046187903203759,1000.0,1000.0,0.0,133000
134000,0,75.1054157215005,0.0007188320159912109,0.00015687942504882812,0.014951229095458984,133988.0,36.41626678466797,nan,0.03272869259429475,238.39780807495117,-5.844697594642639,0.21073280895749727,43.18280340091448,1000.0,134.0,20.13248642929047,13.984007821085667,1000.0,1000.0,0.0,134000
135000,0,75.20668684943041,0.00070953369140625,0.0001399517059326172,0.015127182006835938,134988.0,36.185169525146485,nan,-0.005800744441027443,234.8561871846517,-6.027578751246135,0.2103505258758863,46.05647239688215,1000.0,135.0,25.697834710833867,16.12643141746573,1000.0,1000.0,0.0,135000
136000,0,75.89560821741122,0.0006432533264160156,0.00013709068298339844,0.015428304672241211,135988.0,36.000252380371094,nan,0.03741052529464165,237.45174662272134,-5.819212992986043,0.2069204573829969,10.35802949493311,1000.0,136.0,29.823315666993913,8.24764452577017,1000.0,1000.0,0.0,136000
137000,0,75.90945386074937,0.0007290840148925781,0.00016617774963378906,0.015092849731445312,136988.0,35.866392059326174,nan,0.05246021420074006,236.7693608601888,-5.741105159123738,0.20260906467835108,70.51738657852621,1000.0,137.0,62.865914930874055,12.59047466748223,1000.0,1000.0,0.0,137000
138000,0,74.41511897749612,0.0006165504455566406,0.00015997886657714844,0.015184640884399414,137988.0,36.27745849609375,nan,0.07017155022670825,231.53268814086914,-5.643635431925456,0.19687692821025848,46.24951525409352,1000.0,138.0,48.817364118072845,18.305569780675974,1000.0,1000.0,0.0,138000
139000,0,75.37156530758499,0.0007088184356689453,0.00013256072998046875,0.015651941299438477,138988.0,36.061040802001955,nan,-0.03724637123135229,234.5029500325521,-6.190128882726033,0.19593689342339835,28.31726641187442,1000.0,139.0,46.27593719041012,10.580838735667461,1000.0,1000.0,0.0,139000
140000,0,75.49681366778482,0.0006542205810546875,0.00013113021850585938,0.01504659652709961,139988.0,36.545789337158205,nan,-0.040512079993883766,228.73990885416666,-6.205109596252441,0.19763450572888056,34.66860681052351,1000.0,140.0,36.04450745403382,16.476050023967584,1000.0,1000.0,0.0,140000
141000,0,75.39958524245483,0.0006566047668457031,0.00013208389282226562,0.01503610610961914,140988.0,35.15591110229492,nan,-0.07523660967126489,225.8009147644043,-6.35983145236969,0.20913169781366983,29.921088356696405,1000.0,141.0,14.280157988967659,5.09570414628688,1000.0,1000.0,0.0,141000
142000,0,76.5940226660969,0.0007097721099853516,0.00019431114196777344,0.015547990798950195,141988.0,35.541855850219726,nan,-0.05008742717715601,227.77107874552408,-6.233969449996948,0.21408668408791223,3.206925685568893,1000.0,142.0,37.11751515003234,12.523623529971943,1000.0,1000.0,0.0,142000
143000,0,75.02647380381337,0.0006334781646728516,0.000133514404296875,0.014897346496582031,142988.0,36.09700302124023,nan,0.04162853898014873,231.11307907104492,-5.803304553031921,0.21163300424814224,21.623362232894358,1000.0,143.0,39.4385129967615,17.465711417507467,1000.0,1000.0,0.0,143000
144000,0,76.24598801385054,0.0007028579711914062,0.00013208389282226562,0.015107154846191406,143988.0,35.20175750732422,nan,0.07417760463431478,229.34584172566733,-5.650021513303121,0.21191917111476263,10.977819665385253,1000.0,144.0,26.931887991658932,12.723328292907865,1000.0,1000.0,0.0,144000
145000,0,75.05042364450222,0.0006804466247558594,0.0001418590545654297,0.015349626541137695,144988.0,35.76202941894531,nan,-0.03800299375628432,230.6657689412435,-6.184408982594808,0.20609585319956145,54.52909683791915,1000.0,145.0,32.96349974265702,11.189806018829504,1000.0,1000.0,0.0,145000
146000,0,75.17810937711725,0.000652313232421875,0.00012564659118652344,0.015172958374023438,145988.0,35.82496994018555,nan,-0.014169018521594504,222.62805684407553,-6.068542083104451,0.20674317454298338,41.3957181787441,1000.0,146.0,52.63531018248805,12.619007740815332,1000.0,1000.0,0.0,146000
147000,0,75.06283417004849,0.0006480216979980469,0.0001323223114013672,0.015246868133544922,146988.0,35.36209976196289,nan,0.018136581716438133,217.24436569213867,-5.911786079406738,0.205602099498113,21.863315450697662,1000.0,147.0,61.81014661856568,29.053038229472666,1000.0,1000.0,0.0,147000
148000,0,73.86595621478678,0.0009992122650146484,0.00019097328186035156,0.015282869338989258,147988.0,35.53265266418457,nan,0.06784443169211347,222.9913558959961,-5.670508464177449,0.20590506990750632,42.067935596107375,1000.0,148.0,23.895001954841327,18.05573235542329,1000.0,1000.0,0.0,148000
149000,0,75.32630051471037,0.0006844997406005859,0.00013303756713867188,0.014975309371948242,148988.0,35.55191307067871,nan,-0.009683761687483639,221.3215789794922,-6.047901471455892,0.20219251389304796,61.73830118061857,1000.0,149.0,45.514816332190435,19.571992059657248,1000.0,1000.0,0.0,149000
150000,0,75.54369870010856,0.00077056884765625,0.0001418590545654297,0.015449047088623047,149988.0,35.631177520751955,nan,0.06932412056873243,227.20213572184244,-5.648671944936116,0.19729229932030043,9.679292785939099,1000.0,150.0,37.825717356178124,9.83276127833051,1000.0,1000.0,0.0,150000
151000,0,75.6513953550452,0.0006773471832275391,0.00013375282287597656,0.015363693237304688,150988.0,35.11637252807617,nan,0.05722821565965811,227.74118423461914,-5.710972984631856,0.19799304629365602,35.317977975188946,1000.0,151.0,34.228366820028064,21.364091398361023,1000.0,1000.0,0.0,151000
152000,0,74.24782176149661,0.0007970333099365234,0.00012731552124023438,0.014988183975219727,151988.0,35.1547827911377,nan,-0.17876096814870834,215.43978118896484,-6.883735418319702,0.20231840386986732,45.89939010181439,1000.0,152.0,50.24368582744792,15.408882563323091,1000.0,1000.0,0.0,152000
153000,0,75.68612420575029,0.0006256103515625,0.000133514404296875,0.014972925186157227,152988.0,35.52479553222656,nan,0.03612336268027624,220.48548634847006,-5.822518229484558,0.20352308576305708,52.91992288287065,1000.0,153.0,48.58269996317845,17.418764420503145,1000.0,1000.0,0.0,153000
154000,0,75.4338118974635,0.000637054443359375,0.0001709461212158203,0.015636205673217773,153988.0,36.021228332519534,nan,0.06123484461568296,223.0634969075521,-5.687007506688436,0.1955993982652823,50.77055192608417,1000.0,154.0,51.78192213292458,15.492378176906593,1000.0,1000.0,0.0,154000
155000,0,75.03780242837217,0.0006737709045410156,0.0001323223114013672,0.0150146484375,154988.0,35.402635650634764,nan,0.0384943854684631,224.81627909342447,-5.797354857126872,0.18993088727196059,51.01836535236495,1000.0,155.0,38.553444330920804,17.699273401258857,1000.0,1000.0,0.0,155000
156000,0,76.81610962845969,0.0007505416870117188,0.0001499652862548828,0.015265464782714844,155988.0,35.5334001159668,nan,0.042618501310547195,222.0971196492513,-5.772796591122945,0.1875613989929358,82.38482442283717,1000.0,156.0,57.94595419140086,16.177995284966332,1000.0,1000.0,0.0,156000
157000,0,75.32624640277692,0.0006728172302246094,0.00014019012451171875,0.015208244323730469,156988.0,34.45875289916992,nan,0.06347069734086593,225.2725601196289,-5.658085227012634,0.18562429149945578,67.01370815145461,1000.0,157.0,60.84224525920357,16.586522813338092,1000.0,1000.0,0.0,157000
158000,0,75.11692963447176,0.0007040500640869141,0.0001316070556640625,0.01520228385925293,157988.0,34.56234878540039,nan,-0.0024831738555803895,225.47455469767252,-6.013424038887024,0.18499835208058357,43.28423802972787,1000.0,158.0,45.71901565457944,9.327409970112274,1000.0,1000.0,0.0,158000
159000,0,75.18802815134035,0.0006368160247802734,0.00014328956604003906,0.015152931213378906,158988.0,35.011910095214844,nan,-0.15129394394656023,207.51476542154947,-6.797251065572103,0.18983285501599312,59.101488787472746,1000.0,159.0,40.20318548885638,17.375253775365938,1000.0,1000.0,0.0,159000
160000,0,74.56116274274174,0.0006108283996582031,0.00013327598571777344,0.014681816101074219,159988.0,34.63338455200196,nan,-0.02482523474221428,214.70311482747397,-6.125262538592021,0.19818566367030144,46.15247990935536,1000.0,160.0,40.3359213932251,15.825915188601353,1000.0,1000.0,0.0,160000
161000,0,75.63458843267783,0.0006563663482666016,0.0001506805419921875,0.015035152435302734,160988.0,35.76532699584961,nan,0.04837590099001924,218.72314834594727,-5.755077242851257,0.19750179598728815,51.58045798711199,1000.0,161.0,43.560351923859756,11.168367313643621,1000.0,1000.0,0.0,161000
162000,0,76.05298735660863,0.00067901611328125,0.0001399517059326172,0.014925956726074219,161988.0,35.79073638916016,nan,0.022568035249908764,218.8716303507487,-5.884266177813212,0.19497964655359587,49.561548098064115,1000.0,162.0,45.27907440724627,10.816906104491245,1000.0,1000.0,0.0,162000
163000,0,75.08960329639875,0.0006539821624755859,0.00018215179443359375,0.015141725540161133,162988.0,35.44372970581055,nan,0.008150318171828985,221.20848592122397,-5.957112073898315,0.18990975990891457,53.321970041731404,1000.0,163.0,55.835215973356604,19.397983164928807,1000.0,1000.0,0.0,163000
164000,0,75.88868728962046,0.0006241798400878906,0.000125885009765625,0.014436006546020508,163988.0,37.12038909912109,nan,0.045734937147547804,224.4770050048828,-5.748658180236816,0.1819225661456585,73.03382065022946,1000.0,164.0,45.43866719769968,12.271420019930778,1000.0,1000.0,0.0,164000
165000,0,74.63179689095864,0.0006258487701416016,0.00017261505126953125,0.014827251434326172,164988.0,37.15745025634766,nan,0.06521854115029176,230.8602752685547,-5.626918196678162,0.17481396719813347,26.287851761415677,1000.0,165.0,50.02462704152374,10.308855861192187,1000.0,1000.0,0.0,165000
166000,0,75.8780886330777,0.0006945133209228516,0.00013375282287597656,0.015600919723510742,165988.0,36.54514450073242,nan,0.046773547461877264,234.36054611206055,-5.724907795588176,0.1700267381966114,39.91790412603149,1000.0,166.0,46.83763973782427,8.613350581396004,1000.0,1000.0,0.0,166000
167000,0,75.36869403462468,0.0006935596466064453,0.0001461505889892578,0.014846563339233398,166988.0,36.71052291870117,nan,0.04956540965940803,233.09184646606445,-5.708176016807556,0.16980846102039018,38.99170261213113,1000.0,167.0,42.697307281904195,16.76393974491475,1000.0,1000.0,0.0,167000
168000,0,75.49404155075193,0.0006999969482421875,0.00013756752014160156,0.015202045440673828,167988.0,37.1326708984375,nan,0.006511979813997944,233.38965352376303,-5.9614490667978925,0.16891750444968542,14.859285561994797,1000.0,168.0,40.95671590868697,10.832704146653873,1000.0,1000.0,0.0,168000
169000,0,76.05243574995974,0.0006911754608154297,0.00013065338134765625,0.015502214431762695,168988.0,37.033071746826174,nan,-0.09667199120546381,221.46580505371094,-6.5537417729695635,0.17463587845365205,34.09748724178384,1000.0,169.0,58.424106545190035,8.24563311233027,1000.0,1000.0,0.0,169000
170000,0,73.97930422868495,0.0006794929504394531,0.000133514404296875,0.014986753463745117,169988.0,36.7911946105957,nan,-0.05986438885641595,224.89839808146158,-6.332731644312541,0.1799169878164927,41.50966036675425,1000.0,170.0,55.99717067734574,7.239452616187223,1000.0,1000.0,0.0,170000
171000,0,74.72678773643061,0.0006687641143798828,0.000133514404296875,0.014884471893310547,170988.0,36.99030990600586,nan,-0.022724491039601464,226.81862513224283,-6.1258242925008135,0.1806094783047835,28.2549760195872,1000.0,171.0,58.39019911919631,9.389348602844878,1000.0,1000.0,0.0,171000
172000,0,75.12451783370493,0.0006592273712158203,0.0002033710479736328,0.015697479248046875,171988.0,35.832127227783204,nan,0.01643266862568756,230.8065668741862,-5.907921512921651,0.17843390256166458,32.90208882633421,1000.0,172.0,43.58681605388132,4.911570465467319,1000.0,1000.0,0.0,172000
173000,0,75.19703278309971,0.0008211135864257812,0.00014328956604003906,0.014920234680175781,172988.0,36.74779861450195,nan,0.010632245490948359,231.85926310221353,-5.940380891164144,0.17832267905275026,29.995272851230222,1000.0,173.0,17.764695080253617,4.858928279615276,1000.0,1000.0,0.0,173000
174000,0,76.16291654137196,0.0006225109100341797,0.0001327991485595703,0.015326499938964844,173988.0,36.4460546875,nan,0.02874601768174519,231.2131436665853,-5.841344396273295,0.18116866300503412,7.216104182187328,1000.0,174.0,1.7939106368391893,2.192774095691049,1000.0,1000.0,0.0,174000
175000,0,75.896102617701,0.0006589889526367188,0.00017523765563964844,0.015027523040771484,174988.0,36.44771179199219,nan,-0.05282821560588976,225.47419102986655,-6.2856578429539995,0.18493897592027983,5.229201149484072,1000.0,175.0,14.5542908151421,4.622517151098954,1000.0,1000.0,0.0,175000
176000,0,75.54925043427764,0.000980377197265625,0.00018668174743652344,0.015755891799926758,175988.0,36.39753036499023,nan,-0.06449224551518758,225.13637034098306,-6.348402221997579,0.18511714165409407,10.064666322800003,1000.0,176.0,20.130200308706964,8.082774843376223,1000.0,1000.0,0.0,176000
177000,0,74.20022063854975,0.0006337165832519531,0.0001442432403564453,0.015674352645874023,176988.0,35.67805244445801,nan,0.028606817436714966,224.28706868489584,-5.8471494515736895,0.18714262917637825,56.7072240597514,1000.0,177.0,64.21423713276832,14.421647656495239,1000.0,1000.0,0.0,177000
178000,0,74.85364086419885,0.0007352828979492188,0.00014019012451171875,0.014772891998291016,177988.0,35.88324478149414,nan,0.04341088165529072,227.0010617574056,-5.761090159416199,0.18171152348319689,45.86694758609293,1000.0,178.0,23.542600967443786,5.874926009542694,1000.0,1000.0,0.0,178000
179000,0,75.33192858030621,0.0010633468627929688,0.0002105236053466797,0.014777898788452148,178988.0,35.90631088256836,nan,0.06473713461309671,226.3350626627604,-5.641644676526387,0.180649201075236,22.19913264934589,1000.0,179.0,50.55881202741743,20.42613461894264,1000.0,1000.0,0.0,179000
180000,0,74.94667985613567,0.0009582042694091797,0.0001633167266845703,0.016073226928710938,179988.0,36.074266052246095,nan,-0.037743410638843976,220.79269663492838,-6.2129441897074384,0.1772468201816082,42.55135607901234,1000.0,180.0,45.6524376420554,11.685962653816782,1000.0,1000.0,0.0,180000
181000,0,75.44021589374529,0.0010061264038085938,0.0001819133758544922,0.016712427139282227,180988.0,35.43253273010254,nan,0.06896322593092918,223.5253880818685,-5.6022709608078,0.17337312425176302,19.207552232210734,1000.0,181.0,41.86632322166472,5.6961596774227905,1000.0,1000.0,0.0,181000
182000,0,75.24198033158606,0.0010139942169189453,0.00012922286987304688,0.017125844955444336,181988.0,35.72289886474609,nan,-0.038343873883907996,219.49731063842773,-6.217114607493083,0.17663346727689108,64.89082452214797,1000.0,182.0,57.51441584228682,12.186730683139482,1000.0,1000.0,0.0,182000
183000,0,75.25186196285117,0.0010721683502197266,0.0001766681671142578,0.01584005355834961,182988.0,35.27846862792969,nan,0.06723442021757364,221.1020991007487,-5.619907220204671,0.17687812199195227,56.87629787903345,1000.0,183.0,18.303756863384216,3.933230719759591,1000.0,1000.0,0.0,183000
184000,0,74.66214003138644,0.0010008811950683594,0.00017786026000976562,0.01662468910217285,183988.0,35.38863151550293,nan,0.07982214788595836,225.3048998514811,-5.534108122189839,0.17129955564936003,23.596125460641836,1000.0,184.0,35.2561835795925,7.983051671267708,1000.0,1000.0,0.0,184000
185000,0,74.8653449625022,0.0009267330169677734,0.00016546249389648438,0.0157930850982666,184988.0,35.728488006591796,nan,-0.008169242297299206,222.03182729085287,-6.048334042231242,0.16905486832062402,32.812582192159134,1000.0,185.0,24.2961143068995,8.593969391817955,1000.0,1000.0,0.0,185000
186000,0,75.19347380860866,0.0009758472442626953,0.00021457672119140625,0.015691757202148438,185988.0,35.43595764160156,nan,-0.02793653740081936,216.97620646158853,-6.160485823949178,0.17409247905015945,66.60787779944025,1000.0,186.0,65.31426784370026,16.47337296795986,1000.0,1000.0,0.0,186000
187000,0,75.58927971557135,0.0012028217315673828,0.00019693374633789062,0.015679597854614258,186988.0,35.42239952087402,nan,0.07593213968599836,217.51976013183594,-5.5575675169626875,0.17158477877577147,78.0763159582009,1000.0,187.0,64.83761572008274,18.55100351849828,1000.0,1000.0,0.0,187000
188000,0,75.22513894299301,0.0009174346923828125,0.0001595020294189453,0.015651702880859375,187988.0,35.85307861328125,nan,0.07286803610622883,221.92063649495444,-5.56149693330129,0.16616364568471909,55.20072471557096,1000.0,188.0,66.51181539143793,25.592655756907558,1000.0,1000.0,0.0,188000
189000,0,75.56182649639045,0.0010116100311279297,0.00020813941955566406,0.016492605209350586,188988.0,35.72788635253906,nan,0.06574415400003393,226.7807362874349,-5.598570227622986,0.16376003871361414,65.57318432678387,1000.0,189.0,45.02275165823739,11.071477976694716,1000.0,1000.0,0.0,189000
190000,0,75.37335319183195,0.0006089210510253906,0.00013399124145507812,0.01569223403930664,189988.0,35.203069915771486,nan,-0.008194515792032083,225.2950236002604,-6.050796469052632,0.16137868290146193,53.118191326735705,1000.0,190.0,85.2729967223307,22.704417999599297,1000.0,1000.0,0.0,190000
191000,0,74.23336684270888,0.0006511211395263672,0.0001316070556640625,0.015080451965332031,190988.0,35.162063140869144,nan,-0.03677478095050901,217.5594482421875,-6.220728596051534,0.16661071653167406,51.23500200623413,1000.0,191.0,49.92595751626629,22.7385728486671,1000.0,1000.0,0.0,191000
192000,0,75.45481889997222,0.0007395744323730469,0.00018358230590820312,0.014947891235351562,191988.0,35.001501922607424,nan,0.03006165420326094,220.33930587768555,-5.821345289548238,0.16826489816109338,60.882759886510144,1000.0,192.0,36.57184458770583,26.07459757705591,1000.0,1000.0,0.0,192000
193000,0,75.0309296792544,0.00061798095703125,0.0001251697540283203,0.015121936798095703,192988.0,35.25069396972656,nan,0.03334082725147406,220.39430363972983,-5.804547667503357,0.17058202996850014,25.55446124308129,1000.0,193.0,53.156846731662895,28.003293966361387,1000.0,1000.0,0.0,193000
194000,0,67.32430176565008,0.0006535053253173828,0.00012683868408203125,0.014892339706420898,193988.0,36.506891326904295,nan,-0.04237158850689108,215.90079625447592,-6.254012703895569,0.16683196524779,33.46215372460776,1000.0,194.0,66.61793944631928,19.254638843282823,1000.0,1000.0,0.0,194000
195000,0,68.8146751998992,0.0006759166717529297,0.00013184547424316406,0.014937639236450195,194988.0,36.07203285217285,nan,0.010938895555833975,219.66898473103842,-5.934466004371643,0.16691415756940842,53.910176231343755,1000.0,195.0,51.981970259043536,16.665720480285973,1000.0,1000.0,0.0,195000
196000,0,68.39455022672601,0.0007166862487792969,0.00014257431030273438,0.015640735626220703,195988.0,35.79547988891601,nan,-0.17876827095945677,210.532470703125,-7.067385196685791,0.16752407203118005,52.80941563390144,1000.0,196.0,47.079005603787564,21.935362928405983,1000.0,1000.0,0.0,196000
197000,0,70.41014208589617,0.0006487369537353516,0.00018024444580078125,0.015029191970825195,196988.0,35.30728729248047,nan,-0.007376940222457051,217.9553476969401,-6.043770631154378,0.16854794695973396,55.53018434839204,1000.0,197.0,59.33708796239123,14.789311865144189,1000.0,1000.0,0.0,197000
198000,0,70.86246582155982,0.0008070468902587891,0.00018310546875,0.016689777374267578,197988.0,37.437396392822265,nan,-0.21169134105245271,181.18721516927084,-7.275021592775981,0.16612145553032556,63.08830529672856,1000.0,198.0,52.29536816554836,16.969468838626376,1000.0,1000.0,0.0,198000
199000,0,68.52192869530896,0.0006885528564453125,0.0001342296600341797,0.015248775482177734,198988.0,35.773910675048825,nan,0.02070638968143612,214.1515210469564,-5.878904660542806,0.17096979916095734,35.917991133125234,1000.0,199.0,64.75182186058655,17.365304577957122,1000.0,1000.0,0.0,199000
200000,0,71.26702706523467,0.0006163120269775391,0.00012564659118652344,0.015326976776123047,199988.0,35.00205711364746,nan,0.06086028506979346,218.79263178507486,-5.634607712427775,0.1665581613779068,35.14101464399056,1000.0,200.0,44.456403785296224,15.236014131049659,1000.0,1000.0,0.0,200000
