niicovila/Q-Reps/lightning_research_framework/results/XSAC_TEST/sac_1_v3/log.csv
time/steps,time/epochs,time/steps_per_second,time/dataset,time/preprocess,time/train_step,train/env_steps,train/q_loss,train/target_q,train/value_loss,train/target_v,train/alpha_loss,train/actor_loss,train/entropy,train/alpha,train/reward,train/length,train/num_ep,eval/reward,eval/stddev,eval/length,eval/discount,eval/early_termination,step
1000,0,64.72219924721533,0.00048542022705078125,0.00013184547424316406,0.015453815460205078,988.0,0.000151484003290534,0.15194169640541078,-9.012881851196289,0.14825461864471434,0.9657958994309107,-0.5287388364473978,3.9021650751431785,0.09752391713360946,3.7475666866376294,1000.0,1.0,6.644720462730183,1.3027523995428463,1000.0,1000.0,0.0,1000
2000,0,65.83703986478172,0.0005636215209960938,0.00017404556274414062,0.015668392181396484,1988.0,7.359082199400291e-05,0.14621180474758147,-10.006718978881835,0.13979235649108887,0.9343131532271703,-0.5165102581183115,4.070452928543091,0.09276855054001014,2.411463155336639,1000.0,2.0,2.124673004124715,1.6744026446978668,1000.0,1000.0,0.0,2000
3000,0,65.7456052076025,0.0006725788116455078,0.00015211105346679688,0.01613473892211914,2988.0,4.692560527473688e-05,0.13824632585048677,-10.687254867553712,0.13292909860610963,0.8911517858505249,-0.4938605800271034,4.082509597142537,0.08837742855151494,4.342139817793716,1000.0,3.0,1.1556394375415204,1.114732512343124,1000.0,1000.0,0.0,3000
4000,0,64.86356750363575,0.0008594989776611328,0.00015783309936523438,0.01624441146850586,3988.0,5.913170025451109e-05,0.13118346214294432,-10.7061372756958,0.1258896815776825,0.8499864389499029,-0.46988730132579803,4.085259636243184,0.08427213442822297,5.19799003374588,1000.0,4.0,1.1109674005062073,1.0793122181972543,1000.0,1000.0,0.0,4000
5000,0,63.897586022403054,0.0005981922149658203,0.0001461505889892578,0.01615142822265625,4988.0,5.162657966138795e-05,0.1278270637989044,-10.661626701354981,0.12227484554052354,0.8101220230261484,-0.4499787266055743,4.073952158292134,0.0804100123544534,6.875863064773239,1000.0,5.0,2.1521995766460407,1.425168696914876,1000.0,1000.0,0.0,5000
6000,0,61.760612366423274,0.0005600452423095703,0.0001380443572998047,0.016220569610595703,5988.0,5.821818398544565e-05,0.12325603157281875,-10.50851016998291,0.11806171655654907,0.7740100671847662,-0.4323066820700963,4.082459926605225,0.07676087754468124,5.607269208779645,1000.0,6.0,2.097121716684156,1.5739093398138577,1000.0,1000.0,0.0,6000
7000,0,66.74623437847114,0.0004858970642089844,0.00013136863708496094,0.016399621963500977,6988.0,8.451881309156307e-05,0.11938209295272827,-10.370624046325684,0.11340043783187866,0.7388950785001119,-0.4120546778043111,4.079229275385539,0.07330192687610786,4.671214440507877,1000.0,7.0,3.0049551498353693,1.4877789522664175,1000.0,1000.0,0.0,7000
8000,0,68.37599703692884,0.0005495548248291016,0.00013756752014160156,0.01675868034362793,7988.0,7.685379547183402e-05,0.11930676728487015,-10.191133575439453,0.1136282229423523,0.7058376918236414,-0.40105023483435315,4.07999046643575,0.07001722790300846,7.869306164413812,1000.0,8.0,4.9251654526280735,1.4905681505553878,1000.0,1000.0,0.0,8000
9000,0,70.49975560511434,0.0008685588836669922,0.00016689300537109375,0.01781487464904785,8988.0,0.00017706869199173524,0.1176732224225998,-9.82944190979004,0.11145197123289108,0.6742987235387167,-0.3832340935866038,4.079702576001485,0.06689057499170303,8.742545262004281,1000.0,9.0,11.652866549509781,1.485695247127487,1000.0,1000.0,0.0,9000
10000,0,70.33646364368124,0.0008413791656494141,0.00015592575073242188,0.017120838165283203,9988.0,0.00012252211367012932,0.11646439462900161,-9.767451400756835,0.1117196774482727,0.6437073995669683,-0.37282146016756695,4.0707307656606035,0.0639128095159928,5.938754863907956,1000.0,10.0,18.063484132034656,1.0500918395737113,1000.0,1000.0,0.0,10000
11000,0,68.96216990494631,0.0007987022399902344,0.0001838207244873047,0.0178830623626709,10988.0,0.00016074873390607537,0.11415445238351822,-9.604322128295898,0.10914456009864808,0.6148274590571722,-0.35725687195857364,4.065962553024292,0.06107429849604765,6.362395744312651,1000.0,11.0,20.171009346440563,0.8902229986534047,1000.0,1000.0,0.0,11000
12000,0,70.77030440836332,0.0010235309600830078,0.00022673606872558594,0.01782536506652832,11988.0,0.00013407131657004357,0.1151352933049202,-9.487928428649901,0.11019163966178894,0.5870512475570043,-0.3456333428621292,4.057269215583801,0.05836554182072481,7.891368614609815,1000.0,12.0,19.64264781413199,0.8611921885577095,1000.0,1000.0,0.0,12000
13000,0,69.99325817196335,0.0006363391876220703,0.0001418590545654297,0.016433238983154297,12988.0,0.00016532963258214295,0.11956000298261643,-9.330231475830079,0.11492407590150833,0.5600413034359614,-0.3400516261657079,4.039142370223999,0.05578070878982544,10.24631718762806,1000.0,13.0,23.646158561602743,0.7313382093482762,1000.0,1000.0,0.0,13000
14000,0,68.49748893406426,0.0006461143493652344,0.00013399124145507812,0.015833139419555664,13988.0,0.00022459706699009985,0.13410069644451142,-9.03882423400879,0.13053748190402983,0.5343392988046011,-0.3449307108918826,4.021598815917969,0.05331394945581754,19.403865427499397,1000.0,14.0,24.086254294809443,0.45981654211273026,1000.0,1000.0,0.0,14000
15000,0,69.43724480268273,0.001008749008178711,0.00023293495178222656,0.016085386276245117,14988.0,0.0003422039223369211,0.15234708428382873,-8.798335685729981,0.15002949655056,0.5086331864198049,-0.35310444980859756,3.9799924890200296,0.05096070064852635,24.420243463243725,1000.0,15.0,29.509087891614644,1.0686427075804836,1000.0,1000.0,0.0,15000
16000,0,69.69648830931965,0.0006275177001953125,0.00014829635620117188,0.01535654067993164,15988.0,0.0005018939520232379,0.18538416802883148,-8.543377952575684,0.1855383813381195,0.4832784632841746,-0.37672589470942813,3.9190647999445596,0.0487177949398756,31.364662218203232,1000.0,16.0,35.59076586597437,1.1554307275600963,1000.0,1000.0,0.0,16000
17000,0,68.75204897072824,0.0006458759307861328,0.00013589859008789062,0.016094207763671875,16988.0,0.0006023293908219785,0.22708845734596253,-8.314709510803223,0.23011649668216705,0.45837537695964176,-0.40859951575597125,3.8396509091059365,0.04658034754296144,31.749829763145158,1000.0,17.0,37.83703700220635,1.6959409954500102,1000.0,1000.0,0.0,17000
18000,0,68.30682360788927,0.0005633831024169922,0.00013256072998046875,0.01623845100402832,17988.0,0.0009560363600030541,0.28655341744422913,-8.048706912994385,0.29382904171943663,0.4329841509461403,-0.45697121570507687,3.719171325365702,0.044545513577759266,43.07270938647505,1000.0,18.0,55.665805957409816,3.2266550810727592,1000.0,1000.0,0.0,18000
19000,0,65.7259479896902,0.0005686283111572266,0.00013899803161621094,0.01635122299194336,18988.0,0.001684351973235607,0.4016995656490326,-7.631029243469238,0.42629181027412416,0.4026659081379573,-0.5703765600919724,3.447457234064738,0.04261792047570149,73.22604195224447,1000.0,19.0,94.51517847517228,4.218754635630558,1000.0,1000.0,0.0,19000
20000,0,66.13364145108831,0.0005192756652832031,0.00012874603271484375,0.016481876373291016,19988.0,0.003345886841416359,0.6005280160903931,-7.245680694580078,0.6563734197616578,0.36708787828683853,-0.7701269338528315,2.9914947748184204,0.0408225633824865,87.67309783706726,1000.0,20.0,100.47872940411307,3.9569198982059683,1000.0,1000.0,0.0,20000
21000,0,66.59946864017998,0.0005121231079101562,0.00015926361083984375,0.017032384872436523,20988.0,0.0038445762917399405,0.8517722487449646,-7.042833976745605,0.9332709121704101,0.33653760453065235,-1.0270062138636906,2.6019195516904197,0.03912019977966944,85.32912024433651,1000.0,21.0,69.87668173414126,27.644833738357857,1000.0,1000.0,0.0,21000
22000,0,61.270465101739,0.0005640983581542969,0.00013518333435058594,0.017102718353271484,21988.0,0.005995347816497088,1.1865717220306395,-6.873136177062988,1.3611925792694093,0.2849670425057411,-1.416779786348343,1.5838123957316081,0.037572864443063736,63.48624085731466,1000.0,22.0,21.958756739503247,6.663596172957735,1000.0,1000.0,0.0,22000
23000,0,61.37227473588715,0.0008244514465332031,0.00017142295837402344,0.01668691635131836,22988.0,0.00723047211766243,1.7016514682769774,-6.707854957580566,1.9206099891662598,0.2523402124643326,-1.9606551726659138,0.978177011013031,0.0361585800225536,65.79631266626924,1000.0,23.0,29.007503227176926,12.574882312024531,1000.0,1000.0,0.0,23000
24000,0,67.21089551626534,0.0005414485931396484,0.00014925003051757812,0.017107009887695312,23988.0,0.006102949474006891,2.3109323501586916,-6.751951732635498,2.52972580909729,0.23698195815086365,-2.559277911980947,0.8093580802281698,0.03479973537226518,78.98675298396243,1000.0,24.0,77.34385157603792,6.267936994998957,1000.0,1000.0,0.0,24000
25000,0,66.05902230913256,0.0007450580596923828,0.0001544952392578125,0.017301321029663086,24988.0,0.006118598990142345,2.7874971771240236,-6.780160655975342,2.9317711353302003,0.24793953200181326,-2.980868657430013,1.4300876160462697,0.0333665298918883,70.45148651588885,1000.0,25.0,15.794099612876618,7.684849410650985,1000.0,1000.0,0.0,25000
26000,0,65.65672630549423,0.0009634494781494141,0.00018787384033203125,0.01762700080871582,25988.0,0.00835460338741541,3.010865526199341,-6.738971710205078,3.115015525817871,0.2494372675816218,-3.1634978453318277,1.8276548782984416,0.03186320327222347,26.877772855097987,1000.0,26.0,50.282172853288415,17.720312234907734,1000.0,1000.0,0.0,26000
27000,0,64.7415403727015,0.0006680488586425781,0.0001614093780517578,0.017103195190429688,26988.0,0.015521544367074966,3.2555510807037353,-6.435322074890137,3.456058874130249,0.2055289720495542,-3.4623279174168906,0.7438022444645563,0.030474245237807434,17.16929767938162,1000.0,27.0,40.87908133184873,10.89719903644883,1000.0,1000.0,0.0,27000
28000,0,66.722450270402,0.000579833984375,0.00014281272888183594,0.017064332962036133,27988.0,0.03306816652417183,4.010371828079224,-6.018964900970459,4.3824098777771,0.13350780680775642,-4.337689797083537,-1.4620810151100159,0.029418811357269686,68.55197964921422,1000.0,28.0,64.2155325697671,15.759636247742474,1000.0,1000.0,0.0,28000
29000,0,67.0851212338929,0.0006394386291503906,0.0001533031463623047,0.016932010650634766,28988.0,0.032416861802339554,4.912469291687012,-5.980061645507813,5.217337131500244,0.14423886189858118,-5.171239733695984,-0.9403012692928314,0.02850525655473272,53.92307420031358,1000.0,29.0,50.287130821976,28.755687014588105,1000.0,1000.0,0.0,29000
30000,0,66.27442131802275,0.0007755756378173828,0.00017333030700683594,0.01666569709777832,29988.0,0.032903709411621095,5.605512924194336,-5.859891586303711,5.866484317779541,0.1437724605202675,-5.840257207552592,-0.7533551901578903,0.027400659242024023,73.06404777630102,1000.0,30.0,47.03629925427825,6.628796858063175,1000.0,1000.0,0.0,30000
31000,0,63.31575394328624,0.0005755424499511719,0.00013875961303710938,0.016663074493408203,30988.0,0.037427198737859727,6.091404838562012,-5.786261463165284,6.367887210845947,0.13226954887310663,-6.3413946231206255,-0.9681682139635086,0.02628442520896594,32.766944475541386,1000.0,31.0,46.53916696679575,6.409760264545199,1000.0,1000.0,0.0,31000
32000,0,61.46390129442914,0.0005583763122558594,0.0001285076141357422,0.016765117645263672,31988.0,0.03760808654129505,6.7961352348327635,-5.777090225219727,7.108499450683594,0.11522021455069383,-7.077102343241374,-1.4410222967465718,0.025271177912751835,81.94380953046281,1000.0,32.0,41.40338747757936,4.560894839534425,1000.0,1000.0,0.0,32000
33000,0,67.08104414937037,0.0005712509155273438,0.00017690658569335938,0.016361713409423828,32988.0,0.036652604192495344,7.527825908660889,-5.89841136932373,7.879363117218017,0.09848985883096854,-7.847614924112956,-1.9557924469312031,0.024351719145973522,38.75265012485966,1000.0,33.0,25.642893562194452,7.507672561876784,1000.0,1000.0,0.0,33000
34000,0,66.4592013811864,0.0006132125854492188,0.00014400482177734375,0.016116857528686523,33988.0,0.035595190674066544,8.215133590698242,-5.860194683074951,8.543944168090821,0.09648075699806213,-8.50011920928955,-1.8811726570129395,0.02342243834088246,17.64685434943766,1000.0,34.0,27.44597135973599,11.526894886251943,1000.0,1000.0,0.0,34000
35000,0,67.36668979518413,0.0008802413940429688,0.0001628398895263672,0.016972064971923828,34988.0,0.03186936967074871,8.860957260131835,-5.8664845275878905,9.20410701751709,0.0811218445499738,-9.16120711962382,-2.401969869931539,0.0225445128356417,25.14152332086018,1000.0,35.0,10.299205798256565,3.964863995854646,1000.0,1000.0,0.0,35000
36000,0,66.39149591960911,0.0008869171142578125,0.00022220611572265625,0.018083810806274414,35988.0,0.030460477843880653,9.580691871643067,-5.845741806030273,9.916984825134277,0.07508624903857708,-9.874855836232504,-2.5423869490623474,0.021714812765518825,12.492433128087654,1000.0,36.0,2.2512687883213838,0.42864417701805324,1000.0,1000.0,0.0,36000
37000,0,65.82588072223052,0.0006392002105712891,0.0001392364501953125,0.016951799392700195,36988.0,0.02803792528808117,10.121949272155762,-5.844951152801514,10.381129531860351,0.0861858290930589,-10.367538849512735,-1.8577576478322346,0.020804647045830887,25.551526989536463,1000.0,37.0,24.382807458349433,3.9645174160391456,1000.0,1000.0,0.0,37000
38000,0,66.07200917442755,0.0005695819854736328,0.00016450881958007812,0.016637563705444336,37988.0,0.02728904291987419,10.565209121704102,-5.751712970733642,10.76179328918457,0.09753414491812389,-10.751048723856607,-1.0688965966304143,0.01977724675089121,45.40087842714191,1000.0,38.0,56.343892223579964,10.727927202740325,1000.0,1000.0,0.0,38000
39000,0,66.90649593613173,0.0008342266082763672,0.00017690658569335938,0.018352508544921875,38988.0,0.02893772006034851,10.81215919494629,-5.7165828132629395,11.024714698791504,0.08833340679605801,-11.004425525665283,-1.298786461353302,0.018787818184743326,38.18018233840665,1000.0,39.0,54.51498544343262,24.445339345882825,1000.0,1000.0,0.0,39000
40000,0,65.65652075090338,0.0006034374237060547,0.00013780593872070312,0.01709580421447754,39988.0,0.03127499520778656,11.188577575683594,-5.677727069854736,11.470557594299317,0.07130506324271361,-11.44408138593038,-2.030961364507675,0.01796399848535657,45.560514560881785,1000.0,40.0,83.56604167407212,14.698289604963675,1000.0,1000.0,0.0,40000
41000,0,66.76850486957684,0.0008211135864257812,0.00018477439880371094,0.018808364868164062,40988.0,0.030062571465969086,11.727769813537599,-5.791810569763183,11.988024024963378,0.06900010071694851,-11.94753623008728,-1.9987758199373882,0.017243262380361557,59.280144062038346,1000.0,41.0,70.84499045163919,6.594217963672766,1000.0,1000.0,0.0,41000
42000,0,61.8762517452146,0.0006470680236816406,0.0001404285430908203,0.017214536666870117,41988.0,0.029047865346074106,12.128704071044922,-5.857635536193848,12.325376014709473,0.07617974281311035,-12.320416768391928,-1.3721194863319397,0.01645951857790351,74.25217554270635,1000.0,42.0,98.58901544785438,6.958490669163875,1000.0,1000.0,0.0,42000
43000,0,62.11681854613935,0.0006449222564697266,0.00014162063598632812,0.017035961151123047,42988.0,0.02546186067163944,12.395163764953613,-5.936643733978271,12.549873504638672,0.08056334964931011,-12.533704360326132,-0.854419137040774,0.015655093515912693,81.19824572920528,1000.0,43.0,45.751720647315636,16.3057147289007,1000.0,1000.0,0.0,43000
44000,0,65.04495127099851,0.0006172657012939453,0.0001399517059326172,0.01721954345703125,43988.0,0.023015645518898963,12.632997512817383,-6.016832637786865,12.800595932006836,0.07074444182217121,-12.775778214136759,-1.2614479164282482,0.014928232257564863,39.81254722857525,1000.0,44.0,36.68257762084869,2.8387208201381404,1000.0,1000.0,0.0,44000
45000,0,66.80849301540275,0.0006248950958251953,0.0001399517059326172,0.017136096954345703,44988.0,0.021629185751080512,12.839287376403808,-6.063706302642823,13.002879638671875,0.06322014269729455,-12.99381415049235,-1.5744703610738118,0.014284215789909164,51.744700589411295,1000.0,45.0,64.28700953962513,4.830642484066692,1000.0,1000.0,0.0,45000
46000,0,66.50383867724985,0.0008897781372070312,0.00018215179443359375,0.016837120056152344,45988.0,0.022660308927297593,13.055680046081543,-6.117141513824463,13.217618865966797,0.05626709759235382,-13.200455665588379,-1.891391674677531,0.013693813622618714,69.65423772972696,1000.0,46.0,58.26218725236117,7.700597593961722,1000.0,1000.0,0.0,46000
47000,0,66.89539810881884,0.0009808540344238281,0.0002276897430419922,0.01847243309020996,46988.0,0.023275442570447922,13.234825820922852,-5.98412130355835,13.370194892883301,0.05503687479843696,-13.344504117965698,-1.8059855202833812,0.013121360369647542,87.59119044776254,1000.0,47.0,117.07520741498415,14.343440363138187,1000.0,1000.0,0.0,47000
48000,0,66.89031994667025,0.0006060600280761719,0.0001666545867919922,0.01674342155456543,47988.0,0.028300170302391053,13.372942314147949,-5.886571922302246,13.508676490783692,0.05157076412190994,-13.48059089978536,-1.8927644888559978,0.01255499136944612,108.29329097122819,1000.0,48.0,77.83778924696553,37.59115799689371,1000.0,1000.0,0.0,48000
49000,0,66.27525909314713,0.000576019287109375,0.0001316070556640625,0.016152381896972656,48988.0,0.0320538692176342,13.663105010986328,-5.912704048156738,13.89988971710205,0.03029663659011324,-13.87487800916036,-3.4988300999005637,0.012112265996014079,113.472900401248,1000.0,49.0,57.39372162533856,15.921392952187402,1000.0,1000.0,0.0,49000
50000,0,66.57401369985645,0.0005805492401123047,0.00013971328735351562,0.01693415641784668,49988.0,0.03259659968316555,14.00990634918213,-5.863494129180908,14.248782348632812,0.029770053302248318,-14.23174238204956,-3.4704038302103677,0.011767980176955462,37.892453246667735,1000.0,50.0,11.288189912334229,3.8537007394540677,1000.0,1000.0,0.0,50000
51000,0,66.10395693499082,0.0006196498870849609,0.00013899803161621094,0.01711130142211914,50988.0,0.025589572563767433,14.255127868652345,-5.909048099517822,14.46328281402588,0.027230047155171633,-14.412874857584635,-3.605456054210663,0.011371005636950334,13.3146150078895,1000.0,51.0,53.49192494312511,17.32188757433154,1000.0,1000.0,0.0,51000
52000,0,66.8392398535699,0.0005753040313720703,0.00013947486877441406,0.01707935333251953,51988.0,0.02490229584276676,14.471003303527832,-5.9206861305236815,14.725296630859376,0.017311906907707453,-14.669194062550863,-4.42657466729482,0.011002029525116086,21.183035891919772,1000.0,52.0,103.56650277378223,57.11758703590118,1000.0,1000.0,0.0,52000
53000,0,67.70676347031255,0.0005946159362792969,0.00013518333435058594,0.016729354858398438,52988.0,0.03161755308508873,14.935346984863282,-5.816052894592286,15.232818756103516,0.010498610596793393,-15.213313261667887,-5.023551384607951,0.010751363433276614,102.9155976007634,1000.0,53.0,54.508768165555935,24.0183720882753,1000.0,1000.0,0.0,53000
54000,0,61.54275958040095,0.0005793571472167969,0.0001316070556640625,0.01639866828918457,53988.0,0.0290863499045372,15.400848121643067,-5.929005794525146,15.625942077636719,0.022309874184429646,-15.55676531791687,-3.856129507223765,0.010405438564096888,104.13428148726874,1000.0,54.0,86.31344658530159,29.83624992491118,1000.0,1000.0,0.0,54000
55000,0,62.28192511742722,0.0007030963897705078,0.00018143653869628906,0.017022132873535156,54988.0,0.026685494855046274,15.63085048675537,-5.916294002532959,15.783808822631835,0.026815322538216908,-15.764724810918173,-3.286521097024282,0.00988097752754887,118.5559639020819,1000.0,55.0,69.09781855068766,26.52870859332483,1000.0,1000.0,0.0,55000
56000,0,66.06089509962597,0.0005717277526855469,0.00018072128295898438,0.01654982566833496,55988.0,0.029653193801641463,15.717147636413575,-5.780593357086182,15.955600318908692,0.013053676656757792,-15.929797093073526,-4.618175506591797,0.009446012244249383,59.20879763602333,1000.0,56.0,9.740529191816512,27.307635352405022,1000.0,1000.0,0.0,56000
57000,0,66.34411275846863,0.0006568431854248047,0.0001468658447265625,0.016607046127319336,56988.0,0.030413407683372497,16.20661552429199,-5.8694554138183594,16.47975440979004,0.012743570609018207,-16.42567030588786,-4.61642054716746,0.00920995301567018,2.384965124983485,1000.0,57.0,0.21912444160358632,0.06135503784692698,1000.0,1000.0,0.0,57000
58000,0,65.98477897802428,0.0008521080017089844,0.00016641616821289062,0.01731586456298828,57988.0,0.029085022136569022,16.499362030029296,-5.8750745391845705,16.671006088256835,0.020546960333983105,-16.638240496317547,-3.674217621485392,0.008833273701990644,3.258657742210859,1000.0,58.0,10.034495709631917,0.41555201660992563,1000.0,1000.0,0.0,58000
59000,0,67.40787454622713,0.0009369850158691406,0.0001697540283203125,0.018804311752319336,58988.0,0.024090386480093002,16.553218994140625,-5.930649089813232,16.66634292602539,0.021708857423315447,-16.620665073394775,-3.3982505202293396,0.008343057706952095,29.77555722071676,1000.0,59.0,86.7831513065071,13.005153675032036,1000.0,1000.0,0.0,59000
60000,0,66.50312164654488,0.0005993843078613281,0.00016236305236816406,0.017320632934570312,59988.0,0.02235916383564472,16.518251647949217,-5.975900268554687,16.622518310546877,0.019393452753623325,-16.60914707183838,-3.557282487551371,0.007938590676834186,78.5535374087606,1000.0,60.0,90.7064739247907,36.52759306523387,1000.0,1000.0,0.0,60000
61000,0,67.36530485329112,0.0006382465362548828,0.00013566017150878906,0.017084360122680664,60988.0,0.024068367704749107,16.565608978271484,-5.9377970695495605,16.68661590576172,0.01669718239766856,-16.64135726292928,-3.7985699574152627,0.007583980603764455,135.8982600883934,1000.0,61.0,121.90624923217987,41.22273209449881,1000.0,1000.0,0.0,61000
62000,0,67.15175516906159,0.0006055831909179688,0.0001373291015625,0.016701936721801758,61988.0,0.02129379063844681,16.56652473449707,-6.052365379333496,16.69581169128418,0.014544145980228981,-16.689996242523193,-4.001730183760325,0.007277766863505046,92.74156715763431,1000.0,62.0,106.77859082496215,55.203994685437635,1000.0,1000.0,0.0,62000
63000,0,66.73467997996514,0.0006012916564941406,0.00013303756713867188,0.016572237014770508,62988.0,0.023249607160687448,16.65049774169922,-5.950151138305664,16.792013244628905,0.010642371916522583,-16.75694529215495,-4.482357780138652,0.007011799491010606,100.84835907367317,1000.0,63.0,42.05577858757515,32.73433598667113,1000.0,1000.0,0.0,63000
64000,0,66.74852874243683,0.0006172657012939453,0.0001404285430908203,0.01674056053161621,63988.0,0.021554395630955694,16.639085693359377,-6.124229164123535,16.792632904052734,0.006763242961217959,-16.771167914072674,-5.005162318547566,0.006797965227936705,19.073879065582826,1000.0,64.0,89.17558423920171,53.241752459365365,1000.0,1000.0,0.0,64000
65000,0,66.91751203598287,0.0006601810455322266,0.0001456737518310547,0.01725912094116211,64988.0,0.02397275984287262,16.7209171295166,-5.985374126434326,16.877387237548827,0.005984200630337,-16.820740540822346,-5.095349113146464,0.006614600929121177,137.65573994171936,1000.0,65.0,81.4805093973625,62.530365767143024,1000.0,1000.0,0.0,65000
66000,0,62.0730603500584,0.000621795654296875,0.0001380443572998047,0.016486406326293945,65988.0,0.023896304219961167,16.774996643066405,-5.999436569213867,16.940772399902343,0.0023734175774734467,-16.93964147567749,-5.634074886639913,0.006485941121354699,25.74139342415765,1000.0,66.0,74.33138945719422,45.99018639045424,1000.0,1000.0,0.0,66000
67000,0,61.16474669363904,0.0007147789001464844,0.00015115737915039062,0.016750335693359375,66988.0,0.023167481198906898,16.861164474487303,-6.019623298645019,17.025185470581054,0.0023126191129752747,-17.00564702351888,-5.638116081555684,0.006390457546027998,50.841197346717216,1000.0,67.0,66.46046106668953,30.56800588486409,1000.0,1000.0,0.0,67000
68000,0,66.70831525521636,0.0006859302520751953,0.00014090538024902344,0.01680731773376465,67988.0,0.025946109741926193,16.968054428100587,-5.947298069000244,17.145162506103517,0.0002813584142131731,-17.098097165425617,-5.955692450205485,0.006349304729762177,121.66162683594686,1000.0,68.0,109.5668943422601,54.26867828845692,1000.0,1000.0,0.0,68000
69000,0,66.51619934256183,0.0006492137908935547,0.00018930435180664062,0.016366958618164062,68988.0,0.024703391194343567,17.08125747680664,-5.949850444793701,17.26292793273926,-0.0015791644400451332,-17.24907652537028,-6.248150984446208,0.006363679848921795,21.6981053787996,1000.0,69.0,82.61111511850787,49.39662465310858,1000.0,1000.0,0.0,69000
70000,0,67.08632299547352,0.0008635520935058594,0.0001556873321533203,0.01676201820373535,69988.0,0.031095117181539535,17.20613311767578,-5.848983783721923,17.425979919433594,-0.0029134704964235425,-17.393455346425373,-6.4490814208984375,0.0064887557333956165,33.06482133763223,1000.0,70.0,89.21086075069698,41.688257571602534,1000.0,1000.0,0.0,70000
71000,0,66.3784672085019,0.0009200572967529297,0.0001800060272216797,0.017052173614501953,70988.0,0.03588461831212044,17.43157081604004,-5.818383274078369,17.671573562622072,-0.002737535076448694,-17.628845691680908,-6.400989452997844,0.006827515045491357,76.29349390359378,1000.0,71.0,86.91945439623922,40.90230761763774,1000.0,1000.0,0.0,71000
72000,0,67.12114985526951,0.0007531642913818359,0.00014495849609375,0.01663041114807129,71988.0,0.03828174367547035,17.57794761657715,-5.667008476257324,17.73817008972168,0.002902626971869419,-17.72710911432902,-5.575390179951985,0.006835263959753017,19.447954224094378,1000.0,72.0,71.31170136945887,28.786626709948806,1000.0,1000.0,0.0,72000
73000,0,66.59845345273821,0.0006542205810546875,0.0001494884490966797,0.017159223556518555,72988.0,0.03325349390506745,17.494058380126955,-5.728596019744873,17.623540649414064,0.004641469509806484,-17.612003485361736,-5.284612059593201,0.006488003806831936,25.95274468914756,1000.0,73.0,102.48472902834484,63.89689310982223,1000.0,1000.0,0.0,73000
74000,0,66.20286978267966,0.0006208419799804688,0.00015306472778320312,0.016859054565429688,73988.0,0.032942741885781286,17.5455647277832,-5.741963081359863,17.692762985229493,0.002810095795818294,-17.629708766937256,-5.545317093531291,0.006179801033188899,89.76004886532239,1000.0,74.0,120.09829680900482,48.37567220612755,1000.0,1000.0,0.0,74000
75000,0,66.60149910791583,0.0006611347198486328,0.00013208389282226562,0.016819238662719727,74988.0,0.040959368124604226,17.580724182128908,-5.502288703918457,17.791422500610352,-0.002632377087138593,-17.788115342458088,-6.426560560862224,0.0061717293768500285,34.44758761955089,1000.0,75.0,110.71167385586152,61.56347827665502,1000.0,1000.0,0.0,75000
76000,0,66.93357300433041,0.0006411075592041016,0.00014019012451171875,0.016911745071411133,75988.0,0.03558436170220375,17.85799499511719,-5.733392543792725,18.087876510620116,-0.0021199074496204653,-18.02830441792806,-6.332186778386434,0.006382426790272196,197.11161125123783,1000.0,76.0,171.47804764854993,45.069111320141104,1000.0,1000.0,0.0,76000
77000,0,62.03233611576164,0.0006673336029052734,0.0001399517059326172,0.016628265380859375,76988.0,0.03895907282829285,18.21901840209961,-5.579731845855713,18.446036224365233,-0.0027082547361108786,-18.38219388326009,-6.414863069852193,0.0065285634870330496,203.14823717960027,1000.0,77.0,129.19754348932895,68.59188815652804,1000.0,1000.0,0.0,77000
78000,0,61.69712759935842,0.0006897449493408203,0.00013446807861328125,0.01607227325439453,77988.0,0.035269017517566684,18.36865966796875,-5.672114715576172,18.570447463989257,0.002016061528896292,-18.513614495595295,-5.691770831743876,0.006540621048770845,94.93812600438919,1000.0,78.0,134.59916595903672,52.732414547266,1000.0,1000.0,0.0,78000
79000,0,63.39368950528091,0.0006413459777832031,0.00014328956604003906,0.016815662384033203,78988.0,0.03206272043287754,18.47766426086426,-5.777868976593018,18.660302200317382,0.002385161176789552,-18.596725463867188,-5.623628934224446,0.006337508248786132,17.291539170570115,1000.0,79.0,132.02176836160294,44.1619627496991,1000.0,1000.0,0.0,79000
80000,0,66.26407654099417,0.0005972385406494141,0.00014781951904296875,0.016901254653930664,79988.0,0.033034348860383034,18.557241973876952,-5.7131650924682615,18.723100509643555,0.002846089245091813,-18.635093212127686,-5.525232672691345,0.005993533258636792,145.23058593148397,1000.0,80.0,160.93217310173202,29.862895540603333,1000.0,1000.0,0.0,80000
81000,0,67.20413257834306,0.0006489753723144531,0.00014901161193847656,0.016791343688964844,80988.0,0.030400292053818702,18.54366394042969,-5.820795593261718,18.686712799072264,0.004273925888507317,-18.668569564819336,-5.2431513865788775,0.005646414356306195,87.24935832506958,1000.0,81.0,115.68359128245399,39.26403128203838,1000.0,1000.0,0.0,81000
82000,0,66.48966964289677,0.0009288787841796875,0.00017547607421875,0.0170285701751709,81988.0,0.029151377156376838,18.673600845336914,-5.794233894348144,18.815797653198242,0.0024635728041175753,-18.778680006663006,-5.542805473009746,0.005387857983199258,167.15333104137213,1000.0,82.0,92.80883002706452,32.61386415988732,1000.0,1000.0,0.0,82000
83000,0,67.37197040859729,0.0009396076202392578,0.00019860267639160156,0.017711639404296875,82988.0,0.029755700156092645,18.713540496826173,-5.727386722564697,18.84358940124512,0.0023874643860229603,-18.821363131205242,-5.537606239318848,0.005162685799101989,115.39856444576318,1000.0,83.0,103.6747206585358,39.27074496395501,1000.0,1000.0,0.0,83000
84000,0,67.04441554422564,0.0006148815155029297,0.0001366138458251953,0.017086505889892578,83988.0,0.02812092311680317,18.750922775268556,-5.813439979553222,18.869173583984374,0.0012653246473443385,-18.871050516764324,-5.744064927101135,0.004943422313469152,136.12402885456663,1000.0,84.0,40.2286361226351,38.38283674745067,1000.0,1000.0,0.0,84000
85000,0,66.75736776664563,0.0008184909820556641,0.0001373291015625,0.016933202743530273,84988.0,0.025095040798187255,18.734219512939454,-5.87955041885376,18.839198455810546,0.0017399577506391022,-18.788268725077312,-5.635009328524272,0.0047666785928110285,15.157270091128682,1000.0,85.0,21.910056239096047,20.57687848120281,1000.0,1000.0,0.0,85000
86000,0,66.77067321101315,0.0007579326629638672,0.0001480579376220703,0.016780853271484375,85988.0,0.02564352609217167,18.63652946472168,-5.9330369567871095,18.728484115600587,0.0011276815300031255,-18.681217193603516,-5.753174265225728,0.004567821432525913,53.9580867517074,1000.0,86.0,190.58002704283462,49.072927849866296,1000.0,1000.0,0.0,86000
87000,0,67.19917969751346,0.0006530284881591797,0.00014019012451171875,0.017201900482177734,86988.0,0.026150337383151055,18.622368698120116,-5.909240665435791,18.70760383605957,0.0008347628536284901,-18.741639614105225,-5.811976273854573,0.00443978999586155,184.98474739860683,1000.0,87.0,198.38386577720635,36.05778692310597,1000.0,1000.0,0.0,87000
88000,0,67.45930700477295,0.0009298324584960938,0.00018167495727539062,0.017256975173950195,87988.0,0.031154619231820106,18.511573562622072,-5.735498409271241,18.5942707824707,8.683722019971658e-05,-18.552345116933186,-5.980417847633362,0.004433781180220346,167.8683616838424,1000.0,88.0,207.55588570698865,29.6657633804752,1000.0,1000.0,0.0,88000
89000,0,65.7895364260017,0.00063323974609375,0.00012874603271484375,0.01669001579284668,88988.0,0.028522238805890082,18.40687187194824,-5.85896936416626,18.492539443969726,-0.00015334887575590983,-18.520357767740887,-6.033973217010498,0.00451438338495791,47.99799926420297,1000.0,89.0,216.39572498544536,46.65018892324972,1000.0,1000.0,0.0,89000
90000,0,63.61344272717787,0.0006737709045410156,0.00014400482177734375,0.017158985137939453,89988.0,0.026358594447374345,18.322674865722657,-5.935741786956787,18.421909408569334,-0.0024644280007729926,-18.37615950902303,-6.528610825538635,0.004662815908280511,177.96944521227113,1000.0,90.0,199.29862044399138,38.05357225205345,1000.0,1000.0,0.0,90000
91000,0,61.93041144563512,0.0006029605865478516,0.00016164779663085938,0.01701974868774414,90988.0,0.027614463940262794,18.402134857177735,-5.86157377243042,18.510874099731446,-0.0018077761342283338,-18.444156010945637,-6.3662692705790205,0.004936343641020358,228.23938178788808,1000.0,91.0,191.8839046313046,55.84570025519716,1000.0,1000.0,0.0,91000
92000,0,65.07486325029261,0.0006594657897949219,0.0001571178436279297,0.01623392105102539,91988.0,0.03016249068081379,18.426079940795898,-5.842050380706787,18.53159973144531,-0.0009683553944341838,-18.470564524332683,-6.188627600669861,0.0051336764978865785,209.21820538070955,1000.0,92.0,161.80011666161715,67.84635391753683,1000.0,1000.0,0.0,92000
93000,0,67.36612715567226,0.0006501674652099609,0.0001418590545654297,0.017141103744506836,92988.0,0.030447412207722666,18.389050216674804,-5.863506851196289,18.50181884765625,-0.00046499186161478673,-18.490984439849854,-6.08860969543457,0.005248699996930857,190.67779068231974,1000.0,93.0,207.31125613885578,84.34126768569493,1000.0,1000.0,0.0,93000
94000,0,66.59185548868274,0.0006077289581298828,0.0001404285430908203,0.016782760620117188,93988.0,0.027375681027770042,18.384715805053713,-5.938538951873779,18.505589447021485,-0.0012571160453565728,-18.465110619862873,-6.233183224995931,0.005390842483999829,95.2300951261593,1000.0,94.0,122.12905087635329,74.86060179897048,1000.0,1000.0,0.0,94000
95000,0,66.83016616784023,0.0008873939514160156,0.00015163421630859375,0.017381668090820312,94988.0,0.02973082959651947,18.466437072753905,-5.901794986724854,18.584743423461916,-0.001299640025536064,-18.59687566757202,-6.2323927481969195,0.005592805993122359,232.31926167031148,1000.0,95.0,220.26229707169014,38.17980117453946,1000.0,1000.0,0.0,95000
96000,0,66.59426613166482,0.0009696483612060547,0.00017833709716796875,0.018086910247802734,95988.0,0.026796664521098138,18.378732376098633,-5.957376136779785,18.493181228637695,0.00026617727417033166,-18.480494658152264,-5.952601631482442,0.005617458489723504,61.53797775603367,1000.0,96.0,123.92355838595935,52.3092087871853,1000.0,1000.0,0.0,96000
97000,0,67.3943139646837,0.0006573200225830078,0.0001342296600341797,0.01729297637939453,96988.0,0.03364452794194221,18.452218704223633,-5.7606223487854,18.560840682983397,0.0011439004641336699,-18.547947883605957,-5.794304370880127,0.005560949134329955,194.98027108141127,1000.0,97.0,134.8279313478654,58.45132791583445,1000.0,1000.0,0.0,97000
98000,0,66.87022822873381,0.000640869140625,0.00013637542724609375,0.017663240432739258,97988.0,0.0319710399210453,18.470419921875,-5.888673496246338,18.57756362915039,0.0009696491542854346,-18.53426392873128,-5.820973078409831,0.005416021798737347,205.8476942850696,1000.0,98.0,166.90251851849675,71.52910016506156,1000.0,1000.0,0.0,98000
99000,0,66.80896124532818,0.0005955696105957031,0.0001323223114013672,0.01659250259399414,98988.0,0.031495785638689995,18.489156951904295,-5.845356922149659,18.594294662475587,0.0013905831971593823,-18.567570368448894,-5.7371838092803955,0.0052904782351106405,186.77022243312373,1000.0,99.0,127.51441545602431,55.78200121440316,1000.0,1000.0,0.0,99000
100000,0,66.07292510765609,0.0006213188171386719,0.00013136863708496094,0.016859769821166992,99988.0,0.03096831724047661,18.44003807067871,-5.939168758392334,18.55016471862793,0.0006452174081156651,-18.52207851409912,-5.875368038813273,0.005176124279387295,161.6420799171455,1000.0,100.0,182.68041285969463,68.35003751769239,1000.0,1000.0,0.0,100000
101000,0,66.45680050651812,0.0009200572967529297,0.00017023086547851562,0.017016172409057617,100988.0,0.033356956094503405,18.616807861328127,-5.80889045715332,18.732965240478517,-0.0008977155424266433,-18.720736662546795,-6.170510292053223,0.005265693335483472,222.21720595871682,1000.0,101.0,167.3440157796763,75.60225833096322,1000.0,1000.0,0.0,101000
102000,0,65.81720400410755,0.0006561279296875,0.00014734268188476562,0.016867637634277344,101988.0,0.029370482340455056,18.49349723815918,-5.945297050476074,18.601414108276366,8.46381954033859e-06,-18.566960334777832,-5.998393813769023,0.005269532014305393,80.4208116969724,1000.0,102.0,186.77023037641305,77.40276743698418,1000.0,1000.0,0.0,102000
103000,0,62.63853702275553,0.0006577968597412109,0.00013756752014160156,0.016504526138305664,102988.0,0.030231610536575318,18.423963012695314,-5.892166309356689,18.525497283935547,0.0013172013738464254,-18.475937525431316,-5.745198527971904,0.005168886894049744,117.89552374867647,1000.0,103.0,202.87893797714736,67.71129758907688,1000.0,1000.0,0.0,103000
104000,0,61.42296472462716,0.0007154941558837891,0.00016236305236816406,0.016874074935913086,103988.0,0.032518345341086385,18.51468734741211,-5.848136405944825,18.617239685058593,0.0007007704395315765,-18.546937783559162,-5.861623088518779,0.005063992420521875,234.93418010954903,1000.0,104.0,166.76348678905194,66.41379495204528,1000.0,1000.0,0.0,104000
105000,0,62.3344259644342,0.0006103515625,0.0001354217529296875,0.01656508445739746,104988.0,0.03257123745977879,18.624700012207033,-5.918099422454834,18.740259857177733,-0.00046744027349632233,-18.752802848815918,-6.090638041496277,0.005163240013644099,228.06770491996136,1000.0,105.0,177.10485252856589,61.54536283912939,1000.0,1000.0,0.0,105000
106000,0,66.66238600350295,0.0006406307220458984,0.00013136863708496094,0.016379117965698242,105988.0,0.03855998866260052,18.61321563720703,-5.685723438262939,18.725311431884766,0.0010730357535067014,-18.755825996398926,-5.795436978340149,0.005245200009085238,160.249835276493,1000.0,106.0,125.06957012048274,83.55547617772837,1000.0,1000.0,0.0,106000
107000,0,66.15692408057373,0.0006158351898193359,0.00013256072998046875,0.016377687454223633,106988.0,0.033956288248300555,18.644785537719727,-5.821890678405762,18.76538543701172,-0.000222511114164566,-18.78335952758789,-6.04279088973999,0.005201258657810588,190.71457331322335,1000.0,107.0,196.2752376017772,50.79957827304755,1000.0,1000.0,0.0,107000
108000,0,67.30541735641428,0.000888824462890625,0.00021457672119140625,0.017798900604248047,107988.0,0.03283558517694473,18.758675842285157,-5.881608867645264,18.8852880859375,-5.7532547846979774e-05,-18.899609088897705,-6.010823647181193,0.005319324399655064,216.17837818469008,1000.0,108.0,214.56122356184824,18.682975975595426,1000.0,1000.0,0.0,108000
109000,0,67.18083886352483,0.0009644031524658203,0.00022602081298828125,0.017991065979003906,108988.0,0.034343261271715164,18.871052474975585,-5.829396324157715,18.996889266967774,0.0012868758155188214,-18.991708914438885,-5.758421977361043,0.005326987632239859,205.4037498040821,1000.0,109.0,229.09192226798305,53.92651531214465,1000.0,1000.0,0.0,109000
110000,0,67.19474425874222,0.0006651878356933594,0.0001385211944580078,0.016598939895629883,109988.0,0.03720492571592331,18.961717910766602,-5.753106155395508,19.067232360839842,0.0018670040444703773,-19.02892780303955,-5.628621180852254,0.005026800480360786,271.07783566405186,1000.0,110.0,232.45658648236994,50.46858639057493,1000.0,1000.0,0.0,110000
111000,0,66.72542235690072,0.0006077289581298828,0.00014591217041015625,0.016623973846435547,110988.0,0.03499724589288235,19.011348724365234,-5.821662578582764,19.108896102905273,0.0024638299946673214,-19.051448186238606,-5.4770521720250445,0.004710721628119548,241.85753233693308,1000.0,111.0,231.02814271273027,52.97957374860484,1000.0,1000.0,0.0,111000
112000,0,66.66781109549177,0.0006439685821533203,0.00012969970703125,0.01685500144958496,111988.0,0.03053565286099911,18.984964141845705,-5.884896564483642,19.07938102722168,0.0015815972728887573,-19.019833246866863,-5.648570100466411,0.0044999125724037485,247.27365102168292,1000.0,112.0,253.58939848642885,21.562377320541007,1000.0,1000.0,0.0,112000
113000,0,66.67633196747371,0.0006909370422363281,0.00017976760864257812,0.01717090606689453,112988.0,0.03349728472530842,19.056263198852537,-5.789369735717774,19.162483444213866,-0.0016067930458423991,-19.111130237579346,-6.354934612909953,0.004527712667671342,218.8697076693044,1000.0,113.0,258.14005171677735,29.943328858089174,1000.0,1000.0,0.0,113000
114000,0,66.5634484286515,0.0006144046783447266,0.00018644332885742188,0.01676464080810547,113988.0,0.03428040541708469,19.02817771911621,-5.760543537139893,19.131744384765625,-0.0003095676038356032,-19.154758135477703,-6.066768368085225,0.00463638788399597,118.40680773421857,1000.0,114.0,254.46070500960545,36.399116714699716,1000.0,1000.0,0.0,114000
115000,0,67.67211252698459,0.0006573200225830078,0.00013899803161621094,0.016851425170898438,114988.0,0.03234345830976963,19.09093162536621,-5.905455780029297,19.197162246704103,0.0002021609410197319,-19.166272163391113,-5.957067092259725,0.004708813775020341,214.8294300679807,1000.0,115.0,256.839352072893,13.544581114195134,1000.0,1000.0,0.0,115000
116000,0,62.06666725858053,0.0006437301635742188,0.0001513957977294922,0.01707601547241211,115988.0,0.031759552136063574,19.08008140563965,-5.860885429382324,19.18500747680664,-0.0005354509824731698,-19.12823470433553,-6.113425374031067,0.004720854728172223,224.84782159148222,1000.0,116.0,240.3381274385943,22.800281899863997,1000.0,1000.0,0.0,116000
117000,0,62.390356226980906,0.0006117820739746094,0.00015044212341308594,0.01671123504638672,116988.0,0.029975802227854727,19.09733055114746,-5.998425407409668,19.202486572265624,-0.001213308152121802,-19.164706389109295,-6.2563181320826216,0.004734819522127509,117.05714522204593,1000.0,117.0,260.91394039166494,8.974973699114813,1000.0,1000.0,0.0,117000
118000,0,63.11483599758755,0.0005981922149658203,0.0001323223114013672,0.016773223876953125,117988.0,0.03226617649197579,19.220701904296874,-5.829376621246338,19.316518020629882,0.00019600212302369377,-19.35969114303589,-5.959012428919475,0.00478207494597882,267.4441580513692,1000.0,118.0,258.95871397070914,27.663666873852343,1000.0,1000.0,0.0,118000
119000,0,66.31482618679757,0.0006422996520996094,0.00014090538024902344,0.01658344268798828,118988.0,0.031556194573640825,19.22753723144531,-5.957035961151123,19.313917922973634,0.000783386151548863,-19.329514980316162,-5.833850423494975,0.00471514059851567,248.0895314085191,1000.0,119.0,257.2460795962128,56.7588356960639,1000.0,1000.0,0.0,119000
120000,0,67.0499029973003,0.0010344982147216797,0.00021123886108398438,0.018224477767944336,119988.0,0.03001617595553398,19.1656111907959,-5.965775718688965,19.24944633483887,-0.00011273326344962697,-19.224605083465576,-6.024412274360657,0.004619762417860329,152.48894573434563,1000.0,120.0,221.1819228210169,80.61808375190688,1000.0,1000.0,0.0,120000
121000,0,65.93896952752509,0.0008804798126220703,0.00015425682067871094,0.01752924919128418,120988.0,0.030766576007008554,19.204918365478516,-5.8996430778503415,19.290092315673828,-0.00013917508658778388,-19.27447255452474,-6.029942711194356,0.004652837213749687,257.4269657540344,1000.0,121.0,205.64836315993472,59.80249604799751,1000.0,1000.0,0.0,121000
122000,0,66.6105108023809,0.0006215572357177734,0.00013136863708496094,0.01604175567626953,121988.0,0.030592181906104087,19.145301589965822,-5.977568435668945,19.230034942626954,-8.647949774361526e-05,-19.189531485239666,-6.0180427233378095,0.004792220851716896,122.3180867979387,1000.0,122.0,225.9000402688329,79.24470393279358,1000.0,1000.0,0.0,122000
123000,0,67.3595925698472,0.000701904296875,0.00013637542724609375,0.01705646514892578,122988.0,0.029682142287492753,19.08982124328613,-5.947290000915527,19.170261459350584,0.0001584339794741633,-19.159606138865154,-5.967238982518514,0.004835144927104314,72.48951069621,1000.0,123.0,229.35017951844574,66.74599441055318,1000.0,1000.0,0.0,123000
124000,0,66.75843030695829,0.0006699562072753906,0.00013899803161621094,0.016959190368652344,123988.0,0.03103801630437374,19.112959899902343,-5.893806324005127,19.199234466552735,0.0002463651944708545,-19.14902416865031,-5.949188073476155,0.004847336288851996,258.5438378660516,1000.0,124.0,231.3858048034095,90.14708129115627,1000.0,1000.0,0.0,124000
125000,0,67.32373983395323,0.00095367431640625,0.00018095970153808594,0.017760038375854492,124988.0,0.029964849576354025,19.07169204711914,-5.886673355102539,19.16114326477051,-0.0002032236091811986,-19.095115502675373,-6.041264613469441,0.004926353964644174,156.91770902638555,1000.0,125.0,214.02254012861272,63.889765930833214,1000.0,1000.0,0.0,125000
126000,0,67.15760430289887,0.0006628036499023438,0.00015044212341308594,0.016771793365478516,125988.0,0.02827285520732403,18.965237350463866,-6.070144882202149,19.056275634765626,-0.0012192931402144798,-19.01407512029012,-6.243309338887532,0.005011341301724315,91.4177450847004,1000.0,126.0,241.80228098313933,73.60199364738294,1000.0,1000.0,0.0,126000
127000,0,66.17738292311799,0.0007162094116210938,0.00015211105346679688,0.017104148864746094,126988.0,0.0297766475379467,18.90030158996582,-6.025454158782959,18.99408073425293,-0.00012747782602673396,-19.001241048177082,-6.025002638498942,0.00509869959205389,44.31790029599207,1000.0,127.0,177.52816155215584,85.69409056528264,1000.0,1000.0,0.0,127000
128000,0,61.592248338862625,0.0006473064422607422,0.0001456737518310547,0.016745567321777344,127988.0,0.029891848266124725,18.886028823852538,-6.022532043457031,18.98315086364746,-0.00015572479969705455,-19.0309952100118,-6.030373891194661,0.0051330716426794725,144.1237527739534,1000.0,128.0,200.59807536858938,84.4910263360579,1000.0,1000.0,0.0,128000
129000,0,61.71960669478232,0.0006296634674072266,0.00019431114196777344,0.017097949981689453,128988.0,0.029937703609466553,18.840374221801756,-5.973368606567383,18.934093627929688,-0.00042057391450119513,-18.878143946329754,-6.082155187924703,0.005119506153278053,56.78350288373025,1000.0,129.0,204.70308533111753,66.13527191613709,1000.0,1000.0,0.0,129000
130000,0,64.60054375114359,0.0006511211395263672,0.00015354156494140625,0.0165560245513916,129988.0,0.03408510319888592,18.88530860900879,-5.8710175895690915,18.978611755371094,-0.0005498544839307821,-18.996715545654297,-6.107662518819173,0.0051073530145610375,212.26345483716892,1000.0,130.0,151.57959350161406,65.86430036276741,1000.0,1000.0,0.0,130000
131000,0,66.22808347228538,0.0006659030914306641,0.00014138221740722656,0.016992568969726562,130988.0,0.031683490201830866,18.91942428588867,-5.968094463348389,19.009620666503906,0.00020158240658929572,-19.07137982050578,-5.9599355061848955,0.005031708123472829,153.66338502073552,1000.0,131.0,195.47782914310133,54.856235477436485,1000.0,1000.0,0.0,131000
132000,0,66.63844985478511,0.0009756088256835938,0.00017380714416503906,0.01701068878173828,131988.0,0.031617771089077,18.874308700561524,-6.0099491691589355,18.967375869750978,0.00012122602978100379,-18.93160343170166,-5.975801269213359,0.005009365850128233,151.40172718650797,1000.0,132.0,186.33970715545314,76.64806641732157,1000.0,1000.0,0.0,132000
133000,0,66.4519571645671,0.0009229183197021484,0.00016760826110839844,0.01723170280456543,132988.0,0.030355527848005295,18.75876251220703,-5.987378139495849,18.850562591552734,0.000674973251686121,-18.793197949727375,-5.865227460861206,0.005007972552751501,106.85836702167852,1000.0,133.0,159.3172522680223,79.24362333645561,1000.0,1000.0,0.0,133000
134000,0,68.11119930679062,0.0006976127624511719,0.00017595291137695312,0.01672530174255371,133988.0,0.03791953317821026,18.822767028808595,-5.729615612030029,18.91586700439453,0.0003611954853113275,-18.84754467010498,-5.927853941917419,0.005006308628556629,187.19151179676032,1000.0,134.0,186.11856948457677,71.95265359102473,1000.0,1000.0,0.0,134000
135000,0,67.82768553263028,0.0006809234619140625,0.0001404285430908203,0.01668715476989746,134988.0,0.02918107055127621,18.771890716552733,-6.039320945739746,18.864085998535156,0.0005261918743902546,-18.84261957804362,-5.894675254821777,0.004994454987657567,118.5541269543216,1000.0,135.0,225.21887327792865,57.011306521059396,1000.0,1000.0,0.0,135000
136000,0,68.43744839824902,0.0006554126739501953,0.00027370452880859375,0.016144514083862305,135988.0,0.03366504095494747,18.77512878417969,-5.973852500915528,18.86704460144043,0.0005958483428306257,-18.784060796101887,-5.87951922416687,0.004945644061081111,127.92223665077474,1000.0,136.0,105.27358897911702,76.78848951819307,1000.0,1000.0,0.0,136000
137000,0,69.15095247955958,0.0006778240203857422,0.0001399517059326172,0.0156097412109375,136988.0,0.0375997170060873,18.693161849975585,-5.759442749023438,18.78801582336426,-7.088396281081562e-05,-18.730093638102215,-6.01434584458669,0.0049432699258128805,152.3720838616429,1000.0,137.0,242.94531123901024,81.401665910382,1000.0,1000.0,0.0,137000
138000,0,69.22102450253264,0.0006597042083740234,0.00012683868408203125,0.01600360870361328,137988.0,0.038160918354988096,18.842947158813477,-5.810601654052735,18.93705696105957,-3.0906895214381315e-05,-18.911786874135334,-6.006240685780843,0.00497146761820962,283.4332911993564,1000.0,138.0,271.68467539189385,25.375135321773353,1000.0,1000.0,0.0,138000
139000,0,70.02855034377285,0.0007252693176269531,0.00013303756713867188,0.015770673751831055,138988.0,0.03747195146977902,18.83112739562988,-5.87896167755127,18.924025115966796,-0.0005389949546952266,-18.92604382832845,-6.108872214953105,0.004950958692158262,135.35571034877563,1000.0,139.0,261.65247266155313,34.4786577427224,1000.0,1000.0,0.0,139000
140000,0,69.36861603598835,0.0006434917449951172,0.0001385211944580078,0.015890836715698242,139988.0,0.03833118163049221,18.88096229553223,-5.830424709320068,18.9742472076416,-1.2672735465457663e-05,-18.94437583287557,-6.002552668253581,0.004967059086387356,290.4748779739633,1000.0,140.0,251.38999559263917,91.25631027424905,1000.0,1000.0,0.0,140000
141000,0,69.68134310108346,0.0007452964782714844,0.00015783309936523438,0.015911102294921875,140988.0,0.04365321606397629,18.884864654541015,-5.592109832763672,18.976331939697264,-0.00022147778023888046,-18.89909331003825,-6.044278462727864,0.005001942122665544,300.4378133789723,1000.0,141.0,252.4435166051397,74.02182100018844,1000.0,1000.0,0.0,141000
142000,0,70.67223736062874,0.000644683837890625,0.00014519691467285156,0.015898704528808594,141988.0,0.03765825010836124,18.994826889038087,-5.820847663879395,19.089029922485352,-1.1875228058973638e-05,-19.07146469751994,-6.0023685693740845,0.005029616372970243,298.93308630075177,1000.0,142.0,288.7050964418009,27.18752827233769,1000.0,1000.0,0.0,142000
143000,0,70.84666609011502,0.0007154941558837891,0.00014257431030273438,0.015932559967041016,142988.0,0.03428506836295128,19.10872756958008,-5.8577809906005855,19.203231811523438,1.5981883431474368e-06,-19.139657497406006,-5.9996916850407915,0.0050650635578980046,317.5608708307194,1000.0,143.0,289.56120768658377,28.82562988273284,1000.0,1000.0,0.0,143000
144000,0,70.71565666715672,0.0006201267242431641,0.00015544891357421875,0.015745162963867188,143988.0,0.03769673116505146,19.190608825683594,-5.830444564819336,19.281259765625,-0.0008208882281905971,-19.287531852722168,-6.159903009732564,0.0051338974153622985,280.8564992915906,1000.0,144.0,249.3806188384884,76.6126274514463,1000.0,1000.0,0.0,144000
145000,0,70.9052082643041,0.0006623268127441406,0.00014638900756835938,0.016338348388671875,144988.0,0.03539675436913967,19.232209548950195,-5.860132923126221,19.324135971069335,4.0986268989703e-05,-19.25042963027954,-5.992055177688599,0.005157091771252453,292.82236121298826,1000.0,145.0,299.37428390717275,13.972958096936448,1000.0,1000.0,0.0,145000
146000,0,69.31423215180469,0.0007002353668212891,0.00019931793212890625,0.016358613967895508,145988.0,0.03557002499699593,19.2497811126709,-5.770000267028808,19.338928756713866,-0.0001980074290865256,-19.33702039718628,-6.038567821184794,0.005133899161592126,310.0108366818517,1000.0,146.0,266.4544691084911,71.79832961416248,1000.0,1000.0,0.0,146000
147000,0,66.33966356176101,0.0007519721984863281,0.00014090538024902344,0.015528202056884766,146988.0,0.039139671623706816,19.396196670532227,-5.810367908477783,19.482792587280272,0.0006264249216959191,-19.454919656117756,-5.878170967102051,0.005141818158638974,299.67083208162825,1000.0,147.0,279.43718646479203,49.4842639023936,1000.0,1000.0,0.0,147000
148000,0,64.0398685705212,0.0006148815155029297,0.0001952648162841797,0.01592707633972168,147988.0,0.03777922563254833,19.48580841064453,-5.766334857940674,19.57269302368164,-0.0007275153572360674,-19.594789187113445,-6.141099572181702,0.005156584666110575,305.6999810988844,1000.0,148.0,215.4695159886672,109.01984829458756,1000.0,1000.0,0.0,148000
149000,0,66.08333522399272,0.0006711483001708984,0.00013637542724609375,0.016173362731933594,148988.0,0.03358271203935146,19.57020706176758,-5.964731121063233,19.656166610717772,-0.0005202573144439763,-19.714396953582764,-6.100354909896851,0.005184383868860702,295.29422246452003,1000.0,149.0,290.511470639886,54.04291148669688,1000.0,1000.0,0.0,149000
150000,0,64.7380629133042,0.0006763935089111328,0.00013828277587890625,0.015919208526611328,149988.0,0.038923017010092736,19.592110061645506,-5.847533302307129,19.677489852905275,0.0004657791942008771,-19.732711950937908,-5.910799980163574,0.005221319423678021,297.61936150151956,1000.0,150.0,264.45322174862724,54.288509194177294,1000.0,1000.0,0.0,150000
151000,0,65.4011510017782,0.0006694793701171875,0.0001518726348876953,0.01579761505126953,150988.0,0.035810895711183545,19.62016143798828,-5.818875408172607,19.70292510986328,-0.00014196979100233875,-19.723875045776367,-6.027053316434224,0.005247412249445915,299.1761496136419,1000.0,151.0,268.85725824583545,74.13598635215189,1000.0,1000.0,0.0,151000
152000,0,64.14697738837644,0.0006973743438720703,0.0001392364501953125,0.015605688095092773,151988.0,0.035213435366749764,19.757391662597655,-5.839106941223145,19.843329849243165,-0.0001237411779584363,-19.772571722666424,-6.023292700449626,0.005313508794642985,322.21720083870554,1000.0,152.0,266.0972302632573,63.090818340925345,1000.0,1000.0,0.0,152000
153000,0,64.169942248178,0.0006914138793945312,0.0001392364501953125,0.01560354232788086,152988.0,0.039255252927541735,19.797826766967773,-5.816582050323486,19.881586380004883,9.923984422736491e-05,-19.823827107747395,-5.98141876856486,0.005340278963558376,295.20845400666474,1000.0,153.0,296.72097414019083,30.54446677324472,1000.0,1000.0,0.0,153000
154000,0,63.14839851971852,0.0007543563842773438,0.0001556873321533203,0.015827417373657227,153988.0,0.03503978654742241,19.918005065917967,-5.929072875976562,20.008279113769532,-0.0004585163139078456,-19.986005942026775,-6.084578474362691,0.005424167184780042,301.5875875569084,1000.0,154.0,269.8107413601769,82.47125429421857,1000.0,1000.0,0.0,154000
155000,0,63.551139049632354,0.0006425380706787109,0.0001354217529296875,0.015992164611816406,154988.0,0.03951886110007763,19.98021415710449,-5.6404401969909665,20.069151763916015,0.00014130606480951732,-19.98449977238973,-5.9741785526275635,0.005472152299868564,326.89074867852634,1000.0,155.0,264.6751961745649,94.33207671305485,1000.0,1000.0,0.0,155000
156000,0,63.29125690283429,0.0006723403930664062,0.00013828277587890625,0.016333818435668945,155988.0,0.04653996914625168,20.143267974853515,-5.6319991493225094,20.232260360717774,-0.001199729806103278,-20.257541338602703,-6.217224955558777,0.005523182180089255,306.1580498333187,1000.0,156.0,236.8325500044253,74.10512927895559,1000.0,1000.0,0.0,156000
157000,0,63.08840641271087,0.000698089599609375,0.0001323223114013672,0.015597105026245117,156988.0,0.038555949181318286,20.095024032592775,-5.814189472198486,20.185274353027342,0.00017338850436014278,-20.17715819676717,-5.968773086865743,0.005551018247691293,181.29632494778818,1000.0,157.0,305.6168982670151,39.77543732977533,1000.0,1000.0,0.0,157000
158000,0,65.58047175741049,0.0006778240203857422,0.00013971328735351562,0.01602768898010254,157988.0,0.03510488845407963,20.12682746887207,-5.935681610107422,20.214343490600587,0.00017727476248789267,-20.22337992986043,-5.9680880308151245,0.005554241904368003,332.18082443845043,1000.0,158.0,269.18579910839077,39.83666888513543,1000.0,1000.0,0.0,158000
159000,0,67.30809596405359,0.0007224082946777344,0.00013685226440429688,0.016139984130859375,158988.0,0.03315690338611603,20.332643890380858,-5.895606956481934,20.421300048828126,-0.00032992147801754373,-20.459868748982746,-6.0592706600824995,0.0055665999340514345,347.4715310065506,1000.0,159.0,247.19021687275045,86.52495338714482,1000.0,1000.0,0.0,159000
160000,0,65.54525826773032,0.0006282329559326172,0.00013875961303710938,0.016446590423583984,159988.0,0.03520313277840614,20.37685607910156,-5.785287685394287,20.46540771484375,0.00030813595609894645,-20.531671206156414,-5.944686611493428,0.00557017403965195,322.1791789226906,1000.0,160.0,272.89447591977,81.8920673572916,1000.0,1000.0,0.0,160000
161000,0,68.05664810415774,0.0006563663482666016,0.000141143798828125,0.016057252883911133,160988.0,0.033335436582565305,20.472280426025392,-5.948396415710449,20.56175109863281,0.00038094721821835265,-20.572537899017334,-5.931005398432414,0.0055212378889943165,307.37210087375473,1000.0,161.0,194.12059182292364,100.2204224976886,1000.0,1000.0,0.0,161000
162000,0,66.72784268006939,0.0006306171417236328,0.0001385211944580078,0.01605844497680664,161988.0,0.035417170226573945,20.422697830200196,-5.830664520263672,20.508811111450196,0.0003601961131304658,-20.436057090759277,-5.934981147448222,0.005537852334479491,338.48928432840853,1000.0,162.0,302.84492065141785,47.59412594480595,1000.0,1000.0,0.0,162000
163000,0,69.0381772871971,0.0006363391876220703,0.0001285076141357422,0.015854835510253906,162988.0,0.033290141448378566,20.551066055297852,-5.9466737937927245,20.638700790405274,0.0003492289579298813,-20.67297093073527,-5.936662753423055,0.00551354050791512,345.64045119929125,1000.0,163.0,265.2473742495012,100.50811175010219,1000.0,1000.0,0.0,163000
164000,0,68.78578438318351,0.0006546974182128906,0.0001373291015625,0.015527009963989258,163988.0,0.034826776683330535,20.77280158996582,-5.840107898712159,20.861553268432615,-0.0007552703482360812,-20.91160837809245,-6.137360294659932,0.005498276712993781,349.19292468424317,1000.0,164.0,175.3959500185648,116.9779942246993,1000.0,1000.0,0.0,164000
165000,0,69.08457223047604,0.0009717941284179688,0.00021648406982421875,0.017487049102783203,164988.0,0.032451602071523665,20.785062255859376,-5.935654220581054,20.872966766357422,-0.0008277779755493005,-20.880948702494305,-6.150119662284851,0.0055143547942861915,318.9207516801232,1000.0,165.0,214.64708828215663,102.2691058924167,1000.0,1000.0,0.0,165000
166000,0,66.09249884023478,0.0006756782531738281,0.00014352798461914062,0.016541242599487305,165988.0,0.03603018715977669,20.920315322875975,-5.83391357421875,21.009626846313477,0.0001914771601150278,-20.88653039932251,-5.965341329574585,0.0055230483412742615,338.65984185719435,1000.0,166.0,149.8379870662412,103.8247223263241,1000.0,1000.0,0.0,166000
167000,0,67.92597544606997,0.0008890628814697266,0.00016546249389648438,0.01681971549987793,166988.0,0.03562950998544693,20.785933151245118,-5.805733985900879,20.876020126342773,-6.810849420920324e-05,-20.84389130274455,-6.012328584988912,0.005523392891821762,110.6983196446252,1000.0,167.0,257.8085350341875,102.46313946867978,1000.0,1000.0,0.0,167000
168000,0,69.41049376178272,0.0009515285491943359,0.0001571178436279297,0.016221046447753906,167988.0,0.03791497655212879,20.947142562866212,-5.727860698699951,21.03977684020996,-0.0003124304542628427,-21.034369627634685,-6.056754032770793,0.00550495875844111,168.76959332315084,1000.0,168.0,259.3879062691101,92.53856670523382,1000.0,1000.0,0.0,168000
169000,0,70.0837803064481,0.000957489013671875,0.00018477439880371094,0.01761937141418457,168988.0,0.03256453074514866,21.03427520751953,-5.970120944976807,21.123439025878906,-0.00022697924153665858,-21.17454767227173,-6.041294972101848,0.005496690942284961,349.18137315677285,1000.0,169.0,207.61284212970432,107.46224247986841,1000.0,1000.0,0.0,169000
170000,0,69.42138473873035,0.00064849853515625,0.00013375282287597656,0.016175508499145508,169988.0,0.04126976780593395,21.051908569335936,-5.743545761108399,21.134334259033203,0.00042542117201567936,-21.070271809895832,-5.923277258872986,0.005543952768978973,291.830076272613,1000.0,170.0,194.4845130986731,128.09256355120675,1000.0,1000.0,0.0,170000
171000,0,69.35911792973575,0.0006642341613769531,0.00013518333435058594,0.016176223754882812,170988.0,0.03706256866455078,20.998908157348634,-5.713697452545166,21.083789443969728,0.0005465531915736695,-21.02039623260498,-5.901711622873942,0.005559970547134678,362.09312791872895,1000.0,171.0,248.66766608677858,134.76301217056957,1000.0,1000.0,0.0,171000
172000,0,68.67896401509321,0.0006995201110839844,0.0001418590545654297,0.017151832580566406,171988.0,0.03530991397798061,21.166785964965822,-5.8282509040832515,21.256037216186524,-0.00021078522210397446,-21.35233434041341,-6.037942051887512,0.005555726044500868,302.75901750077077,1000.0,172.0,202.5774661316616,132.34659313215107,1000.0,1000.0,0.0,172000
173000,0,69.28162442236462,0.0006577968597412109,0.0001366138458251953,0.01589488983154297,172988.0,0.03551039919257164,21.2042520904541,-5.909940433502197,21.290230865478517,0.0003747713587169225,-21.29864803949992,-5.932955026626587,0.005587002534108858,351.4733821975373,1000.0,173.0,154.2147285574607,90.76086054540657,1000.0,1000.0,0.0,173000
174000,0,70.299917872048,0.0006358623504638672,0.00013709068298339844,0.015895843505859375,173988.0,0.04303429305553436,21.370607986450196,-5.738696537017822,21.454370422363283,0.00016327366029145196,-21.32700490951538,-5.970907886823018,0.005612357907618086,364.2337279588504,1000.0,174.0,150.49576470484897,107.88512975345489,1000.0,1000.0,0.0,174000
175000,0,69.57241774661419,0.0006613731384277344,0.00013709068298339844,0.01588153839111328,174988.0,0.03797551840543747,21.46089424133301,-5.779470348358155,21.54883247375488,-0.0009353599646904817,-21.513224124908447,-6.16614846388499,0.005630339418227474,345.586033396544,1000.0,175.0,181.41113267159778,134.26612456236234,1000.0,1000.0,0.0,175000
176000,0,70.33891710738502,0.0006668567657470703,0.00015354156494140625,0.0159609317779541,175988.0,0.03753517933189869,21.35070343017578,-5.756024532318115,21.435565872192385,-0.00032231568911811337,-21.350571632385254,-6.056893944740295,0.005665556372453769,275.2400273653987,1000.0,176.0,193.52174541399074,102.78147900336239,1000.0,1000.0,0.0,176000
177000,0,70.15031215797093,0.0006759166717529297,0.00022292137145996094,0.01611471176147461,176988.0,0.03716838598251343,21.56696472167969,-5.8316605758666995,21.655865478515626,0.00011302133680146653,-21.68591292699178,-5.980342785517375,0.005749604237886767,292.07129795154026,1000.0,177.0,130.4963965657129,80.37577187259589,1000.0,1000.0,0.0,177000
178000,0,70.2680244355511,0.0006761550903320312,0.00013780593872070312,0.01618480682373047,177988.0,0.03576551616191864,21.5942342376709,-5.912932510375977,21.68275894165039,-4.8011313386571906e-05,-21.764958540598553,-6.008294939994812,0.0057890927807117505,304.50860824489837,1000.0,178.0,153.5072753640418,83.0332665098755,1000.0,1000.0,0.0,178000
179000,0,70.5076722387337,0.00070953369140625,0.00015735626220703125,0.016207456588745117,178988.0,0.03941169321537018,21.65224418640137,-5.824674854278564,21.74038459777832,-8.265612026055653e-05,-21.69558350245158,-6.014334360758464,0.0057668189983814955,369.8370451429078,1000.0,179.0,236.08885654025767,128.98935097865782,1000.0,1000.0,0.0,179000
180000,0,69.46765201779462,0.0006430149078369141,0.00018024444580078125,0.01560664176940918,179988.0,0.04111090838909149,21.73693977355957,-5.81223310470581,21.830123291015624,0.0006829808747473484,-21.721671899159748,-5.881667772928874,0.0057709953204418225,350.1441375255732,1000.0,180.0,218.0177130491898,94.9052418038237,1000.0,1000.0,0.0,180000
181000,0,70.36058106850416,0.0006728172302246094,0.00013899803161621094,0.016097307205200195,180988.0,0.03660000309348106,21.784690551757812,-5.855242557525635,21.876686935424804,-0.0006440012002713047,-21.863492488861084,-6.111403147379558,0.005780855659395456,64.80737170103848,1000.0,181.0,276.4196818500573,110.98125114110626,1000.0,1000.0,0.0,181000
182000,0,70.40687996916691,0.0007781982421875,0.00015497207641601562,0.015929698944091797,181988.0,0.03921220652759075,21.852642593383788,-5.8396995162963865,21.944771194458006,0.00022663030298038697,-21.972766399383545,-5.9609750509262085,0.005805848787228267,326.093086845359,1000.0,182.0,303.2030250341065,92.54680380527935,1000.0,1000.0,0.0,182000
183000,0,69.41030997714954,0.0007140636444091797,0.0001380443572998047,0.016305923461914062,182988.0,0.037463402450084685,21.85423286437988,-5.848446979522705,21.945314407348633,-9.892159626663972e-05,-21.91154448191325,-6.0170473257700605,0.0058036011178046465,86.39888178702564,1000.0,183.0,234.9853659223044,96.32059601918375,1000.0,1000.0,0.0,183000
184000,0,70.07221225028769,0.0006511211395263672,0.00013017654418945312,0.015219688415527344,183988.0,0.041785580068826676,21.73978225708008,-5.83357084274292,21.83006637573242,-0.0002857034921059191,-21.737690925598145,-6.0495461622873945,0.005769516574218869,65.5557731011071,1000.0,184.0,309.83740022405965,56.94387728310841,1000.0,1000.0,0.0,184000
185000,0,68.9331551347041,0.0007195472717285156,0.0001609325408935547,0.0159451961517334,184988.0,0.04832039773464203,21.919369354248047,-5.598366470336914,22.005694580078124,0.00027403600203494233,-21.891539573669434,-5.9525989691416425,0.005781032533074419,356.8077964118536,1000.0,185.0,269.2220001025963,112.48609815177431,1000.0,1000.0,0.0,185000
186000,0,63.18344346199687,0.0008273124694824219,0.0001850128173828125,0.015583992004394531,185988.0,0.040465577244758605,21.92278175354004,-5.734775161743164,22.00955810546875,0.0010630423870073475,-22.028467178344727,-5.8159486055374146,0.005775934977767368,276.24202484274514,1000.0,186.0,336.0013767597375,82.8746319443511,1000.0,1000.0,0.0,186000
187000,0,66.26813867965011,0.0007314682006835938,0.0001437664031982422,0.01586127281188965,186988.0,0.04269185945391655,21.999303131103517,-5.786238384246826,22.091663436889647,0.0006449669672292657,-22.072538057963055,-5.8878006140391035,0.005748453045574327,224.415035153261,1000.0,187.0,202.76405159838973,123.80001186652603,1000.0,1000.0,0.0,187000
188000,0,65.32772704022987,0.0012116432189941406,0.00026416778564453125,0.01920151710510254,187988.0,0.04597403272986412,22.054224853515624,-5.650149974822998,22.145421981811523,0.0003066351237066556,-22.034454345703125,-5.946631669998169,0.0057453806124006706,360.0016349484259,1000.0,188.0,264.99568800081255,91.16342486531512,1000.0,1000.0,0.0,188000
189000,0,65.55714217835252,0.0006651878356933594,0.00013828277587890625,0.015654325485229492,188988.0,0.05051435485482216,22.205718154907228,-5.575637130737305,22.296896057128905,7.754652809429292e-05,-22.335062980651855,-5.986536582310994,0.005758653317267696,330.798395273157,1000.0,189.0,355.6433329115274,34.3652446302392,1000.0,1000.0,0.0,189000
190000,0,65.61995252676392,0.0006518363952636719,0.00013017654418945312,0.01589798927307129,189988.0,0.04226391032338142,22.314510650634766,-5.671905994415283,22.402802352905272,-0.0008975481299178986,-22.422104676564533,-6.154914895693461,0.005793297003644208,381.99135261527465,1000.0,190.0,305.73085468080706,80.59941194977642,1000.0,1000.0,0.0,190000
191000,0,64.72343769192642,0.0006740093231201172,0.0001366138458251953,0.01593494415283203,190988.0,0.04813550740480423,22.34510208129883,-5.674185314178467,22.43854606628418,-0.0009292256418120814,-22.41401545206706,-6.160257617632548,0.005800437415018678,365.18258456514894,1000.0,191.0,355.7065667146625,38.627663806415555,1000.0,1000.0,0.0,191000
192000,0,63.55171680231667,0.0006976127624511719,0.00013637542724609375,0.015908241271972656,191988.0,0.0522357951104641,22.491156692504884,-5.5343574523925785,22.58029251098633,-1.3511341724855205e-05,-22.609985669453938,-6.00231409072876,0.00584600893004487,359.0010100670779,1000.0,192.0,352.0877893969898,53.12527767686423,1000.0,1000.0,0.0,192000
193000,0,65.04156217454438,0.0008974075317382812,0.000141143798828125,0.015956640243530273,192988.0,0.04083592012524605,22.600006408691407,-5.792449970245361,22.691982650756835,-0.0012146397324007314,-22.5221045811971,-6.206477165222168,0.0058834699060147004,354.91271357132587,1000.0,193.0,360.4627900802715,37.820104736475244,1000.0,1000.0,0.0,193000
194000,0,64.64140337812388,0.0009033679962158203,0.0001518726348876953,0.016334056854248047,193988.0,0.047365031093358996,22.835324478149413,-5.670088939666748,22.927115173339843,0.00017161491268780082,-22.745942274729412,-5.97094448407491,0.005906169069930911,362.1326011067014,1000.0,194.0,344.664849946747,53.86274770632748,1000.0,1000.0,0.0,194000
195000,0,63.69845871229701,0.0006983280181884766,0.00014519691467285156,0.01599574089050293,194988.0,0.04409983962774277,22.81422622680664,-5.754595527648926,22.903498306274415,0.000625598137654985,-22.88505442937215,-5.894198338190715,0.005912419835415979,384.7558005393754,1000.0,195.0,368.89266249329734,14.16714578564669,1000.0,1000.0,0.0,195000
196000,0,64.20451866633276,0.0006759166717529297,0.00013709068298339844,0.015740156173706055,195988.0,0.04747397065162659,22.811469192504884,-5.607655143737793,22.900090103149413,-0.00012409150561628243,-22.784441153208416,-6.020961721738179,0.005923192560051878,355.3214071620378,1000.0,196.0,288.16108874119027,91.99480703329817,1000.0,1000.0,0.0,196000
197000,0,63.66187400658854,0.0006237030029296875,0.00013685226440429688,0.015819311141967773,196988.0,0.04366642072796822,23.148365478515625,-5.7734751129150395,23.23846710205078,0.00025172289921708096,-23.156165917714436,-5.95751138528188,0.005923800209226708,377.0549384052337,1000.0,197.0,344.30703339481425,83.97571679315473,1000.0,1000.0,0.0,197000
198000,0,64.86745974302346,0.0006690025329589844,0.00013828277587890625,0.0159761905670166,197988.0,0.04184534415602684,23.070436553955076,-5.755428066253662,23.16420372009277,-0.00045824499223575305,-23.15961758295695,-6.07666015625,0.005977616490175326,383.93979244515185,1000.0,198.0,361.87450805935816,35.16393651969054,1000.0,1000.0,0.0,198000
199000,0,63.879251683067345,0.0006563663482666016,0.00013065338134765625,0.01620006561279297,198988.0,0.04158456087112427,23.166136474609374,-5.7997404479980466,23.258423919677735,1.529270230093971e-05,-23.327181339263916,-5.99747105439504,0.006006644029791157,380.2364227257671,1000.0,199.0,298.744493877983,107.41982392195776,1000.0,1000.0,0.0,199000
200000,0,63.65344923876357,0.0007033348083496094,0.00014662742614746094,0.015661954879760742,199988.0,0.044089637994766236,23.256098556518555,-5.741075553894043,23.347418746948243,9.1142547413862e-05,-23.32080825169881,-5.98489769299825,0.006034518980110685,355.0734142338515,1000.0,200.0,376.5107625532802,18.3713954393199,1000.0,1000.0,0.0,200000
