niicovila/Q-Reps/dev/output_logs/sac_4/log.csv
time/steps,time/epochs,time/steps_per_second,time/dataset,time/preprocess,time/train_step,train/env_steps,train/q_loss,train/target_q,train/alpha_loss,train/actor_loss,train/entropy,train/alpha,train/reward,train/length,train/num_ep,eval/reward,eval/stddev,eval/length,eval/discount,eval/early_termination,step
1000,0,79.80704610511238,0.0004878044128417969,0.000156402587890625,0.014346122741699219,988.0,-1.9999758386611939,-0.07293272525072098,0.968169500430425,-0.3179904545346896,3.925355911254883,0.09753513274093469,2.263382582374592,1000.0,1.0,0.10372636009453973,0.050904138219618145,1000.0,1000.0,0.0,1000
2000,0,78.33319637534457,0.0005557537078857422,0.00015878677368164062,0.014860868453979492,1988.0,-1.9999839067459106,-0.04884316518902779,0.9347055852413177,-0.3291001965602239,4.0735582907994585,0.09277890312174956,3.584025631308376,1000.0,2.0,0.21402835182858518,0.08784341273931245,1000.0,1000.0,0.0,2000
3000,0,76.3585891907086,0.0004608631134033203,0.00013828277587890625,0.01454472541809082,2988.0,-1.9999897766113282,-0.03639965951442718,0.8909963121016821,-0.3202417492866516,4.079320867856343,0.08838997408747673,2.5092677155259495,1000.0,3.0,0.1897449539516436,0.05894597459664106,1000.0,1000.0,0.0,3000
4000,0,75.73723791831227,0.0005040168762207031,0.0001437664031982422,0.01477193832397461,3988.0,-1.9999903345108032,-0.02696436382830143,0.8497650623321533,-0.31264660755793255,4.080960988998413,0.0842860999206702,6.063891477758698,1000.0,4.0,0.247203791150102,0.026404069453685064,1000.0,1000.0,0.0,4000
5000,0,74.19281800480007,0.0007145404815673828,0.0001800060272216797,0.016022920608520508,4988.0,-1.9999881029129027,-0.025659146681427956,0.8105382323265076,-0.29878483961025876,4.077262759208679,0.08042487005392711,1.625445682109297,1000.0,5.0,0.2864660186480398,0.11682032287152724,1000.0,1000.0,0.0,5000
6000,0,73.62592455803072,0.0008037090301513672,0.00016880035400390625,0.015909433364868164,5988.0,-1.999988832473755,-0.019150480031967163,0.7744389126698176,-0.29074424505233765,4.086131453514099,0.07677546516060829,3.6018406959941394,1000.0,6.0,0.46262531726237305,0.4058076878177104,1000.0,1000.0,0.0,6000
7000,0,73.82596359309599,0.0007915496826171875,0.00017189979553222656,0.01663804054260254,6988.0,-1.999987211227417,-0.018105047531425954,0.7390865633885065,-0.2768954162796338,4.07985242207845,0.07331641142566998,3.1372292970657027,1000.0,7.0,0.7989619126123728,0.8948631266583263,1000.0,1000.0,0.0,7000
8000,0,74.23005614457848,0.00060272216796875,0.00015425682067871094,0.01453399658203125,7988.0,-1.9999844551086425,-0.010238589756190776,0.7058326254288355,-0.27189693103233975,4.077958385149638,0.07003085439403851,6.754724945873444,1000.0,8.0,1.5780077661987573,1.9533473253461673,1000.0,1000.0,0.0,8000
9000,0,74.00154555687685,0.0005609989166259766,0.00013113021850585938,0.015575647354125977,8988.0,-1.9999828624725342,-0.0035443993215449154,0.6742582420508066,-0.26446310927470523,4.077173670132955,0.06690334590772788,7.147188376439385,1000.0,9.0,1.5463757729807313,0.16508417739476458,1000.0,1000.0,0.0,9000
10000,0,74.10368251293983,0.0005857944488525391,0.0001709461212158203,0.015260934829711914,9988.0,-1.999980206489563,0.0013186671608127654,0.6445276836554209,-0.2597065046429634,4.081765413284302,0.06392422256370385,6.821745627877571,1000.0,10.0,3.566184267857311,2.4839303521684295,1000.0,1000.0,0.0,10000
11000,0,73.29413878114775,0.0008153915405273438,0.00016021728515625,0.01575636863708496,10988.0,-1.9999773836135863,0.005292219733819365,0.6153186211983362,-0.25169287746151287,4.072404583295186,0.061083996668457985,5.789981875953861,1000.0,11.0,12.248091007831428,1.5643613199630635,1000.0,1000.0,0.0,11000
12000,0,74.30327569725576,0.000766754150390625,0.00015783309936523438,0.016472816467285156,11988.0,-1.999972038269043,0.008257228927686811,0.5882636706034342,-0.24139058838287988,4.0768537123998,0.05837240939339002,9.194617535909908,1000.0,12.0,21.479327490015727,0.3715055506321005,1000.0,1000.0,0.0,12000
13000,0,74.09661328469763,0.0008525848388671875,0.00027680397033691406,0.016254425048828125,12988.0,-1.9999690580368041,0.013713074736297131,0.5614479780197144,-0.23756088440616926,4.063486019770305,0.055785562532643475,10.160042897398373,1000.0,13.0,26.744528378881444,0.5200233172420443,1000.0,1000.0,0.0,13000
14000,0,74.94501928702684,0.0008680820465087891,0.0001609325408935547,0.019118309020996094,13988.0,-1.9999664831161499,0.02048598147928715,0.5360377281904221,-0.23300910741090775,4.053272883097331,0.05331488357235988,11.22865463404523,1000.0,14.0,34.77089533220297,0.4234534715625194,1000.0,1000.0,0.0,14000
15000,0,74.20767726635476,0.000701904296875,0.0002734661102294922,0.015875816345214844,14988.0,-1.9999639320373535,0.02292878396809101,0.512397880355517,-0.2254509317378203,4.055226445198059,0.05095373994360367,7.383359218126376,1000.0,15.0,35.10713289217888,0.716363458066404,1000.0,1000.0,0.0,15000
16000,0,74.60906898757459,0.0007112026214599609,0.0001513957977294922,0.016088485717773438,15988.0,-1.9999560737609863,0.027184568122029306,0.4889962077140808,-0.2217462013165156,4.040055433909099,0.04870014234135548,12.534209374374283,1000.0,16.0,30.754398982409203,0.727901831054919,1000.0,1000.0,0.0,16000
17000,0,67.4383082282922,0.0007565021514892578,0.00019049644470214844,0.015632152557373047,16988.0,-1.999945755004883,0.03269756019115448,0.46685847888390225,-0.21715393910805383,4.028629144032796,0.04654836437354485,13.826651833181744,1000.0,17.0,40.37759798394265,3.7884771292983963,1000.0,1000.0,0.0,17000
18000,0,69.99223032416369,0.0006802082061767578,0.00024962425231933594,0.015666723251342773,17988.0,-1.99993492603302,0.04332847237586975,0.44547468920548755,-0.22017829741040865,4.011536041895549,0.04449212706337372,28.163590428748467,1000.0,18.0,43.819126815639045,4.040235858811756,1000.0,1000.0,0.0,18000
19000,0,69.45265209094624,0.0007791519165039062,0.00015211105346679688,0.015349626541137695,18988.0,-1.9999349069595338,0.04726266667246819,0.42459677408138913,-0.21615764498710632,3.983256379763285,0.04252705226341883,14.949815516034475,1000.0,19.0,43.35442521885132,3.383984280948145,1000.0,1000.0,0.0,19000
20000,0,74.39685093895714,0.0007503032684326172,0.00016188621520996094,0.015323400497436523,19988.0,-1.9999231815338134,0.06165297105908394,0.40558623025814694,-0.22171463072299957,3.9764708479245505,0.04065060832848152,28.89915180622458,1000.0,20.0,41.462241704038455,2.2408208003086485,1000.0,1000.0,0.0,20000
21000,0,73.70899114220622,0.0006933212280273438,0.0001785755157470703,0.01536870002746582,20988.0,-1.9999015235900879,0.07998165085911751,0.3860051433245341,-0.23452315603693327,3.93260395526886,0.03885894423971573,35.22154100379335,1000.0,21.0,54.514226636631804,4.284050771257297,1000.0,1000.0,0.0,21000
22000,0,73.41180160577115,0.0006849765777587891,0.00020647048950195312,0.016083955764770508,21988.0,-1.999879035949707,0.09411541104316712,0.3675283466776212,-0.23885890344778696,3.892877717812856,0.03714745088169972,42.202045001168344,1000.0,22.0,81.94667560372042,14.290665966295782,1000.0,1000.0,0.0,22000
23000,0,73.81286749773157,0.0007050037384033203,0.0001404285430908203,0.015427589416503906,22988.0,-1.9998690128326415,0.11261627316474915,0.3493572026491165,-0.2514835645755132,3.8361603816350303,0.03551445280512174,44.01813066173976,1000.0,23.0,56.176186600609334,42.261845088150054,1000.0,1000.0,0.0,23000
24000,0,73.82258518727119,0.0008711814880371094,0.0001475811004638672,0.015933513641357422,23988.0,-1.9998669052124023,0.09622054964303971,0.33094919721285504,-0.23111573730905852,3.744857132434845,0.03395840308318535,22.73360352074899,1000.0,24.0,45.83834654960323,30.051978436983863,1000.0,1000.0,0.0,24000
25000,0,74.59495067557425,0.0008063316345214844,0.00016760826110839844,0.015391111373901367,24988.0,-1.9997565507888795,0.13593655019998552,0.31540793428818387,-0.2584105059504509,3.7117241819699607,0.032474110213418804,75.36134218254107,1000.0,25.0,96.16683891774869,29.985269833840054,1000.0,1000.0,0.0,25000
26000,0,74.35443612434763,0.0006697177886962891,0.00019693374633789062,0.016045808792114258,25988.0,-1.9996944236755372,0.19135510444641113,0.2968569373091062,-0.3155095850427945,3.557349522908529,0.031057851233830053,105.06313654772146,1000.0,26.0,75.83578835884012,24.07962627763976,1000.0,1000.0,0.0,26000
27000,0,74.18095587101301,0.0006766319274902344,0.00014400482177734375,0.014988183975219727,26988.0,-1.9997255325317382,0.20484114825725555,0.28028126309315365,-0.32019193718830746,3.433415710926056,0.029708898936708767,60.12755487532202,1000.0,27.0,50.15613005430542,14.32431968779943,1000.0,1000.0,0.0,27000
28000,0,74.28822023709579,0.0006856918334960938,0.0001380443572998047,0.015069961547851562,27988.0,-1.9996166372299193,0.26802305519580844,0.2663198212782542,-0.3817792410651843,3.3695471485455832,0.028421463444828987,103.02149485840522,1000.0,28.0,57.5739696982719,34.79719771275479,1000.0,1000.0,0.0,28000
29000,0,74.27290783035413,0.0006630420684814453,0.00016260147094726562,0.015302896499633789,28988.0,-1.999671130180359,0.25432746946811674,0.2522714634736379,-0.3593521888057391,3.277399778366089,0.027189613785594702,31.312594897414538,1000.0,29.0,57.58899212469133,30.95218597403693,1000.0,1000.0,0.0,29000
30000,0,74.66527671858321,0.0007772445678710938,0.00015854835510253906,0.015275716781616211,29988.0,-1.999617052078247,0.26847951114177704,0.23838203648726145,-0.3544446602463722,3.163590351740519,0.02601174156491955,81.31131361362657,1000.0,30.0,65.7535189418641,31.068005969116754,1000.0,1000.0,0.0,30000
31000,0,73.6124859068808,0.0006880760192871094,0.0001628398895263672,0.015748262405395508,30988.0,-1.9994563627243043,0.3412734544277191,0.22433239966630936,-0.43957405785719555,3.013215402762095,0.024887065092722576,140.8969501862622,1000.0,31.0,95.38479731998277,35.98609317604895,1000.0,1000.0,0.0,31000
32000,0,73.65048861467747,0.0006291866302490234,0.0001430511474609375,0.01564645767211914,31988.0,-1.999489951133728,0.33247891783714295,0.2127207132677237,-0.43734781195720035,2.9318365852038064,0.02381387415031592,44.11526791161587,1000.0,32.0,138.99030098424822,33.882625835036706,1000.0,1000.0,0.0,32000
33000,0,74.49590142388044,0.0007214546203613281,0.00014495849609375,0.015154361724853516,32988.0,-1.9993781518936158,0.3884021770954132,0.20089120293656984,-0.4808785443504651,2.8159379760424295,0.022785255685448647,127.6862296734119,1000.0,33.0,125.10845464284458,47.652255802247176,1000.0,1000.0,0.0,33000
34000,0,74.18662402807355,0.0006608963012695312,0.00014591217041015625,0.01553964614868164,33988.0,-1.9992481517791747,0.4384974944591522,0.1908613940080007,-0.5152331540981928,2.753229856491089,0.021802731479207676,149.7351012701625,1000.0,34.0,121.63006500164283,39.662118942940566,1000.0,1000.0,0.0,34000
35000,0,74.2540259618864,0.001032114028930664,0.0001862049102783203,0.015643596649169922,34988.0,-1.9992953395843507,0.44569043278694154,0.17984459921717644,-0.5339066311717033,2.6195469895998635,0.02086292424549659,94.21510784449059,1000.0,35.0,155.21160724107588,22.724173223110853,1000.0,1000.0,0.0,35000
36000,0,74.35348709243273,0.0009613037109375,0.0001614093780517578,0.0161435604095459,35988.0,-1.9993280792236328,0.4342446267604828,0.1709943488240242,-0.5123016114036242,2.5658220648765564,0.019960633323838312,44.179121822653386,1000.0,36.0,166.0791813566827,12.100304394058677,1000.0,1000.0,0.0,36000
37000,0,74.45067760471508,0.0009002685546875,0.0001628398895263672,0.01604461669921875,36988.0,-1.9991698122024537,0.4687034201622009,0.16235539317131042,-0.5392690921823183,2.5010886589686074,0.019096497756739456,152.78286855182498,1000.0,37.0,158.30032927874643,31.14427485152026,1000.0,1000.0,0.0,37000
38000,0,73.41745563414501,0.000701904296875,0.00022125244140625,0.015486717224121094,37988.0,-1.9991000747680665,0.5337991917133331,0.15210234746336937,-0.6149825900793076,2.3234925071398416,0.018272221864511568,132.12231442639614,1000.0,38.0,74.04370952358089,57.197866526187205,1000.0,1000.0,0.0,38000
39000,0,74.02223259156455,0.0007634162902832031,0.00017690658569335938,0.015112876892089844,38988.0,-1.9990142011642456,0.5959306192398072,0.14206895977258682,-0.6674550374348959,2.123590966065725,0.0174869194937249,156.3635948023229,1000.0,39.0,153.67681217817852,19.584320385795028,1000.0,1000.0,0.0,39000
40000,0,66.74092395586825,0.000701904296875,0.0001919269561767578,0.015831947326660156,39988.0,-1.9989814615249635,0.622212462425232,0.13443893070022264,-0.6668320943911871,2.0308736066023507,0.016738767890880506,146.8137499973232,1000.0,40.0,171.2826575534612,8.414915681929097,1000.0,1000.0,0.0,40000
41000,0,69.52582645861044,0.0007379055023193359,0.0001773834228515625,0.015126943588256836,40988.0,-1.9990098810195922,0.6722505736351013,0.1250611301511526,-0.7465306868155798,1.8025400241216023,0.016026873607188463,157.7010460618362,1000.0,41.0,140.4940253762425,45.06499338477078,1000.0,1000.0,0.0,41000
42000,0,68.98912110216689,0.0007355213165283203,0.00019550323486328125,0.016175031661987305,41988.0,-1.9989652919769287,0.6990148782730102,0.11628128836552303,-0.7668635199467341,1.5748075147469838,0.01534977019764483,113.67167782341872,1000.0,42.0,142.81630394462917,19.678480418048057,1000.0,1000.0,0.0,42000
43000,0,74.10818657654181,0.0007205009460449219,0.000141143798828125,0.01553201675415039,42988.0,-1.99901198387146,0.7466730141639709,0.108130040888985,-0.8149303048849106,1.3529655635356903,0.014704349994038543,158.51028480687185,1000.0,43.0,132.81580850304502,37.4580611748937,1000.0,1000.0,0.0,43000
44000,0,74.58248217547414,0.0007312297821044922,0.00020742416381835938,0.01569080352783203,43988.0,-1.9989453649520874,0.7716565656661988,0.1006174807747205,-0.8514700333277384,1.1413974165916443,0.014088205915565291,136.29730880783336,1000.0,44.0,135.5487380954752,33.70284521368966,1000.0,1000.0,0.0,44000
45000,0,74.1992755392237,0.0007550716400146484,0.00025916099548339844,0.01545858383178711,44988.0,-1.9989987087249756,0.7829937696456909,0.09597569331526756,-0.8466482013463974,1.110097775856654,0.013497306810071072,86.33934155694294,1000.0,45.0,125.72073392903742,45.18638355205665,1000.0,1000.0,0.0,45000
46000,0,74.05657978744442,0.0006544589996337891,0.0001380443572998047,0.015091657638549805,45988.0,-1.9988891410827636,0.8196042513847351,0.08993261369566123,-0.872936467329661,0.9554832726716995,0.012928626034408808,136.89457631155685,1000.0,46.0,155.83513659414305,39.10380571397816,1000.0,1000.0,0.0,46000
47000,0,73.994652447927,0.0006468296051025391,0.0001373291015625,0.015498876571655273,46988.0,-1.998935194015503,0.8392935132980347,0.08487704520424207,-0.9090385735034943,0.8531720588604609,0.012383975010986129,141.5017742169665,1000.0,47.0,148.69409215614735,53.56066857749571,1000.0,1000.0,0.0,47000
48000,0,73.66352714885558,0.0006535053253173828,0.00013136863708496094,0.015367746353149414,47988.0,-1.99871723651886,0.8851270294189453,0.0792417439321677,-0.9402991483608881,0.6795399958888689,0.011862301034852862,157.31367192064013,1000.0,48.0,167.64222987324223,21.40534142368623,1000.0,1000.0,0.0,48000
49000,0,74.13574660633485,0.0007100105285644531,0.00013756752014160156,0.01582479476928711,48988.0,-1.9988057661056517,0.9258325958251953,0.07387758046388626,-0.968433658281962,0.5010473231474558,0.011362971737980843,161.94290047482997,1000.0,49.0,120.03280188969525,48.615769627224545,1000.0,1000.0,0.0,49000
50000,0,73.91224359033099,0.0006439685821533203,0.0001392364501953125,0.014975309371948242,49988.0,-1.9987843751907348,0.9336978030204773,0.06848584301769733,-0.9856075743834177,0.29040708889563877,0.01088634505867958,137.23278242866974,1000.0,50.0,168.85499581665255,5.948676238217289,1000.0,1000.0,0.0,50000
51000,0,73.9766424305192,0.0006628036499023438,0.00013375282287597656,0.015377044677734375,50988.0,-1.9986555910110473,0.9755471539497376,0.062469003101189934,-1.0369075685739517,-0.011923062925537428,0.010431331271926561,131.22646102747575,1000.0,51.0,165.09501202422445,14.459435793343882,1000.0,1000.0,0.0,51000
52000,0,74.16946476657587,0.0006835460662841797,0.0001666545867919922,0.015328645706176758,51988.0,-1.998786211013794,0.9883205842971802,0.05903011653572321,-1.0579161942005157,-0.09501242109884818,0.0099958471643428,134.64075956939777,1000.0,52.0,105.75603596878636,46.339950460956636,1000.0,1000.0,0.0,52000
53000,0,74.27790603197721,0.0007257461547851562,0.0001537799835205078,0.015486955642700195,52988.0,-1.9986790609359741,1.0308448338508607,0.05530972685664892,-1.076423704624176,-0.22669376991689205,0.009579493819425503,179.1846111577893,1000.0,53.0,104.82525570932879,41.06794627160165,1000.0,1000.0,0.0,53000
54000,0,73.86455131858216,0.0007112026214599609,0.00014925003051757812,0.015213489532470703,53988.0,-1.9986812591552734,1.0100515627861022,0.05200971042116483,-1.0687685112158458,-0.33674607425928116,0.009182970194766918,130.2720941554451,1000.0,54.0,90.77440542249238,50.7616266054468,1000.0,1000.0,0.0,54000
55000,0,74.4892863257244,0.0006721019744873047,0.00014066696166992188,0.01563858985900879,54988.0,-1.9987071943283081,0.9851775240898132,0.048266709161301456,-1.049440970023473,-0.5172207901875178,0.008802598963181177,80.37548194265796,1000.0,55.0,76.35370374703643,55.83740940853013,1000.0,1000.0,0.0,55000
56000,0,74.56418490577576,0.0006875991821289062,0.000141143798828125,0.015617847442626953,55988.0,-1.998582444190979,0.9783007526397705,0.044652060916026436,-1.0295717616875966,-0.7068893561760584,0.008435158136611184,105.54927419493926,1000.0,56.0,167.47090705849396,38.16322408027033,1000.0,1000.0,0.0,56000
57000,0,74.047846200671,0.001073598861694336,0.00019812583923339844,0.017093181610107422,56988.0,-1.9987054109573363,0.9406418681144715,0.04169647519787153,-1.0195570588111877,-0.8416057278712591,0.008082496157536903,88.14638850990177,1000.0,57.0,90.56444279002378,49.70740411738717,1000.0,1000.0,0.0,57000
58000,0,74.27517009091585,0.0008432865142822266,0.00017905235290527344,0.015848636627197266,57988.0,-1.9985420751571654,0.960418426990509,0.03820175242920717,-1.0286805381377537,-1.071742445230484,0.007750967478690048,207.90871907068893,1000.0,58.0,146.3897917526851,67.64640300450459,1000.0,1000.0,0.0,58000
59000,0,74.45078332735734,0.0009331703186035156,0.00018262863159179688,0.01513528823852539,58988.0,-1.9985219240188599,0.9505732560157776,0.03580084443092346,-1.0145479242006938,-1.1843836704889934,0.0074337233090773225,45.89382593646007,1000.0,59.0,231.23884738717817,31.76585542119256,1000.0,1000.0,0.0,59000
60000,0,74.19029829625856,0.0007462501525878906,0.00015974044799804688,0.015438318252563477,59988.0,-1.9985954761505127,0.9429067015647888,0.03374376861999432,-1.0111234088738759,-1.2669041454792023,0.0071286837725589676,180.7824915032435,1000.0,60.0,121.1583505897491,42.335347207960126,1000.0,1000.0,0.0,60000
61000,0,74.21140614229157,0.0007541179656982422,0.00019240379333496094,0.015426874160766602,60988.0,-1.9985148048400878,0.9768145704269409,0.03203366696834564,-1.0307220071554184,-1.3101135392983754,0.006829835008829832,186.66709647571676,1000.0,61.0,145.925277560265,57.683125152854494,1000.0,1000.0,0.0,61000
62000,0,66.89450190653056,0.0009045600891113281,0.00013256072998046875,0.015344858169555664,61988.0,-1.998657364845276,0.9280580306053161,0.02980986423790455,-0.9864916950464249,-1.4440689583619435,0.006542469413640599,68.68429967872426,1000.0,62.0,161.53981080941088,74.71810455245799,1000.0,1000.0,0.0,62000
63000,0,69.34595336004243,0.0006902217864990234,0.00013375282287597656,0.014667034149169922,62988.0,-1.9985763597488404,0.9209522128105163,0.02708833757787943,-0.978311171134313,-1.6801664332548778,0.006270153525595863,100.79922322637623,1000.0,63.0,137.77188770854067,43.72860294821475,1000.0,1000.0,0.0,63000
64000,0,68.2347704653684,0.0006875991821289062,0.00016617774963378906,0.015639543533325195,63988.0,-1.9985431909561158,0.9323560476303101,0.025686483054111402,-0.9875688900550207,-1.7256616254647572,0.006008930077465872,183.68643796925338,1000.0,64.0,167.30535213543766,39.64208116392951,1000.0,1000.0,0.0,64000
65000,0,73.91750600602295,0.0006928443908691406,0.0001609325408935547,0.015245914459228516,64988.0,-1.9985113143920898,0.9534016871452331,0.023716578880945843,-1.0064233740170796,-1.8825532495975494,0.005759485065937042,177.99828151445234,1000.0,65.0,111.9563088131196,29.171003113365366,1000.0,1000.0,0.0,65000
66000,0,74.12977178027224,0.0007047653198242188,0.000171661376953125,0.015540361404418945,65988.0,-1.9984267950057983,0.9817084121704102,0.022361276671290398,-1.0315769861141841,-1.9502849280834198,0.005521249724552035,247.10381415680158,1000.0,66.0,229.08251137518533,2.2029497817350996,1000.0,1000.0,0.0,66000
67000,0,73.90489830267165,0.0006725788116455078,0.00013756752014160156,0.015177011489868164,66988.0,-1.9983910512924195,0.9890443563461304,0.02002100817238291,-1.058339685201645,-2.2196333408355713,0.005295645872441431,151.90093183604168,1000.0,67.0,217.6331529507915,5.707584916182334,1000.0,1000.0,0.0,67000
68000,0,74.08137975665483,0.0007150173187255859,0.0001697540283203125,0.015573978424072266,67988.0,-1.998491144180298,0.9954994368553162,0.01814959803596139,-1.0859590868155162,-2.4276660283406577,0.005080201585466663,162.40029968412682,1000.0,68.0,181.70699853634744,63.15798278839923,1000.0,1000.0,0.0,68000
69000,0,74.37906670080928,0.0007348060607910156,0.000141143798828125,0.015414237976074219,68988.0,-1.99853533744812,0.99891770362854,0.017294925171881914,-1.0528354247411091,-2.451625168323517,0.004873639515911539,152.9568275392555,1000.0,69.0,172.71336088745105,52.21213595050667,1000.0,1000.0,0.0,69000
70000,0,74.5253925892232,0.000804901123046875,0.00014662742614746094,0.015799283981323242,69988.0,-1.998626971244812,0.9758948302268982,0.016375179480140407,-1.0288764188687007,-2.499601344267527,0.00467767547039936,20.12087298730498,1000.0,70.0,116.47100647393574,78.38998941791843,1000.0,1000.0,0.0,70000
71000,0,74.20463142042918,0.0006415843963623047,0.00012993812561035156,0.014876842498779297,70988.0,-1.9985155773162842,1.00356369972229,0.014323207239309946,-1.0645250181357067,-2.810501237710317,0.004490369814448059,214.48769333635812,1000.0,71.0,112.47647146035361,53.754660649035266,1000.0,1000.0,0.0,71000
72000,0,74.10273987123948,0.0006163120269775391,0.00013566017150878906,0.015071630477905273,71988.0,-1.9985413265228271,1.0093776297569275,0.01306414371356368,-1.078200841943423,-2.9711989561716714,0.004312974323208134,157.7446026702242,1000.0,72.0,126.88869705253066,50.74391179949624,1000.0,1000.0,0.0,72000
73000,0,73.96897126035826,0.0006754398345947266,0.00013327598571777344,0.015285253524780273,72988.0,-1.99857919216156,0.9996679425239563,0.01208909476796786,-1.0609142482280731,-3.0815337101618447,0.004141946982902785,26.241377447144128,1000.0,73.0,87.07240255194623,51.280888881371595,1000.0,1000.0,0.0,73000
74000,0,73.97523332079926,0.0008127689361572266,0.00015473365783691406,0.015098094940185547,73988.0,-1.9986743783950807,0.9951431798934937,0.010813537597035369,-1.06049145758152,-3.2822248935699463,0.003978467546403408,115.78571996165721,1000.0,74.0,99.72397123795169,56.59659073544726,1000.0,1000.0,0.0,74000
75000,0,74.51999030635197,0.0007236003875732422,0.0001652240753173828,0.01479482650756836,74988.0,-1.9984778928756715,0.9927350449562072,0.009770888524750868,-1.0408425132433574,-3.4428545037905374,0.0038207454684500894,76.05381706642088,1000.0,75.0,95.7874976754232,39.04352326335029,1000.0,1000.0,0.0,75000
76000,0,73.26668888614057,0.0006763935089111328,0.00013780593872070312,0.01579594612121582,75988.0,-1.9987350034713744,0.9597372174263,0.009486987565954527,-1.0173507183790207,-3.414656142393748,0.0036692251645339033,48.5429971899359,1000.0,76.0,143.59667956038214,56.27467689429886,1000.0,1000.0,0.0,76000
77000,0,73.83188954395126,0.0006439685821533203,0.0001392364501953125,0.015286445617675781,76988.0,-1.9986366653442382,0.99208975315094,0.007704412254194419,-1.0608707467714946,-3.8145790298779807,0.003525099620067825,170.38591328430957,1000.0,77.0,101.23971954539749,59.339478593623824,1000.0,1000.0,0.0,77000
78000,0,74.89325716701879,0.0011360645294189453,0.0002295970916748047,0.022378206253051758,77988.0,-1.9986163759231568,1.0061979293823242,0.007301244690703849,-1.0780532658100128,-3.846458991368612,0.0033900050912052393,200.70972446773217,1000.0,78.0,108.83573689214154,58.08560656820196,1000.0,1000.0,0.0,78000
79000,0,74.19276550912643,0.000701904296875,0.0001423358917236328,0.016018152236938477,78988.0,-1.9985381841659546,0.99342937707901,0.006940498948097229,-1.0439941088358562,-3.8710875709851584,0.003259912870513896,60.23982578411967,1000.0,79.0,115.17931717313574,57.08942068436232,1000.0,1000.0,0.0,79000
80000,0,73.78840272529341,0.00096893310546875,0.00019168853759765625,0.01727151870727539,79988.0,-1.9985952520370482,1.0198226475715637,0.006434075961199899,-1.0822681834300358,-3.9477331240971885,0.0031349105799260237,194.32751801718467,1000.0,80.0,107.29514806409433,53.47149694567781,1000.0,1000.0,0.0,80000
81000,0,74.1611765912378,0.0010209083557128906,0.00019288063049316406,0.015964508056640625,80988.0,-1.9986856555938721,1.008904857635498,0.00582341942936182,-1.0779353082180023,-4.069374183813731,0.003016089554876089,97.82898511963779,1000.0,81.0,71.08128908868531,49.48845252407659,1000.0,1000.0,0.0,81000
82000,0,74.03733724969639,0.0007443428039550781,0.00022459030151367188,0.015986919403076172,81988.0,-1.9987158298492431,1.018113465309143,0.004452559592512746,-1.1095964908599854,-4.465155402819316,0.0029007578268647194,108.6395741540012,1000.0,82.0,91.06537804276779,54.099534515375325,1000.0,1000.0,0.0,82000
83000,0,67.03412899027133,0.0007388591766357422,0.00014662742614746094,0.016037702560424805,82988.0,-1.9985695552825928,1.00263521194458,0.004705208528321236,-1.0749575297037761,-4.313755075136821,0.0027901505624564984,69.18965966708983,1000.0,83.0,80.49687881528263,34.77278567585562,1000.0,1000.0,0.0,83000
84000,0,69.15359757303963,0.0007190704345703125,0.0001723766326904297,0.015869140625,83988.0,-1.998689389228821,0.9996648287773132,0.0036872156391230724,-1.084558516740799,-4.626468777656555,0.002684243838302791,45.04654598780141,1000.0,84.0,86.50336312462028,41.74597775658161,1000.0,1000.0,0.0,84000
85000,0,68.41811301057027,0.0006754398345947266,0.0001964569091796875,0.015793561935424805,84988.0,-1.9987400674819946,0.9951631498336792,0.0038128559632847705,-1.0485092947880428,-4.524460991223653,0.002583812087929497,109.2709925884651,1000.0,85.0,78.47755649057102,25.541594966151802,1000.0,1000.0,0.0,85000
86000,0,74.37489892556098,0.0007255077362060547,0.000141143798828125,0.015434026718139648,85988.0,-1.9987294530868531,1.0070792531967163,0.0031390791991725564,-1.0761860807736714,-4.738005916277568,0.0024871871379824975,73.22261388268095,1000.0,86.0,86.71650839906671,38.82682141588187,1000.0,1000.0,0.0,86000
87000,0,74.50558804700084,0.0013022422790527344,0.00024771690368652344,0.016106367111206055,86988.0,-1.9986603498458861,0.9994347333908081,0.0027353836533923945,-1.0573332061370213,-4.857990225156148,0.002395092490284393,124.47609200307238,1000.0,87.0,107.93499021271789,36.96987498949457,1000.0,1000.0,0.0,87000
88000,0,74.61735138631623,0.0008158683776855469,0.000164031982421875,0.015372991561889648,87988.0,-1.9987541627883911,1.0164856600761414,0.002575812356856962,-1.047712465127309,-4.885420044263204,0.0023109120472023883,90.64904914686113,1000.0,88.0,131.9810741584572,57.50305337463127,1000.0,1000.0,0.0,88000
89000,0,73.96641455717186,0.0007283687591552734,0.0002346038818359375,0.015273571014404297,88988.0,-1.998684697151184,0.997219808101654,0.0021806326888812086,-1.0769416292508442,-5.02425201733907,0.002234693771849076,91.96757441091262,1000.0,89.0,120.10976304813903,51.616302547560146,1000.0,1000.0,0.0,89000
90000,0,73.91453603574709,0.0007376670837402344,0.00013971328735351562,0.016037940979003906,89988.0,-1.9987411403656006,0.9818821620941162,0.001260782150590482,-1.045874997973442,-5.417253216107686,0.002163326716981828,102.46577478712732,1000.0,90.0,97.88469411615613,67.33798719493174,1000.0,1000.0,0.0,90000
91000,0,74.12138768366422,0.0007236003875732422,0.00014662742614746094,0.015471935272216797,90988.0,-1.9987302780151368,0.9757350969314575,0.0014210002652059,-1.040483444929123,-5.323265155156453,0.0020997123016665378,129.70757819399213,1000.0,91.0,82.17545328060791,56.72318049850725,1000.0,1000.0,0.0,91000
92000,0,74.15677097367113,0.0006422996520996094,0.00013375282287597656,0.015523433685302734,91988.0,-1.9987732934951783,0.9521654272079467,0.0009244308069658776,-1.0446112553278606,-5.547671794891357,0.002043596740501622,34.336708341978174,1000.0,92.0,118.65609084024445,44.47025668554917,1000.0,1000.0,0.0,92000
93000,0,74.56609376655571,0.0006477832794189453,0.00014400482177734375,0.015039443969726562,92988.0,-1.998542490005493,0.9842485332489014,0.0010249141220507834,-1.0489048560460408,-5.486996332804362,0.0019977972454701862,154.46192867510663,1000.0,93.0,177.59871691393653,51.78026665485408,1000.0,1000.0,0.0,93000
94000,0,74.18678148924565,0.0006465911865234375,0.0001437664031982422,0.015584468841552734,93988.0,-1.9987815475463868,0.9590811729431152,0.0005332779704379694,-1.0193905929724376,-5.728022456169128,0.001960701153924068,81.27616129136159,1000.0,94.0,132.73488465749887,48.589648230436914,1000.0,1000.0,0.0,94000
95000,0,74.36556269410062,0.0006275177001953125,0.0001327991485595703,0.015427112579345703,94988.0,-1.9987658977508544,0.9939874839782715,0.00044655501369561534,-1.074188654621442,-5.768771251042684,0.0019311875512357801,141.3684611246133,1000.0,95.0,140.96035426108733,54.33373544292364,1000.0,1000.0,0.0,95000
96000,0,73.9616146939121,0.0006606578826904297,0.00013327598571777344,0.015074014663696289,95988.0,-1.998801693916321,0.9377713847160339,7.192199761144973e-05,-0.9795813659826914,-5.962133447329204,0.0018987441532469045,62.88084711805071,1000.0,96.0,95.12346591086035,37.92472991316521,1000.0,1000.0,0.0,96000
97000,0,74.12641791403514,0.0006921291351318359,0.00014781951904296875,0.01605677604675293,96988.0,-1.998730411529541,0.9568192672729492,9.460073245766883e-05,-1.0316144078969955,-5.949762145678203,0.0018829155014827847,147.15274858110016,1000.0,97.0,129.3256873752754,58.94715450793339,1000.0,1000.0,0.0,97000
98000,0,73.5931118751794,0.0011241436004638672,0.00022029876708984375,0.016224384307861328,97988.0,-1.9987259531021118,0.9579943346977234,0.0001603154275168587,-1.0180143862962723,-5.915134032567342,0.0018890071466254692,227.30323596687535,1000.0,98.0,148.97075943662753,38.77634181777611,1000.0,1000.0,0.0,98000
99000,0,74.13102955835672,0.0011594295501708984,0.0002167224884033203,0.0165560245513916,98988.0,-1.9986437892913818,0.980083544254303,0.00012464736543430868,-1.0543465813000996,-5.934814969698588,0.0019121359024817746,83.61871545200417,1000.0,99.0,133.79923212460142,41.14844307904213,1000.0,1000.0,0.0,99000
100000,0,74.81593474611161,0.000888824462890625,0.0001575946807861328,0.01580214500427246,99988.0,-1.9987769985198975,0.9720368838310242,-0.00020517919862565273,-1.057005137205124,-6.105981151262919,0.0019361383068220068,148.47874877786646,1000.0,100.0,111.58001096117587,28.267554030068563,1000.0,1000.0,0.0,100000
101000,0,74.6719762890041,0.0010631084442138672,0.00023746490478515625,0.01642322540283203,100988.0,-1.9987040615081788,0.9773729610443115,-0.00039448607397692587,-1.0305396020412445,-6.202385584513347,0.001949162872430558,182.21871733995857,1000.0,101.0,110.11267970240722,33.08294149245392,1000.0,1000.0,0.0,101000
102000,0,74.02981028279667,0.0007147789001464844,0.0002415180206298828,0.015221357345581055,101988.0,-1.9987490224838256,0.9795233607292175,-0.0001434675935646131,-1.0563837637503941,-6.072930137316386,0.0019675178142885366,113.79589508934615,1000.0,102.0,117.831486376299,35.97794604120668,1000.0,1000.0,0.0,102000
103000,0,66.68841753527043,0.000682830810546875,0.00013828277587890625,0.015362262725830078,102988.0,-1.9988218641281128,0.9484706020355225,-0.000506090305862017,-1.027562881509463,-6.257127443949382,0.001968285806166629,93.89239379815712,1000.0,103.0,103.2457616718306,22.184397871678918,1000.0,1000.0,0.0,103000
104000,0,69.6460761249168,0.0006692409515380859,0.0001392364501953125,0.015617847442626953,103988.0,-1.998758783340454,0.9712221956253052,4.478510860887278e-05,-1.036289781332016,-5.977411548296611,0.0019825202180072665,86.02119928661695,1000.0,104.0,105.70203302794216,35.67361297786792,1000.0,1000.0,0.0,104000
105000,0,69.95846829746706,0.0007233619689941406,0.0001590251922607422,0.01540517807006836,104988.0,-1.9986203527450561,0.9795016860961914,0.0001121063536023333,-1.0192965070406597,-5.943785349527995,0.001993982839242866,160.48317218349783,1000.0,105.0,103.40176903274315,20.231216566902724,1000.0,1000.0,0.0,105000
106000,0,74.38344600585944,0.0007259845733642578,0.00019884109497070312,0.015349149703979492,105988.0,-1.9987209558486938,0.9531800270080566,-0.00018518212467218595,-1.0244505902131398,-6.092292507489522,0.0020064779091626406,91.96579626646788,1000.0,106.0,104.58606738281306,35.155120972034375,1000.0,1000.0,0.0,106000
107000,0,72.4804918224291,0.0008058547973632812,0.0001494884490966797,0.01561427116394043,106988.0,-1.998748140335083,0.9527187824249268,8.431806054431945e-05,-1.02787942190965,-5.957845846811931,0.002000107526934395,107.14692400212127,1000.0,107.0,106.2978072810345,26.359308766259623,1000.0,1000.0,0.0,107000
108000,0,72.47538192829293,0.0006749629974365234,0.0001399517059326172,0.015474557876586914,107988.0,-1.998803868293762,0.9276472306251526,-6.904160909471102e-05,-1.0150416046380997,-6.034252365430196,0.0020158387875805297,82.53753922810515,1000.0,108.0,101.05468776796633,29.753761079346805,1000.0,1000.0,0.0,108000
109000,0,73.82637941826073,0.0009045600891113281,0.000141143798828125,0.014421939849853516,108988.0,-1.9988489770889282,0.9237149310112,0.00022755207040366562,-0.9814015825589498,-5.88821558157603,0.0020355929736979306,76.61332588855703,1000.0,109.0,129.25667466097056,49.756898765059596,1000.0,1000.0,0.0,109000
110000,0,74.73014289277697,0.0006988048553466797,0.00014638900756835938,0.01574563980102539,109988.0,-1.9988230895996093,0.8942150330543518,-0.0003375318016575572,-0.9748996496200562,-6.165011286735535,0.0020458814882052443,66.1504001757949,1000.0,110.0,93.11428890884811,24.37579559094125,1000.0,1000.0,0.0,110000
111000,0,74.48886299944235,0.0007300376892089844,0.00014400482177734375,0.015524864196777344,110988.0,-1.9988120365142823,0.8767432284355163,0.00010221511911367998,-0.9335164725780487,-5.9502987464269,0.0020563003490678966,47.625269238282705,1000.0,111.0,105.15340740023528,33.66331886856083,1000.0,1000.0,0.0,111000
112000,0,74.23646760558195,0.0006525516510009766,0.00015306472778320312,0.015579938888549805,111988.0,-1.9987868928909303,0.8525310206413269,-9.865222151953883e-05,-0.9238802492618561,-6.047993779182434,0.0020555840455926955,131.60285153968582,1000.0,112.0,94.54386035450838,16.336202808446483,1000.0,1000.0,0.0,112000
113000,0,73.70158258899076,0.0007612705230712891,0.00014019012451171875,0.015847206115722656,112988.0,-1.9988225507736206,0.8490020394325256,0.0001421494028666833,-0.9304304073254267,-5.931689103444417,0.00208100377737234,67.1225082430043,1000.0,113.0,98.53136457620863,26.226357392336777,1000.0,1000.0,0.0,113000
114000,0,74.49108551610375,0.0006453990936279297,0.00013685226440429688,0.015513896942138672,113988.0,-1.9988142013549806,0.839749436378479,-0.00036421121027766884,-0.906113455692927,-6.173056324323018,0.0021046422383127115,172.37774996728717,1000.0,114.0,129.7263668020371,54.36236930785025,1000.0,1000.0,0.0,114000
115000,0,74.22117652388354,0.0007078647613525391,0.0001423358917236328,0.015294313430786133,114988.0,-1.9988022232055664,0.8132291197776794,-9.050723322919414e-05,-0.8767644415299097,-6.042066733042399,0.002151103205202768,121.68524897565551,1000.0,115.0,101.07173540284445,46.0892651599915,1000.0,1000.0,0.0,115000
116000,0,73.62359828652355,0.0006132125854492188,0.0001742839813232422,0.015340328216552734,115988.0,-1.9987542676925658,0.8025636577606201,-0.0002402009710446388,-0.8681751489639282,-6.109192728996277,0.002199836579772333,99.25281118866056,1000.0,116.0,112.77938659027882,35.7134364917919,1000.0,1000.0,0.0,116000
117000,0,74.37305259215809,0.0006301403045654297,0.00013136863708496094,0.0149688720703125,116988.0,-1.9986901044845582,0.79341796875,-0.0001826266446490384,-0.8814258823792139,-6.081324338912964,0.002245513858118405,84.18955632009042,1000.0,117.0,101.4862449505758,49.993892143646974,1000.0,1000.0,0.0,117000
118000,0,74.22322547855823,0.0010457038879394531,0.00022077560424804688,0.016792774200439453,117988.0,-1.998746967315674,0.7660241603851319,0.0002231366555254984,-0.8276508996884028,-5.9019410610198975,0.002275513135828078,62.538831140468275,1000.0,118.0,90.88961800979939,28.491801916617508,1000.0,1000.0,0.0,118000
119000,0,75.1054157215005,0.0010590553283691406,0.0002117156982421875,0.016568899154663086,118988.0,-1.9987545728683471,0.7308498001098633,0.0003037688541856672,-0.8023797223965327,-5.8678615887959795,0.0022989155064957836,65.5772935689912,1000.0,119.0,96.05346611939103,34.075000471250824,1000.0,1000.0,0.0,119000
120000,0,74.25192272694764,0.0009441375732421875,0.0001614093780517578,0.017758607864379883,119988.0,-1.9987434911727906,0.7100347661972046,9.664430641957249e-05,-0.763938640554746,-5.958383202552795,0.002322235784959048,83.51294445924201,1000.0,120.0,99.58784839253312,22.420143193703915,1000.0,1000.0,0.0,120000
121000,0,72.48304703971245,0.0011119842529296875,0.00019788742065429688,0.01703810691833496,120988.0,-1.998679747581482,0.6987968969345093,-0.00014428511046086592,-0.7701422224442164,-6.061484932899475,0.0023467534726175168,88.4748289222401,1000.0,121.0,92.96775285195753,34.31394842845309,1000.0,1000.0,0.0,121000
122000,0,74.72300688955336,0.0006999969482421875,0.0002040863037109375,0.01566791534423828,121988.0,-1.9986881732940673,0.665037682056427,-0.0003107263910351321,-0.7345555325349172,-6.131840944290161,0.0023569478071294725,96.1824766422192,1000.0,122.0,102.7396023456258,27.704345763717473,1000.0,1000.0,0.0,122000
123000,0,70.96639272533834,0.0006952285766601562,0.00014328956604003906,0.01571512222290039,122988.0,-1.998668336868286,0.6436165523529053,-0.00013812328567534374,-0.7162478317817053,-6.058318217595418,0.0023684645808922746,113.86493016021674,1000.0,123.0,76.40296846847384,35.492383951191044,1000.0,1000.0,0.0,123000
124000,0,68.45549866395781,0.0006844997406005859,0.00015997886657714844,0.01532602310180664,123988.0,-1.998677830696106,0.6340684103965759,2.0421216807638604e-05,-0.6860098789135615,-5.991364638010661,0.002364736011562248,35.632940811271,1000.0,124.0,105.93135713159957,38.99273503474018,1000.0,1000.0,0.0,124000
125000,0,69.36870781781928,0.0007383823394775391,0.00020456314086914062,0.016200542449951172,124988.0,-1.9986710405349732,0.6258280467987061,4.766042153884579e-05,-0.7184950361649195,-5.979691942532857,0.002345978321197132,81.90194375941824,1000.0,125.0,105.44345648180686,36.315968397845765,1000.0,1000.0,0.0,125000
126000,0,74.86486390004463,0.0007812976837158203,0.0001633167266845703,0.015009641647338867,125988.0,-1.9986262226104736,0.5886926031112671,-0.0002548399097577203,-0.6690752158562342,-6.108760952949524,0.0023431184429985783,82.86023022869762,1000.0,126.0,96.41576578073543,35.084958529530255,1000.0,1000.0,0.0,126000
127000,0,74.18510193787014,0.0006973743438720703,0.0001571178436279297,0.015400409698486328,126988.0,-1.9986296796798706,0.5713077545166015,-0.0004338591036988267,-0.6533673057953516,-6.1850069761276245,0.0023452185560017824,138.64257390279974,1000.0,127.0,90.17029732441418,32.18379292595653,1000.0,1000.0,0.0,127000
128000,0,72.91393302695708,0.001260519027709961,0.00014519691467285156,0.015279531478881836,127988.0,-1.9986815023422242,0.5530840122699737,0.00011076421712156541,-0.6216595123211542,-5.952740112940471,0.0023437406246860823,80.38804717587402,1000.0,128.0,94.15252584139508,38.567255840803966,1000.0,1000.0,0.0,128000
129000,0,73.97685119208036,0.0007126331329345703,0.00020694732666015625,0.01572561264038086,128988.0,-1.9987238025665284,0.5461561012268067,5.093861636851216e-05,-0.6064126541217169,-5.977940320968628,0.0023081450102229915,33.49542653584387,1000.0,129.0,85.41009659775482,34.473607866300746,1000.0,1000.0,0.0,129000
130000,0,74.25066084317429,0.0006241798400878906,0.0001811981201171875,0.015261650085449219,129988.0,-1.9986691856384278,0.5128756809234619,9.715518778345238e-05,-0.5531373719374338,-5.9574176867802935,0.0022810157776499787,73.24521158305667,1000.0,130.0,93.85613899846244,39.147779057788156,1000.0,1000.0,0.0,130000
131000,0,73.28870862563402,0.0006537437438964844,0.00013589859008789062,0.015278100967407227,130988.0,-1.9987192201614379,0.4939688444137573,-0.0003937308186626372,-0.5601057459910711,-6.1737247705459595,0.002266963516982893,90.34403207925041,1000.0,131.0,67.24611064696535,31.713521662159437,1000.0,1000.0,0.0,131000
132000,0,74.40524467510646,0.0007255077362060547,0.00016736984252929688,0.01519322395324707,131988.0,-1.9987083435058595,0.4916508686542511,7.849122266634367e-05,-0.5583620245258013,-5.965014974276225,0.0022431593582344553,78.67011489839702,1000.0,132.0,104.30100896698579,47.234471498622035,1000.0,1000.0,0.0,132000
133000,0,75.09444312751236,0.0007021427154541016,0.00015306472778320312,0.016700267791748047,132988.0,-1.9987218141555787,0.44032020807266237,1.9257719335049234e-05,-0.5111784636974335,-5.991410930951436,0.0022417700577837727,99.29494308061614,1000.0,133.0,70.22231591158298,30.422829426605478,1000.0,1000.0,0.0,133000
134000,0,74.69479574929443,0.0006957054138183594,0.00013971328735351562,0.01565265655517578,133988.0,-1.998724675178528,0.42482759356498717,7.894017592965004e-05,-0.49512433509031933,-5.964558521906535,0.0022272283288960657,97.3408587492579,1000.0,134.0,84.17512455070607,31.638013267465897,1000.0,1000.0,0.0,134000
135000,0,74.15173662306988,0.0006926059722900391,0.0001380443572998047,0.014910221099853516,134988.0,-1.998774790763855,0.4014133453369141,3.583108991733752e-05,-0.489711232483387,-5.983821868896484,0.002214054091988752,72.73798868654075,1000.0,135.0,61.120343448738026,23.207601353644794,1000.0,1000.0,0.0,135000
136000,0,74.51347683036889,0.0006208419799804688,0.00017380714416503906,0.0156404972076416,135988.0,-1.998712010383606,0.4112436366081238,-4.014204751001671e-05,-0.490903802216053,-6.018196900685628,0.0022065131148944297,110.89775592571372,1000.0,136.0,87.06878672040945,36.83680002431089,1000.0,1000.0,0.0,136000
137000,0,74.20751971646786,0.001100301742553711,0.0001862049102783203,0.015625715255737305,136988.0,-1.9987364768981934,0.3662198430299759,8.72602837868423e-05,-0.4392844960093498,-5.9601651430130005,0.0021900367767860494,78.39662101612674,1000.0,137.0,84.0241900394759,41.894013023951516,1000.0,1000.0,0.0,137000
138000,0,74.14245633088967,0.0007245540618896484,0.00013947486877441406,0.016013383865356445,137988.0,-1.998780565261841,0.3949604761600494,0.0002803675160976127,-0.4442645112673442,-5.871265451113383,0.002177799896647533,36.577749381861544,1000.0,138.0,85.945637725852,29.77996677512556,1000.0,1000.0,0.0,138000
139000,0,74.76813575226552,0.0009326934814453125,0.00015664100646972656,0.01731705665588379,138988.0,-1.9987248420715331,0.39800031065940855,0.0002751472663173142,-0.45655078689257306,-5.872241139411926,0.0021534135254720845,44.51113995057754,1000.0,139.0,95.29446541932005,31.00560940820268,1000.0,1000.0,0.0,139000
140000,0,73.52422302063437,0.0011522769927978516,0.00021910667419433594,0.016143083572387695,139988.0,-1.9987154865264893,0.379829478263855,-7.220403100897481e-05,-0.4500534211595853,-6.033691684405009,0.002143595484085381,99.65341579720653,1000.0,140.0,103.67158361718671,40.60631520308886,1000.0,1000.0,0.0,140000
141000,0,73.48042836300134,0.0007100105285644531,0.00018167495727539062,0.01526784896850586,140988.0,-1.9987353134155272,0.3996755051612854,0.0001909211772120519,-0.4549318477511406,-5.910844326019287,0.0021413054394846163,83.29335969955243,1000.0,141.0,94.14466352250976,44.4658435596288,1000.0,1000.0,0.0,141000
142000,0,74.11950152328039,0.0007669925689697266,0.0001556873321533203,0.016106367111206055,141988.0,-1.9986976337432862,0.3613466513156891,0.00024403732641076203,-0.42530978967746097,-5.885696768760681,0.0021348316416454813,108.09026632149329,1000.0,142.0,104.84978464469116,46.751192753092454,1000.0,1000.0,0.0,142000
143000,0,68.43659973397486,0.0007190704345703125,0.00015115737915039062,0.015156030654907227,142988.0,-1.9987165212631226,0.3594969868659973,-0.0001002663345085845,-0.43599610527356464,-6.046783407529195,0.0021432707047400377,74.87694899909462,1000.0,143.0,93.35632093274182,34.389794909606664,1000.0,1000.0,0.0,143000
144000,0,68.49453585822626,0.0009765625,0.00021576881408691406,0.016749858856201172,143988.0,-1.9987467765808105,0.3252037715911865,0.00010376295358582865,-0.42817365874846774,-5.951952219009399,0.002159592656729122,65.03815808929915,1000.0,144.0,86.54504475956261,24.0452949988816,1000.0,1000.0,0.0,144000
145000,0,73.53608231517026,0.0006260871887207031,0.000141143798828125,0.015564203262329102,144988.0,-1.9986898803710937,0.3689758551120758,-0.00014631603638311694,-0.4331113249063492,-6.067869544029236,0.002155873633455485,100.38605964714775,1000.0,145.0,95.72884373495421,31.082442582905294,1000.0,1000.0,0.0,145000
146000,0,74.20589174014181,0.0007052421569824219,0.00039839744567871094,0.015321731567382812,145988.0,-1.9986794185638428,0.37288998007774354,3.569935567308372e-05,-0.4254941865801811,-5.983443379402161,0.0021552161197178066,175.56628642974982,1000.0,146.0,80.87999779635958,34.37884261995968,1000.0,1000.0,0.0,146000
147000,0,75.11800588148907,0.0008904933929443359,0.00017786026000976562,0.015584945678710938,146988.0,-1.9986070251464845,0.3717000365257263,-1.2440803402569145e-05,-0.429727204144001,-6.005771517753601,0.002159801544621587,102.49727578519418,1000.0,147.0,91.63031956293072,24.835647805908305,1000.0,1000.0,0.0,147000
148000,0,74.25865349818952,0.0008726119995117188,0.0002617835998535156,0.015966176986694336,147988.0,-1.998668351173401,0.3358830851316452,0.000307469552353723,-0.41668739666541416,-5.856795787811279,0.002147093415260315,61.61636181160558,1000.0,148.0,84.96950175878297,30.760732858606175,1000.0,1000.0,0.0,148000
149000,0,73.2094994397104,0.0007190704345703125,0.00018835067749023438,0.01614546775817871,148988.0,-1.9986808919906616,0.32015083968639374,-0.00038523933896309853,-0.382058543463548,-6.180498878161113,0.0021344031750534973,83.20841399515602,1000.0,149.0,93.79232966828002,49.53451761728715,1000.0,1000.0,0.0,149000
150000,0,74.48367764294893,0.0006978511810302734,0.0001380443572998047,0.015409708023071289,149988.0,-1.9985975980758668,0.37675207734107974,-7.928845540542777e-05,-0.44680601606766385,-6.037045001983643,0.0021406830637715757,132.64592857098356,1000.0,150.0,131.26780776886542,46.876558703582056,1000.0,1000.0,0.0,150000
151000,0,74.07133219838516,0.0006191730499267578,0.0001399517059326172,0.015338659286499023,150988.0,-1.9986287832260132,0.34253029346466063,-5.2484408115560655e-05,-0.4233398685852687,-6.024581472078959,0.0021351860098851225,181.62412164133636,1000.0,151.0,89.51746340594497,36.94821454840951,1000.0,1000.0,0.0,151000
152000,0,74.26407055177357,0.0007236003875732422,0.0001430511474609375,0.01531219482421875,151988.0,-1.998644804954529,0.35691752552986145,-3.049369418780164e-05,-0.4397815118233363,-6.014293392499288,0.002133933400424818,43.039275067624374,1000.0,152.0,102.11697360436811,64.65680960376896,1000.0,1000.0,0.0,152000
153000,0,73.74403356604799,0.0006954669952392578,0.00013875961303710938,0.015249013900756836,152988.0,-1.998619327545166,0.35513452351093294,-5.4379482511042925e-06,-0.42327280590931576,-6.002556045850118,0.0021326824401815734,180.10337362243254,1000.0,153.0,109.62148018775092,51.146093727584585,1000.0,1000.0,0.0,153000
154000,0,74.3032230451555,0.0006787776947021484,0.0001423358917236328,0.015507936477661133,153988.0,-1.998571367263794,0.4058373975753784,-1.2831251297029667e-05,-0.5026687135299047,-6.006021698315938,0.0021317117692281804,246.9777711311675,1000.0,154.0,102.84009556428427,60.877914954252496,1000.0,1000.0,0.0,154000
155000,0,74.64454757008141,0.0006725788116455078,0.0001513957977294922,0.01513814926147461,154988.0,-1.9985925245285034,0.37515666723251345,-3.2109988751471974e-05,-0.4203523223598798,-6.014962832132976,0.002146011160220951,90.88873933079651,1000.0,155.0,101.18806317676055,23.90337733364575,1000.0,1000.0,0.0,155000
156000,0,74.52131432283264,0.0007069110870361328,0.00013208389282226562,0.014645099639892578,155988.0,-1.9986141157150268,0.3609553819894791,4.577055066571726e-05,-0.45412466923395794,-5.978670994440715,0.0021450492398192487,79.85085629629796,1000.0,156.0,135.44281056664508,44.24228001274901,1000.0,1000.0,0.0,156000
157000,0,74.3981705833146,0.00101470947265625,0.00018715858459472656,0.01654648780822754,156988.0,-1.9985121822357177,0.3626969796419144,4.1984293905746504e-05,-0.3964657634496689,-5.980477571487427,0.0021476250646325448,130.0270034163027,1000.0,157.0,94.56903654812018,28.246280914904197,1000.0,1000.0,0.0,157000
158000,0,73.66766733151279,0.0010204315185546875,0.0001862049102783203,0.015993595123291016,157988.0,-1.9985455989837646,0.35089821815490724,0.00017300732755150724,-0.41008250912030536,-5.920028607050578,0.0021631374644736447,85.22006756303597,1000.0,158.0,99.58209400734081,45.528043043418364,1000.0,1000.0,0.0,158000
159000,0,73.9362692283827,0.0010237693786621094,0.00017571449279785156,0.016123533248901367,158988.0,-1.9985312509536743,0.3306352120637894,-0.00023447762214345858,-0.40349190930525464,-6.108668804168701,0.0021577433605367937,83.69585806573805,1000.0,159.0,83.64261412759589,18.54594881718854,1000.0,1000.0,0.0,159000
160000,0,73.70904295551487,0.0010936260223388672,0.0001709461212158203,0.015999794006347656,159988.0,-1.9985925960540771,0.36719165682792665,0.00027848000718222465,-0.41346221665541333,-5.871622125307719,0.0021687502933976552,115.51440784121479,1000.0,160.0,108.55079600371417,53.101442755469755,1000.0,1000.0,0.0,160000
161000,0,73.2908088733814,0.0009884834289550781,0.00013947486877441406,0.01575160026550293,160988.0,-1.9986248636245727,0.33210636794567105,0.0004217847520825065,-0.3902946462233861,-5.804932991663615,0.0021622257384782038,91.89998904721247,1000.0,161.0,100.12538022241574,35.070873664633176,1000.0,1000.0,0.0,161000
162000,0,72.88884440106882,0.0008573532104492188,0.00016760826110839844,0.01587390899658203,161988.0,-1.9986309242248534,0.3453638106584549,-0.00014528478701928785,-0.39038483425974846,-6.067238728205363,0.002160892899458607,79.37109485784626,1000.0,162.0,102.1636613419168,55.48135764344433,1000.0,1000.0,0.0,162000
163000,0,67.41112469736302,0.0007510185241699219,0.000141143798828125,0.01636505126953125,162988.0,-1.9986307191848756,0.3143538665771484,0.0001173147344767737,-0.3527435151239236,-5.945973475774129,0.0021712259428265193,76.22259415613864,1000.0,163.0,104.98638859062135,30.775168136567128,1000.0,1000.0,0.0,163000
164000,0,69.80194592521981,0.0007455348968505859,0.0001423358917236328,0.015224218368530273,163988.0,-1.9986044836044312,0.3012105768918991,0.00021480303621501662,-0.34371477862199146,-5.901421825091044,0.0021788159113687775,98.62845665513055,1000.0,164.0,115.58515921550638,27.7630006850432,1000.0,1000.0,0.0,164000
165000,0,70.03753098360032,0.0007755756378173828,0.00014162063598632812,0.015819787979125977,164988.0,-1.998647141456604,0.3423133778572083,-0.0003016558475792408,-0.447116161386172,-6.13816757996877,0.0021834781703849635,102.36664583586573,1000.0,165.0,92.26431011437543,16.5497985327713,1000.0,1000.0,0.0,165000
166000,0,74.0364485697562,0.0006747245788574219,0.000156402587890625,0.015396356582641602,165988.0,-1.9986393928527832,0.34757265865802767,-2.8359063435345888e-05,-0.4091801767547925,-6.01303505897522,0.002180750986250738,49.28346740671666,1000.0,166.0,98.7952218119264,31.295994036608736,1000.0,1000.0,0.0,166000
167000,0,74.05046083095756,0.0007996559143066406,0.00014066696166992188,0.01576709747314453,166988.0,-1.9986457824707031,0.32117332637310025,0.0003028773741486172,-0.3715083176891009,-5.861008961995442,0.002178259329715123,103.16168854805503,1000.0,167.0,106.32807445215033,34.47591219814415,1000.0,1000.0,0.0,167000
168000,0,73.54536617116277,0.0007083415985107422,0.00013756752014160156,0.014901161193847656,167988.0,-1.9986124801635743,0.30372629582881927,4.056005370027075e-05,-0.3556204214692116,-5.981364091237386,0.002176429843530059,105.98924896877347,1000.0,168.0,72.30965237550767,25.626371553426928,1000.0,1000.0,0.0,168000
169000,0,75.39080306056567,0.0006697177886962891,0.00016355514526367188,0.015084028244018555,168988.0,-1.9986637353897094,0.33231544733047486,-9.556337621082396e-05,-0.3826959567765395,-6.043696045875549,0.0021870107545206943,145.67697160105803,1000.0,169.0,88.27275864375228,29.558509220692276,1000.0,1000.0,0.0,169000
170000,0,74.8045662791046,0.0007371902465820312,0.00021886825561523438,0.015541315078735352,169988.0,-1.9986241674423217,0.33286212146282196,-9.158039832376137e-05,-0.38505930453538895,-6.041966080665588,0.0021823189260127642,86.63799030174432,1000.0,170.0,98.15652304405376,35.752082658110915,1000.0,1000.0,0.0,170000
171000,0,74.79666909669862,0.0006680488586425781,0.00018095970153808594,0.015479087829589844,170988.0,-1.9985354948043823,0.29792617082595824,0.00027778423645941075,-0.36818235864241916,-5.872594952583313,0.0021803113631904125,128.0675657726195,1000.0,171.0,102.01957872702937,27.2237986531506,1000.0,1000.0,0.0,171000
172000,0,73.70147898342206,0.0006606578826904297,0.00013518333435058594,0.015186309814453125,171988.0,-1.9986514377593994,0.29831822752952575,0.00016164738614558397,-0.3577219247817993,-5.925954699516296,0.002182974402482311,92.25691968138972,1000.0,172.0,93.01997920757432,32.89893000642851,1000.0,1000.0,0.0,172000
173000,0,74.35802157467316,0.0006983280181884766,0.00016307830810546875,0.015988826751708984,172988.0,-1.998677225112915,0.2759312653541565,1.960840169582904e-05,-0.32117773592472076,-5.991025805473328,0.002183605160098523,135.6451177246513,1000.0,173.0,89.6323088954407,31.935382259631,1000.0,1000.0,0.0,173000
174000,0,74.483571826864,0.0006206035614013672,0.00013780593872070312,0.015007734298706055,173988.0,-1.9985895586013793,0.29973172187805175,2.123405162516671e-05,-0.36252907663583755,-5.9903022448221845,0.0021882053503456214,153.65557894470192,1000.0,174.0,90.74588524517758,28.584510650473852,1000.0,1000.0,0.0,174000
175000,0,73.65716252572722,0.0008151531219482422,0.00013780593872070312,0.01549673080444336,174988.0,-1.9986514043807984,0.3046569776535034,0.00019289170207533365,-0.37892910093069077,-5.912010908126831,0.0021922284116347632,63.550861128185076,1000.0,175.0,106.70572790449543,44.93495846340895,1000.0,1000.0,0.0,175000
176000,0,74.62388303580833,0.0006885528564453125,0.0001385211944580078,0.015224695205688477,175988.0,-1.9986864995956422,0.32505558848381044,-7.985179642370592e-05,-0.405541829764843,-6.036528031031291,0.0021861181400405862,61.65892274597345,1000.0,176.0,129.47638342404275,26.68241247704107,1000.0,1000.0,0.0,176000
177000,0,74.55549022103372,0.0009946823120117188,0.0001971721649169922,0.016072988510131836,176988.0,-1.9986798763275146,0.30068794548511507,1.5878656995482743e-05,-0.34950944036245346,-5.992704709370931,0.0021759000956080854,81.19513738544404,1000.0,177.0,116.72419105154734,31.731462667373687,1000.0,1000.0,0.0,177000
178000,0,73.05627607906088,0.001110076904296875,0.00021266937255859375,0.018550634384155273,177988.0,-1.9986034297943116,0.2973032921552658,-0.0003233244060538709,-0.36777232338984805,-6.147893110911052,0.0021865988577095172,93.13795218616826,1000.0,178.0,108.09995781279936,27.418016227475285,1000.0,1000.0,0.0,178000
179000,0,74.239305818991,0.0008978843688964844,0.00015354156494140625,0.015896320343017578,178988.0,-1.9986768531799317,0.2998233288526535,0.0002655836769918096,-0.3709830517570178,-5.877957979838054,0.0021760306359889605,111.28964414196624,1000.0,179.0,116.0485494824798,34.57882231124859,1000.0,1000.0,0.0,179000
180000,0,73.60556174837917,0.0010981559753417969,0.0001938343048095703,0.01654195785522461,179988.0,-1.9986731338500976,0.31991121590137483,-0.0002901104016928002,-0.40303149819374084,-6.133187214533488,0.0021783319922784963,192.7788098170594,1000.0,180.0,84.4145237288578,35.58569681913769,1000.0,1000.0,0.0,180000
181000,0,74.1141055390359,0.0007145404815673828,0.00014352798461914062,0.01565098762512207,180988.0,-1.9985688304901124,0.3017054742574692,5.1245481396714844e-05,-0.35280968993902206,-5.976507107416789,0.002180633096334835,130.00825713645895,1000.0,181.0,129.73594770246368,30.962333504465786,1000.0,1000.0,0.0,181000
182000,0,67.40219836729446,0.000736236572265625,0.000156402587890625,0.016138553619384766,181988.0,-1.9986549615859985,0.3221069568395615,-0.00030619025649987935,-0.3789908674856027,-6.139698266983032,0.0021918078418821096,182.37158392204725,1000.0,182.0,114.10224353219795,32.96098027145142,1000.0,1000.0,0.0,182000
183000,0,69.6058080957271,0.0007393360137939453,0.0001518726348876953,0.015360355377197266,182988.0,-1.9986321496963502,0.32486334681510926,-0.0006037406419636682,-0.38477535049120587,-6.273297349611918,0.002209202308828632,121.88523313056865,1000.0,183.0,127.72125961418362,16.479486796554497,1000.0,1000.0,0.0,183000
184000,0,69.0095072874286,0.0006644725799560547,0.00013685226440429688,0.015633344650268555,183988.0,-1.9986986541748046,0.33380179703235624,-0.0001854072052083211,-0.3539354478319486,-6.083589235941569,0.002218535247569283,31.141558243961608,1000.0,184.0,130.36288714450842,17.904066475584695,1000.0,1000.0,0.0,184000
185000,0,75.15192345594954,0.0007178783416748047,0.00013637542724609375,0.0157468318939209,184988.0,-1.9986289072036743,0.35157428979873656,8.781169405362259e-05,-0.4127751539150874,-5.960374077161153,0.0022147755953483284,143.7840744698522,1000.0,185.0,116.17976758991502,37.05192521889098,1000.0,1000.0,0.0,185000
186000,0,74.98317738296572,0.0006728172302246094,0.0001666545867919922,0.015642166137695312,185988.0,-1.9986792182922364,0.33893800497055054,0.00018865631591324927,-0.3842579647898674,-5.914665420850118,0.002210308467814078,121.25674428613168,1000.0,186.0,101.5541041710796,36.34968687518347,1000.0,1000.0,0.0,186000
187000,0,75.14896117764256,0.0007612705230712891,0.00018286705017089844,0.015319108963012695,186988.0,-1.9986778783798218,0.33563646495342253,0.0003512783187034074,-0.3995026598374049,-5.8393391370773315,0.0021862389985471964,34.741422191240154,1000.0,187.0,120.4963354338183,49.30321532046859,1000.0,1000.0,0.0,187000
188000,0,75.69595891563021,0.0007357597351074219,0.00015234947204589844,0.015436172485351562,187988.0,-1.9986879348754882,0.3068529379367828,-9.749370716842047e-05,-0.38140001023809117,-6.044784704844157,0.002177070069592446,121.8809591833636,1000.0,188.0,132.99991668594853,36.88213094294795,1000.0,1000.0,0.0,188000
189000,0,74.36598462008722,0.0006949901580810547,0.0001456737518310547,0.015233516693115234,188988.0,-1.9986534166336059,0.3457552576065063,-2.007719710187909e-05,-0.43067561089992523,-6.0092151165008545,0.002179091388825327,132.0919898998432,1000.0,189.0,128.5396426510969,49.42630225650954,1000.0,1000.0,0.0,189000
190000,0,74.64895819391803,0.0006749629974365234,0.00013828277587890625,0.015083074569702148,189988.0,-1.998627896308899,0.34167321741580964,-0.0002444429707490296,-0.39029479523499805,-6.11185626188914,0.002185792002516488,115.71049063806008,1000.0,190.0,123.13500173421019,32.9832300776512,1000.0,1000.0,0.0,190000
191000,0,74.45284497889769,0.0006556510925292969,0.00013136863708496094,0.015236377716064453,190988.0,-1.9985873222351074,0.34805860817432405,-8.956846128664135e-05,-0.4097315768400828,-6.040730913480123,0.0021984195530725024,207.1873597112069,1000.0,191.0,146.13682062391067,19.83328451499587,1000.0,1000.0,0.0,191000
192000,0,74.1295097485435,0.0007255077362060547,0.0001437664031982422,0.015143632888793945,191988.0,-1.9985924386978149,0.35179302930831907,-6.021994310382676e-05,-0.4076414753993352,-6.027221918106079,0.002212487976066768,98.14467474877327,1000.0,192.0,135.8927854397517,14.808810556618814,1000.0,1000.0,0.0,192000
193000,0,74.63562163728079,0.0006198883056640625,0.00018024444580078125,0.01528787612915039,192988.0,-1.998650736808777,0.36471356213092804,-0.00044838899217817624,-0.3946053385734558,-6.201420823733012,0.0022262702113948762,121.10645246666033,1000.0,193.0,149.3391161921755,47.8655530909391,1000.0,1000.0,0.0,193000
194000,0,74.52560445941403,0.0006542205810546875,0.00013828277587890625,0.01569342613220215,193988.0,-1.9985651540756226,0.34401634871959685,-0.00011736535028224655,-0.39590221643447876,-6.052399595578511,0.002239813155028969,161.57483410726462,1000.0,194.0,154.17222093702162,24.170591873050874,1000.0,1000.0,0.0,194000
195000,0,75.125755770508,0.0009677410125732422,0.0001952648162841797,0.016768455505371094,194988.0,-1.998654294013977,0.3469690275192261,-0.0001881421091335748,-0.3909279716511567,-6.083906849225362,0.0022423777845688164,165.28823990801317,1000.0,195.0,166.57808976247173,51.76159048005692,1000.0,1000.0,0.0,195000
196000,0,73.90963871132361,0.0010046958923339844,0.00018143653869628906,0.016241788864135742,195988.0,-1.9986582326889037,0.33328163623809814,0.00027982937566169613,-0.3935721566279729,-5.875280857086182,0.002243476725804309,166.08050471917835,1000.0,196.0,112.65870274792158,38.469186997234424,1000.0,1000.0,0.0,196000
197000,0,74.40070443171844,0.0007281303405761719,0.00016260147094726562,0.01539301872253418,196988.0,-1.9985601282119752,0.35825027465820314,-0.0003858605665906604,-0.4351646403471629,-6.171481768290202,0.002250248217023909,46.861297318183006,1000.0,197.0,157.41551613069595,28.20040484799457,1000.0,1000.0,0.0,197000
198000,0,74.35591244437006,0.0007927417755126953,0.0001709461212158203,0.01576519012451172,197988.0,-1.998673448562622,0.33034122467041016,0.00025300041064231965,-0.3794047509630521,-5.887498100598653,0.0022483033050472536,126.08642186829171,1000.0,198.0,123.70683195480149,16.013723848887388,1000.0,1000.0,0.0,198000
199000,0,74.02954895727213,0.0006952285766601562,0.00017142295837402344,0.01635265350341797,198988.0,-1.9985793876647948,0.3273805922269821,-9.381904722734664e-05,-0.3922783186038335,-6.041669646898906,0.0022523682952548065,159.4713685965241,1000.0,199.0,145.65237600728182,16.057600938074977,1000.0,1000.0,0.0,199000
200000,0,68.77621964817463,0.0007581710815429688,0.00014209747314453125,0.015772342681884766,199988.0,-1.998588070869446,0.3306401485204697,-8.621508338061783e-05,-0.38859322170416516,-6.03821341196696,0.0022563825089794896,153.78543250686096,1000.0,200.0,151.9422760936699,53.89252277105602,1000.0,1000.0,0.0,200000
