niicovila/Q-Reps/lightning_research_framework/results/XTD3_TEST/td3_4/log.csv
time/steps,time/epochs,time/steps_per_second,time/dataset,time/preprocess,time/train_step,train/env_steps,train/reward,train/length,train/num_ep,eval/reward,eval/stddev,eval/length,eval/discount,eval/early_termination,step,train/q_loss,train/target_q,train/actor_loss
3000,0,115.81605744766979,0.0004947185516357422,0.00015783309936523438,0.011640310287475586,2975.5,9.61493906777466,1000.0,3.0,0.03245451193489166,0.013681689548842245,1000.0,1000.0,0.0,3000,0.00013530462514609097,0.40615727365016935,-0.7221006345748902
4000,0,120.6811980006468,0.0005137920379638672,0.00019073486328125,0.013405084609985352,3975.5,0.8110113489738159,1000.0,4.0,8.765585921244263,2.367739445960181,1000.0,1000.0,0.0,4000,4.4058407656848434e-05,0.6820145928859711,-0.7491220831871033
5000,0,110.86111752805556,0.0004324913024902344,0.0001227855682373047,0.00922393798828125,4975.5,34.91455750044216,1000.0,5.0,1.7670629075883397,0.17171620511050356,1000.0,1000.0,0.0,5000,2.7573308907449247e-05,0.617014251947403,-0.619575788974762
6000,0,83.88782486675723,0.0004696846008300781,0.000133514404296875,0.010983943939208984,5975.5,7.399854736392152,1000.0,6.0,1.246154109193204,0.21822792898865453,1000.0,1000.0,0.0,6000,1.9233436323702334e-05,0.7784821069240571,-0.8609466361999512
7000,0,119.20201258891188,0.0005016326904296875,0.000133514404296875,0.011012077331542969,6975.5,2.724561265408656,1000.0,7.0,1.1788542050836046,0.06041754755995161,1000.0,1000.0,0.0,7000,1.9767936319112778e-05,0.9486511600017548,-1.0345218801498413
8000,0,112.20698950188951,0.0003724098205566406,0.000148773193359375,0.008798599243164062,7975.5,2.9028054644194263,1000.0,8.0,1.2291138565393538,0.06708290550934638,1000.0,1000.0,0.0,8000,2.0042289979755877e-05,1.0942433285713196,-1.167596755027771
9000,0,109.54405916726432,0.0004029273986816406,0.0001220703125,0.009441614151000977,8975.5,2.89986124007091,1000.0,9.0,1.2410350232641618,0.15303011303362465,1000.0,1000.0,0.0,9000,1.6670082695782186e-05,1.178227925300598,-1.2270090532302858
10000,0,108.32503004936515,0.0005397796630859375,0.0001575946807861328,0.011603832244873047,9975.5,2.9300836756945388,1000.0,10.0,3.9815555304720163,2.381890285043402,1000.0,1000.0,0.0,10000,1.4295610599219799e-05,1.196390416622162,-1.2283834028244018
11000,0,107.52574380682249,0.0005192756652832031,0.00014066696166992188,0.012659549713134766,10975.5,3.1873861192278037,1000.0,11.0,2.4623870405959885,0.35902159175691806,1000.0,1000.0,0.0,11000,1.7369487322866918e-05,1.1880241322517395,-1.2139707231521606
12000,0,110.33402955706492,0.0004975795745849609,0.0001399517059326172,0.010948896408081055,11975.5,4.001204623953842,1000.0,12.0,3.5017816005287408,1.5125216807074264,1000.0,1000.0,0.0,12000,1.6102129593491553e-05,1.271770055294037,-1.31980073928833
13000,0,117.96120218333341,0.0005249977111816406,0.00016498565673828125,0.011906862258911133,12975.5,2.388493520377499,1000.0,13.0,0.3875807465219921,0.02728233625942099,1000.0,1000.0,0.0,13000,1.7039370723068713e-05,1.3208304142951965,-1.359820718765259
14000,0,110.0216879681616,0.00046443939208984375,0.00012135505676269531,0.009406805038452148,13975.5,7.4149745444701605,1000.0,14.0,14.300872357331759,0.5333694030182713,1000.0,1000.0,0.0,14000,2.5127241387963293e-05,1.357834415435791,-1.3810764980316161
15000,0,115.99657732572321,0.00041031837463378906,0.00012135505676269531,0.009741544723510742,14975.5,16.08971951412382,1000.0,15.0,15.466478228282247,0.6513187805890417,1000.0,1000.0,0.0,15000,1.9008824601769447e-05,1.364947156906128,-1.3764158058166505
16000,0,89.07142653881291,0.0004050731658935547,0.00014543533325195312,0.00910043716430664,15975.5,32.34595839524598,1000.0,16.0,32.72156728044845,2.3826071163373763,1000.0,1000.0,0.0,16000,2.5630453601479532e-05,1.3725653743743897,-1.3909386825561523
17000,0,116.75291206977276,0.0004067420959472656,0.00011897087097167969,0.009697675704956055,16975.5,30.62341197570653,1000.0,17.0,22.375059174342546,2.820500434118458,1000.0,1000.0,0.0,17000,2.947300672531128e-05,1.3709545278549193,-1.3836719655990601
18000,0,116.7410834813598,0.00041604042053222656,0.00011444091796875,0.009772777557373047,17975.5,36.303190949938504,1000.0,18.0,38.54031825075436,1.090925207986339,1000.0,1000.0,0.0,18000,3.088736440986395e-05,1.3714879179000854,-1.4020264673233032
19000,0,113.57370003552644,0.00047016143798828125,0.000186920166015625,0.010309934616088867,18975.5,35.70932862293029,1000.0,19.0,41.38363207351563,1.0766180940626215,1000.0,1000.0,0.0,19000,3.429756034165621e-05,1.3784846925735474,-1.4132329177856446
20000,0,115.01106428252173,0.0005679130554199219,0.0001571178436279297,0.016554832458496094,19975.5,43.842816740325105,1000.0,20.0,39.135820040347184,22.930697597572927,1000.0,1000.0,0.0,20000,0.00011691419407725334,1.4089644956588745,-1.4879373502731323
21000,0,118.2311378062469,0.0004112720489501953,0.00012040138244628906,0.009652376174926758,20975.5,49.356845366650546,1000.0,21.0,23.06595061661947,9.464095027083836,1000.0,1000.0,0.0,21000,0.00012073392514139414,1.6357221174240113,-1.7527775955200195
22000,0,117.7351796075217,0.00038313865661621094,0.0001277923583984375,0.009142160415649414,21975.5,8.172036977439465,1000.0,22.0,13.793071227814295,0.5663275722851119,1000.0,1000.0,0.0,22000,9.526076726615429e-05,1.8147307991981507,-1.9338693380355836
23000,0,116.38598052937631,0.0005736351013183594,0.0001518726348876953,0.01316690444946289,22975.5,10.690775461316392,1000.0,23.0,19.40848027250312,9.736142134517197,1000.0,1000.0,0.0,23000,0.00010223815217614174,1.9835389399528502,-2.108048229217529
24000,0,117.01414055521055,0.0004138946533203125,0.00014519691467285156,0.009438753128051758,23975.5,7.876384605721421,1000.0,24.0,41.55537635102417,20.82861358525659,1000.0,1000.0,0.0,24000,0.00011684759054332972,2.125515193939209,-2.2401648426055907
25000,0,110.06164474865044,0.00043320655822753906,0.00012183189392089844,0.009558916091918945,24975.5,35.16941952662701,1000.0,25.0,33.0382514602544,15.049428948485621,1000.0,1000.0,0.0,25000,0.0001404437143355608,2.233861107826233,-2.3442016220092774
26000,0,86.57353015240295,0.000476837158203125,0.0001201629638671875,0.010346651077270508,25975.5,29.54104698947674,1000.0,26.0,105.9143495809412,21.130798691639807,1000.0,1000.0,0.0,26000,0.00017581258434802295,2.3525969648361205,-2.459352731704712
27000,0,111.87364369039973,0.0004343986511230469,0.00011348724365234375,0.009482860565185547,26975.5,28.241198999835177,1000.0,27.0,27.94918149641513,14.914665903162813,1000.0,1000.0,0.0,27000,0.0001773018017411232,2.4480618333816526,-2.5711816787719726
28000,0,109.75704471922133,0.00044083595275878906,0.00013113021850585938,0.009290456771850586,27975.5,31.313155161454223,1000.0,28.0,16.889919197768425,9.08653318959635,1000.0,1000.0,0.0,28000,0.00019434370566159486,2.6219207000732423,-2.762906999588013
29000,0,88.73859006842997,0.0004208087921142578,0.0001347064971923828,0.009863615036010742,28975.5,12.425799045850809,1000.0,29.0,35.56710840543027,18.01032779683293,1000.0,1000.0,0.0,29000,0.00021035034209489822,2.7833220100402833,-2.9571034717559814
30000,0,114.27873926500719,0.0006258487701416016,0.00016045570373535156,0.014527320861816406,29975.5,33.87474893992102,1000.0,30.0,33.991890384695395,32.920900876930475,1000.0,1000.0,0.0,30000,0.0002544198837131262,2.917336931228638,-3.075993900299072
31000,0,118.70615704642903,0.0004658699035644531,0.00012373924255371094,0.009776592254638672,30975.5,55.63964052290222,1000.0,31.0,50.66642260508538,29.3102534675906,1000.0,1000.0,0.0,31000,0.0002598355244845152,3.0378210878372194,-3.2210236549377442
32000,0,114.2079163167703,0.00044989585876464844,0.00012111663818359375,0.008814573287963867,31975.5,54.8278025188588,1000.0,32.0,50.42322810262296,29.141582948677033,1000.0,1000.0,0.0,32000,0.000329909329302609,3.1743016195297242,-3.316877689361572
33000,0,114.17322148761771,0.0006246566772460938,0.00026726722717285156,0.012119054794311523,32975.5,24.563301439970328,1000.0,33.0,29.895710422555975,12.647989294055328,1000.0,1000.0,0.0,33000,0.0003346291743218899,3.273213601112366,-3.423052930831909
34000,0,111.11586791257187,0.0003788471221923828,0.0001766681671142578,0.009549140930175781,33975.5,35.26959775159814,1000.0,34.0,51.92041330801793,18.754278478669335,1000.0,1000.0,0.0,34000,0.0004065038170665503,3.3741084289550782,-3.5601253414154055
35000,0,112.73974274408106,0.0004241466522216797,0.00013756752014160156,0.009308338165283203,34975.5,58.968975898799705,1000.0,35.0,49.00388002689687,14.83249922095468,1000.0,1000.0,0.0,35000,0.00039206999819725753,3.5135676527023314,-3.6870029640197752
36000,0,81.46794835687135,0.0004477500915527344,0.0001246929168701172,0.009566068649291992,35975.5,51.5149183867815,1000.0,36.0,58.88055681958425,40.47339649361469,1000.0,1000.0,0.0,36000,0.00044987247325479986,3.616253147125244,-3.7884655380249024
37000,0,111.97907739558855,0.0004763603210449219,0.00012373924255371094,0.00951385498046875,36975.5,71.60962975556367,1000.0,37.0,57.23682008296631,45.41770877742135,1000.0,1000.0,0.0,37000,0.0005051004327833652,3.7339424085617066,-3.8879976749420164
38000,0,117.3874153243005,0.00040340423583984375,0.00012087821960449219,0.009291410446166992,37975.5,68.00700217414905,1000.0,38.0,55.71498469984797,44.33515383661963,1000.0,1000.0,0.0,38000,0.0005759353935718537,3.832318172454834,-3.9691622638702393
39000,0,96.45750198236387,0.0004184246063232422,0.00017213821411132812,0.009625911712646484,38975.5,21.4401018087733,1000.0,39.0,37.93636423135662,41.49345428193829,1000.0,1000.0,0.0,39000,0.0005653363652527333,3.828473381996155,-3.9876787567138674
40000,0,111.18190469374177,0.0006115436553955078,0.0001842975616455078,0.013819217681884766,39975.5,28.03244291241611,1000.0,40.0,60.536461415911575,30.756251720558055,1000.0,1000.0,0.0,40000,0.0005966503638774156,3.900064477920532,-4.085140790939331
41000,0,108.23317630252309,0.0005011558532714844,0.00013256072998046875,0.012405633926391602,40975.5,36.684189346296215,1000.0,41.0,29.35363186334161,2.213685233688982,1000.0,1000.0,0.0,41000,0.0010341146495193242,4.105101923942566,-4.638671340942383
42000,0,107.6166211240683,0.0004191398620605469,0.00018930435180664062,0.008839130401611328,41975.5,46.472022749050886,1000.0,42.0,46.14708335565804,22.85961453189846,1000.0,1000.0,0.0,42000,0.0008961719879880547,4.6672962474823,-5.047534732818604
43000,0,89.43288648561054,0.0007925033569335938,0.0001556873321533203,0.012903451919555664,42975.5,63.655005900954336,1000.0,43.0,50.122787647877956,5.912225154970627,1000.0,1000.0,0.0,43000,0.0008011877303943038,5.15845368385315,-5.586076869964599
44000,0,110.86387199296274,0.000423431396484375,0.00011920928955078125,0.009390830993652344,43975.5,18.525373973839653,1000.0,44.0,33.406035765164106,3.8286198933038436,1000.0,1000.0,0.0,44000,0.0008541608415544033,5.689940156936646,-6.119534492492676
45000,0,116.42319679257078,0.0004336833953857422,0.0001571178436279297,0.009310245513916016,44975.5,70.78074938760352,1000.0,45.0,1.6957035096590343,3.767043529450206,1000.0,1000.0,0.0,45000,0.0007396428380161523,6.1219136428833005,-6.464618148803711
46000,0,89.21720027192895,0.000415802001953125,0.00016307830810546875,0.009544610977172852,45975.5,40.3833989256821,1000.0,46.0,5.293402006528703,5.221017042172747,1000.0,1000.0,0.0,46000,0.0007807258050888776,6.412901220321655,-6.727481918334961
47000,0,121.32048675087715,0.0004131793975830078,0.00011801719665527344,0.008870363235473633,46975.5,6.159895796827071,1000.0,47.0,105.3826132543634,34.29465279791353,1000.0,1000.0,0.0,47000,0.0006237549334764481,6.558740358352662,-6.776978588104248
48000,0,116.38662644210171,0.00039315223693847656,0.0001575946807861328,0.008944034576416016,47975.5,43.80454708716834,1000.0,48.0,79.6466919146382,37.30978792105923,1000.0,1000.0,0.0,48000,0.0007595497835427523,6.517378559112549,-6.724972743988037
49000,0,110.9120679661354,0.0004048347473144531,0.00013017654418945312,0.009572029113769531,48975.5,16.67754161828286,1000.0,49.0,48.413509348278545,18.58672442175542,1000.0,1000.0,0.0,49000,0.0006802955595776439,6.431774024963379,-6.575930767059326
50000,0,114.96636230473032,0.0005044937133789062,0.0001552104949951172,0.012197017669677734,49975.5,54.19806501647828,1000.0,50.0,110.50197321722695,42.13686302381431,1000.0,1000.0,0.0,50000,0.0009109099954366684,6.357171478271485,-6.4961441802978515
51000,0,116.59816025108208,0.00044083595275878906,0.000125885009765625,0.009377002716064453,50975.5,183.4193797383979,1000.0,51.0,33.74223583620659,28.287080278471976,1000.0,1000.0,0.0,51000,0.0008487847121432424,6.331602745056152,-6.512566013336182
52000,0,114.18304333196491,0.0004317760467529297,0.00012111663818359375,0.009707450866699219,51975.5,32.414989268962756,1000.0,52.0,32.00793625729791,19.732156032842095,1000.0,1000.0,0.0,52000,0.0010057412646710872,6.268118181228638,-6.472771835327149
53000,0,89.76281563446197,0.0004863739013671875,0.00013256072998046875,0.010941028594970703,52975.5,39.60396520839405,1000.0,53.0,134.19974993028205,64.19073078279366,1000.0,1000.0,0.0,53000,0.001029487217310816,6.402644300460816,-6.63253496170044
54000,0,112.4825683428233,0.0004582405090332031,0.00012040138244628906,0.008695363998413086,53975.5,162.0773199577445,1000.0,54.0,101.88377085775646,58.297401187342984,1000.0,1000.0,0.0,54000,0.0010574856586754323,6.547674989700317,-6.716466293334961
55000,0,107.86104472077227,0.00042629241943359375,0.00011277198791503906,0.009356498718261719,54975.5,56.266518843102936,1000.0,55.0,80.38571153972993,43.83915681142762,1000.0,1000.0,0.0,55000,0.0010700605111196638,6.646824293136596,-6.86164665222168
56000,0,83.89064365101461,0.0004355907440185547,0.000125885009765625,0.009654998779296875,55975.5,173.7749971719203,1000.0,56.0,62.9836220245193,24.694130946340696,1000.0,1000.0,0.0,56000,0.0010700180055573582,6.726926155090332,-6.962959270477295
57000,0,117.45671162966796,0.0004496574401855469,0.0001201629638671875,0.00922083854675293,56975.5,33.78498910290019,1000.0,57.0,83.67833782872353,44.08950339933201,1000.0,1000.0,0.0,57000,0.0010930076520889998,6.708364706039429,-6.922294044494629
58000,0,112.50501595449055,0.0004417896270751953,0.0001285076141357422,0.009641170501708984,57975.5,102.18062207214619,1000.0,58.0,60.09754245457948,40.616319048183044,1000.0,1000.0,0.0,58000,0.0012030298775061966,6.716942729949952,-7.01690637588501
59000,0,117.13865038350771,0.0004036426544189453,0.00014972686767578125,0.009445667266845703,58975.5,99.03529901609528,1000.0,59.0,43.839853576259024,47.89715568926384,1000.0,1000.0,0.0,59000,0.0014305755868554116,6.752369899749755,-7.024695262908936
60000,0,114.02671631208759,0.0013051033020019531,0.00020122528076171875,0.014707088470458984,59975.5,30.31459324850658,1000.0,60.0,85.21233003382153,45.892689634816044,1000.0,1000.0,0.0,60000,0.001272828485816717,6.796499357223511,-7.034252681732178
61000,0,113.12683204175626,0.0004284381866455078,0.0001220703125,0.009702205657958984,60975.5,138.92381265802007,1000.0,61.0,88.56668097237142,48.06058927516638,1000.0,1000.0,0.0,61000,0.0012616311851888894,6.831038827896118,-7.147138328552246
62000,0,114.4385686229678,0.0005602836608886719,0.0001804828643798828,0.010465860366821289,61975.5,153.07979168281568,1000.0,62.0,69.98875781204332,36.870084201265016,1000.0,1000.0,0.0,62000,0.001359207914210856,6.922642974853516,-7.157409496307373
63000,0,110.69183452215945,0.0005695819854736328,0.00014925003051757812,0.012677431106567383,62975.5,103.68415434915077,1000.0,63.0,90.59636055978609,61.05886209099436,1000.0,1000.0,0.0,63000,0.00147236542776227,6.98849775314331,-7.285339984893799
64000,0,117.02073521862376,0.00044465065002441406,0.0001220703125,0.009798049926757812,63975.5,249.42022317524024,1000.0,64.0,74.99269587226044,72.88856701595601,1000.0,1000.0,0.0,64000,0.001595446839928627,7.154711933135986,-7.402964630126953
65000,0,112.58619171657608,0.0004086494445800781,0.00011444091796875,0.009375810623168945,64975.5,52.752688200840836,1000.0,65.0,29.493454612797972,22.993566421804637,1000.0,1000.0,0.0,65000,0.0019234122242778539,7.146063108444213,-7.403420543670654
66000,0,83.5288105714239,0.0005893707275390625,0.00020074844360351562,0.014056921005249023,65975.5,200.71141499403245,1000.0,66.0,40.62434675022662,24.760583234975822,1000.0,1000.0,0.0,66000,0.0016255000000819564,7.247873411178589,-7.516013679504394
67000,0,115.05763163049042,0.0004620552062988281,0.0001533031463623047,0.010288476943969727,66975.5,50.10579877360024,1000.0,67.0,55.66787839570785,26.156103363486228,1000.0,1000.0,0.0,67000,0.0018300365656614304,7.336729936599731,-7.700148944854736
68000,0,109.13435718954385,0.00038313865661621094,0.00011372566223144531,0.0092315673828125,67975.5,161.2365835893863,1000.0,68.0,58.779996359065045,45.70529885317765,1000.0,1000.0,0.0,68000,0.0018530755955725908,7.445961027145386,-7.762057723999024
69000,0,90.02746561646529,0.0004382133483886719,0.00015091896057128906,0.009559869766235352,68975.5,30.16234970787026,1000.0,69.0,64.34556672885387,38.95098521538603,1000.0,1000.0,0.0,69000,0.0017802669387310744,7.388325128555298,-7.647975559234619
70000,0,110.72450392734633,0.0006310939788818359,0.0001819133758544922,0.01407766342163086,69975.5,204.10562962604575,1000.0,70.0,61.581242443668785,42.56379801132651,1000.0,1000.0,0.0,70000,0.0019073718460276723,7.458542079925537,-7.811915493011474
71000,0,115.29338031963144,0.00045490264892578125,0.0001418590545654297,0.009197473526000977,70975.5,109.15079471188137,1000.0,71.0,51.99240593401305,34.59495507670421,1000.0,1000.0,0.0,71000,0.0019792433269321917,7.504539709091187,-7.8538788795471195
72000,0,117.88753209068531,0.0004551410675048828,0.00012040138244628906,0.010080814361572266,71975.5,249.97314243439172,1000.0,72.0,81.05686777886216,64.594932056663,1000.0,1000.0,0.0,72000,0.0020934233209118245,7.680519809722901,-8.184511585235596
73000,0,110.6009992922471,0.0012607574462890625,0.0005910396575927734,0.018413066864013672,72975.5,206.48814771264585,1000.0,73.0,60.79780973282707,44.87903961454867,1000.0,1000.0,0.0,73000,0.0025235296646133067,7.89386664390564,-8.30357120513916
74000,0,111.51166852860463,0.0004837512969970703,0.00013589859008789062,0.011191129684448242,73975.5,131.1397570586859,1000.0,74.0,97.37184697004666,51.98009574755429,1000.0,1000.0,0.0,74000,0.0023870050115510823,7.929378252029419,-8.35948652267456
75000,0,107.56059782329952,0.0005879402160644531,0.00015473365783691406,0.010862588882446289,74975.5,187.5210420540386,1000.0,75.0,59.25291184951027,53.5555340476708,1000.0,1000.0,0.0,75000,0.0027369257854297758,8.240673112869263,-8.645600891113281
76000,0,112.75883724331347,0.0006532669067382812,0.0001647472381591797,0.012415409088134766,75975.5,94.27971001499095,1000.0,76.0,78.68178175168707,46.387816004128524,1000.0,1000.0,0.0,76000,0.0025931329373270274,8.280414094924927,-8.578400192260743
77000,0,112.26267025538576,0.0004017353057861328,0.00011444091796875,0.009037017822265625,76975.5,124.02061572318271,1000.0,77.0,94.50877865387258,68.03148690140414,1000.0,1000.0,0.0,77000,0.0025333672855049373,8.345589447021485,-8.696145973205567
78000,0,109.96982210511136,0.0006914138793945312,0.00022411346435546875,0.011378288269042969,77975.5,143.60752082141744,1000.0,78.0,102.35257471207962,63.0140346320887,1000.0,1000.0,0.0,78000,0.0023725617257878183,8.573750524520873,-8.932174224853515
79000,0,81.49935508642308,0.0004150867462158203,0.0001125335693359375,0.008868932723999023,78975.5,169.2446247854698,1000.0,79.0,65.60738493537883,73.43050578669269,1000.0,1000.0,0.0,79000,0.0027333650924265384,8.790419464111329,-9.143688926696777
80000,0,111.07167125591928,0.0004138946533203125,0.00015544891357421875,0.009470224380493164,79975.5,200.60211649906242,1000.0,80.0,37.08022049356251,30.219182478823186,1000.0,1000.0,0.0,80000,0.002824638048186898,8.876519260406495,-9.276767616271973
81000,0,108.5364988984111,0.00045561790466308594,0.00015735626220703125,0.009360074996948242,80975.5,21.00530818296312,1000.0,81.0,56.810357895801815,46.404679502313755,1000.0,1000.0,0.0,81000,0.0026976865297183394,8.815141582489014,-9.171453895568847
82000,0,81.82481472724308,0.000415802001953125,0.00013136863708496094,0.009754180908203125,81975.5,8.097367503039939,1000.0,82.0,134.35980129984716,88.39511755265042,1000.0,1000.0,0.0,82000,0.002552750245667994,8.812366333007812,-9.129795227050781
83000,0,108.20670574965766,0.0004093647003173828,0.00012111663818359375,0.009751319885253906,82975.5,62.021365882825386,1000.0,83.0,118.98542219613891,65.97023362713469,1000.0,1000.0,0.0,83000,0.0029280779929831626,8.969538631439208,-9.205578422546386
84000,0,112.3951563717593,0.0004665851593017578,0.00011372566223144531,0.00921320915222168,83975.5,90.62607348130518,1000.0,84.0,65.45886240083885,38.02143291129168,1000.0,1000.0,0.0,84000,0.002824038602411747,9.069844493865967,-9.400199584960937
85000,0,114.26006036765428,0.0004456043243408203,0.0001666545867919922,0.010023117065429688,84975.5,56.18107974329079,1000.0,85.0,99.13688483279,33.76898535381632,1000.0,1000.0,0.0,85000,0.002842915700748563,9.032418270111084,-9.44939395904541
86000,0,115.6919804292264,0.0007100105285644531,0.00020742416381835938,0.015166521072387695,85975.5,131.0482605967797,1000.0,86.0,89.27348715659589,48.89727720694032,1000.0,1000.0,0.0,86000,0.003304526307620108,9.05695920944214,-9.335827255249024
87000,0,108.43873500414436,0.000431060791015625,0.00011968612670898438,0.009711503982543945,86975.5,254.6965353763014,1000.0,87.0,119.93854325027787,44.902780615157035,1000.0,1000.0,0.0,87000,0.0030437617795541884,9.206440143585205,-9.543058776855469
88000,0,112.04578531083105,0.0004703998565673828,0.0001304149627685547,0.010787487030029297,87975.5,183.18964989601648,1000.0,88.0,144.56515717666338,81.813801227127,1000.0,1000.0,0.0,88000,0.0029910591477528216,9.276191425323486,-9.736224403381348
89000,0,108.56515430199012,0.0007152557373046875,0.0001544952392578125,0.014233827590942383,88975.5,236.4740490777905,1000.0,89.0,137.15903957768606,82.45965785733519,1000.0,1000.0,0.0,89000,0.0031400553323328497,9.498317222595215,-9.909208183288575
90000,0,112.35023732736175,0.00041365623474121094,0.00011944770812988281,0.009601116180419922,89975.5,46.93688109429003,1000.0,90.0,59.34827975319848,28.43273576909738,1000.0,1000.0,0.0,90000,0.0030513459211215376,9.354537277221679,-9.633247604370117
91000,0,103.50918583611296,0.0004584789276123047,0.00012755393981933594,0.009893655776977539,90975.5,51.44349249443102,1000.0,91.0,133.98562774341625,50.610814385148785,1000.0,1000.0,0.0,91000,0.00313675575889647,9.3542866897583,-9.738030700683593
92000,0,104.44207719587621,0.0007078647613525391,0.00020956993103027344,0.013948678970336914,91975.5,188.75238005326688,1000.0,92.0,131.2239782031695,83.64860125405737,1000.0,1000.0,0.0,92000,0.0030385399516671898,9.576685848236083,-9.956071586608887
93000,0,109.65082117127032,0.0004763603210449219,0.00012087821960449219,0.009377002716064453,92975.5,227.8694960278419,1000.0,93.0,165.58049142216592,79.09877402072117,1000.0,1000.0,0.0,93000,0.003155300300568342,9.632123546600342,-9.855679512023926
94000,0,112.30818087321984,0.0003857612609863281,0.00011324882507324219,0.013110876083374023,93975.5,70.13287690922188,1000.0,94.0,221.11758788359984,78.8828155139134,1000.0,1000.0,0.0,94000,0.003643798059783876,9.517338237762452,-9.823720779418945
95000,0,90.72712280455843,0.0004737377166748047,0.00012421607971191406,0.009669065475463867,94975.5,152.83182330325158,1000.0,95.0,201.52709941675735,121.2781523073712,1000.0,1000.0,0.0,95000,0.003328798315487802,9.596187133789062,-9.963221817016601
96000,0,109.68609143087872,0.0004985332489013672,0.00012612342834472656,0.010267496109008789,95975.5,227.61933230283344,1000.0,96.0,62.40081692846045,64.49291237102338,1000.0,1000.0,0.0,96000,0.0034318238496780394,9.76611394882202,-10.04419605255127
97000,0,110.66718451848224,0.0005996227264404297,0.00015854835510253906,0.010044336318969727,96975.5,46.710589210618195,1000.0,97.0,63.68578875604019,21.510517705198794,1000.0,1000.0,0.0,97000,0.0032476328406482935,9.533403396606445,-9.95050277709961
98000,0,81.36828488708204,0.00047850608825683594,0.00013589859008789062,0.00933384895324707,97975.5,205.08727407607782,1000.0,98.0,68.13996917335564,25.700171536392602,1000.0,1000.0,0.0,98000,0.003379845847375691,9.846304798126221,-10.213515663146973
99000,0,110.29526695620801,0.00044608116149902344,0.00013828277587890625,0.009820222854614258,98975.5,59.38216904784387,1000.0,99.0,81.104013491749,55.80614434971437,1000.0,1000.0,0.0,99000,0.00324671050067991,9.700332088470459,-10.06570297241211
100000,0,110.69832011507145,0.0004954338073730469,0.00013971328735351562,0.010366201400756836,99975.5,162.60358001864523,1000.0,100.0,43.70327021570841,35.550430285290346,1000.0,1000.0,0.0,100000,0.003364939973689616,9.84991792678833,-10.204244422912598
101000,0,85.34395965643509,0.00042247772216796875,0.00012183189392089844,0.009773731231689453,100975.5,151.0562570593842,1000.0,101.0,133.2402532505179,71.39283191849921,1000.0,1000.0,0.0,101000,0.0031959617137908933,9.859776039123535,-10.200071907043457
102000,0,113.58255775663356,0.0004646778106689453,0.00012183189392089844,0.010344505310058594,101975.5,150.35820048928935,1000.0,102.0,105.86180911067713,68.6964879507282,1000.0,1000.0,0.0,102000,0.0033188571874052286,9.967464046478272,-10.335383224487305
103000,0,109.11612975397318,0.0004544258117675781,0.00013184547424316406,0.009852409362792969,102975.5,70.57191530465244,1000.0,103.0,86.40582896846261,48.855377330398305,1000.0,1000.0,0.0,103000,0.0031813485315069557,9.968780364990234,-10.20461368560791
104000,0,83.97899435935919,0.00043702125549316406,0.00012612342834472656,0.010029077529907227,103975.5,138.95426755339315,1000.0,104.0,77.5800603238225,56.0910122513318,1000.0,1000.0,0.0,104000,0.0033480744250118733,10.05450958251953,-10.306505813598633
105000,0,113.86661251562363,0.0004165172576904297,0.00011587142944335938,0.009819507598876953,104975.5,52.44452373720364,1000.0,105.0,96.25035623865398,70.26430087564654,1000.0,1000.0,0.0,105000,0.0032353113545104863,10.094780406951905,-10.261258811950684
106000,0,111.12069577602405,0.00047326087951660156,0.00012159347534179688,0.009648561477661133,105975.5,298.6089679348741,1000.0,106.0,134.77091522444675,81.78494387045957,1000.0,1000.0,0.0,106000,0.0032095948420464994,10.309234066009521,-10.685122299194337
107000,0,89.35515139636598,0.0004794597625732422,0.00011491775512695312,0.010581493377685547,106975.5,271.7369608216473,1000.0,107.0,114.21795497790652,102.71061550430335,1000.0,1000.0,0.0,107000,0.003129838132299483,10.263126316070556,-10.520934600830078
108000,0,107.97727956107869,0.00045013427734375,0.00011992454528808594,0.010236501693725586,107975.5,366.38746470344967,1000.0,108.0,104.98579563066546,78.30774347203938,1000.0,1000.0,0.0,108000,0.003232742119580507,10.242610092163085,-10.47203987121582
109000,0,105.99915793134159,0.0004658699035644531,0.00012159347534179688,0.009759664535522461,108975.5,72.69754421817748,1000.0,109.0,163.5568257918288,138.577223045028,1000.0,1000.0,0.0,109000,0.0036564156552776695,10.40863712310791,-10.837240257263183
110000,0,81.94311051788824,0.000701904296875,0.00021505355834960938,0.01643538475036621,109975.5,19.263981159869605,1000.0,110.0,272.182828669476,121.26681057952487,1000.0,1000.0,0.0,110000,0.0034014352597296236,10.238373012542725,-10.502034797668458
111000,0,108.76464352469407,0.00043082237243652344,0.00012373924255371094,0.010309457778930664,110975.5,109.72342712125403,1000.0,111.0,228.3508017086368,119.44820368022376,1000.0,1000.0,0.0,111000,0.0033749963250011205,10.284572315216064,-10.67434383392334
112000,0,110.05269236965579,0.0004467964172363281,0.00017881393432617188,0.009541511535644531,111975.5,241.62205306880895,1000.0,112.0,209.20143202030562,119.6916390191086,1000.0,1000.0,0.0,112000,0.003510013371706009,10.49515760421753,-10.979925651550293
113000,0,82.77843827315458,0.0004210472106933594,0.00011610984802246094,0.00979471206665039,112975.5,156.65435840801632,1000.0,113.0,300.6313040064776,103.21621279204656,1000.0,1000.0,0.0,113000,0.0034128138422966003,10.281147174835205,-10.686650199890137
114000,0,110.60309919382144,0.00040841102600097656,0.00011873245239257812,0.009049177169799805,113975.5,378.09427602207427,1000.0,114.0,290.16013032971875,100.95876724730526,1000.0,1000.0,0.0,114000,0.003352706730365753,10.496244850158691,-10.94447437286377
115000,0,114.58738690301539,0.00044345855712890625,0.00012350082397460938,0.012708902359008789,114975.5,90.34064481984305,1000.0,115.0,219.5265827207711,131.99503213923938,1000.0,1000.0,0.0,115000,0.0033703062171116472,10.364395332336425,-10.791800003051758
116000,0,84.96369149193045,0.00047969818115234375,0.00013780593872070312,0.010064840316772461,115975.5,259.8905110390583,1000.0,116.0,213.23917636471396,111.6568877320555,1000.0,1000.0,0.0,116000,0.0036555441096425057,10.416274662017821,-10.868300514221191
117000,0,110.71842443843641,0.00041222572326660156,0.00013208389282226562,0.010056018829345703,116975.5,369.79573902778566,1000.0,117.0,271.3015706766437,131.3177959634012,1000.0,1000.0,0.0,117000,0.0038506570924073456,10.842631874084473,-11.204091911315919
118000,0,113.03853811930873,0.0004298686981201172,0.00013971328735351562,0.009429216384887695,117975.5,61.22222189304297,1000.0,118.0,378.86504565862003,47.61009268061827,1000.0,1000.0,0.0,118000,0.0035337841836735606,10.81406753540039,-11.173843612670899
119000,0,105.97591079870331,0.00046253204345703125,0.00012636184692382812,0.0096893310546875,118975.5,418.5012835426144,1000.0,119.0,279.4726274732172,145.78911917722226,1000.0,1000.0,0.0,119000,0.004096501069143415,10.98430908203125,-11.37648696899414
120000,0,108.66089429154553,0.0006377696990966797,0.00017189979553222656,0.014518260955810547,119975.5,242.00713148710977,1000.0,120.0,363.79419030027304,191.09074968526716,1000.0,1000.0,0.0,120000,0.003761112350039184,11.044878807067871,-11.414855880737305
121000,0,109.68482933921904,0.0005016326904296875,0.00013017654418945312,0.009537935256958008,120975.5,159.1067522608147,1000.0,121.0,224.74785379239606,111.45587777673435,1000.0,1000.0,0.0,121000,0.003997636353597045,11.02973825454712,-11.2779052734375
122000,0,92.82238835895981,0.0004525184631347656,0.00012493133544921875,0.010019302368164062,121975.5,103.95546150480943,1000.0,122.0,229.29177712822866,109.21441593281979,1000.0,1000.0,0.0,122000,0.004137318087741732,10.956244430541993,-11.253856697082519
123000,0,110.30553523235858,0.0004086494445800781,0.0001704692840576172,0.009712934494018555,122975.5,178.27812203449733,1000.0,123.0,142.1087923120032,77.01756565340987,1000.0,1000.0,0.0,123000,0.004224756620824337,10.985156517028809,-11.28112922668457
124000,0,106.95651464336132,0.0005147457122802734,0.00013709068298339844,0.009644508361816406,123975.5,362.8260175176937,1000.0,124.0,244.5305895751128,143.2686506540987,1000.0,1000.0,0.0,124000,0.004145397031679749,11.173996124267578,-11.519907608032227
125000,0,98.66294813819528,0.0004127025604248047,0.00013828277587890625,0.009516239166259766,124975.5,261.14168239697796,1000.0,125.0,186.22635947870728,126.01698695225247,1000.0,1000.0,0.0,125000,0.004227423169650138,11.014776363372803,-11.424566879272462
126000,0,114.03459070421724,0.0004138946533203125,0.00013017654418945312,0.009572029113769531,125975.5,415.44373176089454,1000.0,126.0,210.70426581174993,122.61132071650445,1000.0,1000.0,0.0,126000,0.0048452527541667225,11.415518798828124,-11.89448585510254
127000,0,114.28322310915028,0.00043272972106933594,0.00016427040100097656,0.009318351745605469,126975.5,224.78151638206052,1000.0,127.0,276.71529181589915,110.63249122661121,1000.0,1000.0,0.0,127000,0.00408434443641454,11.3446435546875,-11.551613540649415
128000,0,111.22394753283176,0.0004508495330810547,0.00011992454528808594,0.009441375732421875,127975.5,135.79830734118534,1000.0,128.0,357.7121806500348,118.61335311763791,1000.0,1000.0,0.0,128000,0.004781569433398545,11.364297599792481,-11.715460243225097
129000,0,111.0520265128749,0.0006394386291503906,0.00023102760314941406,0.013564586639404297,128975.5,160.34122275839863,1000.0,129.0,303.53543493261657,90.84892840022053,1000.0,1000.0,0.0,129000,0.004858225155621767,11.285808353424072,-11.671028594970704
130000,0,107.47080639284523,0.0005016326904296875,0.00012731552124023438,0.010175466537475586,129975.5,454.6538126096662,1000.0,130.0,343.4934164293635,144.7800845512769,1000.0,1000.0,0.0,130000,0.005252963788807392,11.735211181640626,-12.01006935119629
131000,0,107.90688675949313,0.0005123615264892578,0.00012302398681640625,0.009742975234985352,130975.5,506.1988520662188,1000.0,131.0,469.9930884856234,13.997746181357348,1000.0,1000.0,0.0,131000,0.0049313819268718365,11.793875675201416,-12.150251159667969
132000,0,110.65766624753122,0.0006754398345947266,0.00024080276489257812,0.01369476318359375,131975.5,514.293243977392,1000.0,132.0,535.3161000053182,34.23866913907045,1000.0,1000.0,0.0,132000,0.005035539609380067,12.080627822875977,-12.699264678955078
133000,0,112.62990840420304,0.0004534721374511719,0.0001251697540283203,0.009992361068725586,132975.5,517.2735136273667,1000.0,133.0,477.1713696128283,40.17374682095386,1000.0,1000.0,0.0,133000,0.004887801706790924,12.270634517669677,-12.739467811584472
134000,0,111.13859785794156,0.0004863739013671875,0.0001239776611328125,0.010212898254394531,133975.5,446.0984966762703,1000.0,134.0,526.2089685875642,20.523848928731176,1000.0,1000.0,0.0,134000,0.004930125479586422,12.355949401855469,-12.827803878784179
135000,0,112.05710062981464,0.0006258487701416016,0.0001621246337890625,0.01442861557006836,134975.5,493.73992262587365,1000.0,135.0,227.15448216350055,232.20605284020746,1000.0,1000.0,0.0,135000,0.005097420904785394,12.738633823394775,-13.118889656066894
136000,0,113.80321556250638,0.00048422813415527344,0.00012183189392089844,0.009742021560668945,135975.5,554.4458482732826,1000.0,136.0,426.2630316669729,175.80376585821483,1000.0,1000.0,0.0,136000,0.005381663544103504,13.082642822265624,-13.581295928955079
137000,0,114.37128981503953,0.00042557716369628906,0.00012063980102539062,0.00986170768737793,136975.5,495.1592156378099,1000.0,137.0,522.1773250482712,113.71045964476421,1000.0,1000.0,0.0,137000,0.0053645296115428205,13.505290145874023,-14.005331802368165
138000,0,105.80727318043095,0.0006577968597412109,0.0001552104949951172,0.01282191276550293,137975.5,438.57771293235885,1000.0,138.0,531.6370500962674,18.736758755179324,1000.0,1000.0,0.0,138000,0.005608742395415902,13.670385360717773,-14.164579811096191
139000,0,108.53194913806934,0.0005176067352294922,0.0001327991485595703,0.010476112365722656,138975.5,497.0820185339568,1000.0,139.0,401.1756461147029,139.58101036655378,1000.0,1000.0,0.0,139000,0.00548088651150465,14.138863468170166,-14.795959358215333
140000,0,105.92580881903557,0.0004260540008544922,0.00012040138244628906,0.009860038757324219,139975.5,268.27285797129497,1000.0,140.0,416.2132479796064,139.75637014955888,1000.0,1000.0,0.0,140000,0.00555394820868969,14.164881324768066,-14.528018684387208
141000,0,117.82666296600523,0.0006189346313476562,0.0001556873321533203,0.014687776565551758,140975.5,481.68743454275153,1000.0,141.0,577.0377871168143,45.103949292635555,1000.0,1000.0,0.0,141000,0.005409150952473283,14.456878433227539,-14.885008964538574
142000,0,112.34518166779522,0.0003886222839355469,0.00011348724365234375,0.009495735168457031,141975.5,488.95661459922496,1000.0,142.0,502.2366300824512,110.97026711744893,1000.0,1000.0,0.0,142000,0.005608605584129691,14.403625392913819,-15.034699554443359
143000,0,113.13500986150733,0.0004253387451171875,0.0001201629638671875,0.009296417236328125,142975.5,550.1723877131662,1000.0,143.0,554.9999881427491,46.09008346399455,1000.0,1000.0,0.0,143000,0.0058999634347856045,14.825282306671143,-15.20563934326172
144000,0,76.61598882079478,0.0004589557647705078,0.0001277923583984375,0.009269952774047852,143975.5,493.5372243188492,1000.0,144.0,532.839616007813,67.0433252946569,1000.0,1000.0,0.0,144000,0.005703018885105849,14.91949785232544,-15.284338645935058
145000,0,113.04603286775975,0.0004723072052001953,0.00013947486877441406,0.01065683364868164,144975.5,507.8382038963929,1000.0,145.0,551.2294829154841,85.05396106615328,1000.0,1000.0,0.0,145000,0.005586050972342491,15.125084133148194,-15.755186958312988
146000,0,112.07422762832958,0.000476837158203125,0.00012350082397460938,0.009876251220703125,145975.5,568.14281438307,1000.0,146.0,340.3937411321262,211.20163062512145,1000.0,1000.0,0.0,146000,0.005604460537433624,15.60989652633667,-15.97746379852295
147000,0,78.15357760549875,0.000446319580078125,0.00015401840209960938,0.00969243049621582,146975.5,599.5263719823769,1000.0,147.0,354.77091915762685,280.6491024635251,1000.0,1000.0,0.0,147000,0.006565806157886982,15.864749565124512,-16.37513240814209
148000,0,112.68183202973252,0.0004551410675048828,0.00011849403381347656,0.009419679641723633,147975.5,408.1816331849117,1000.0,148.0,294.0069395554143,120.57317945813384,1000.0,1000.0,0.0,148000,0.006291313180699944,15.764394130706787,-16.21333751678467
149000,0,109.91420290462739,0.00046539306640625,0.00012350082397460938,0.010590076446533203,148975.5,385.71252748959046,1000.0,149.0,591.2017222142051,45.74595668432155,1000.0,1000.0,0.0,149000,0.006219958662986755,15.998179531097412,-16.28105842590332
150000,0,87.31700980277861,0.0004508495330810547,0.00011968612670898438,0.009043455123901367,149975.5,134.58292720973964,1000.0,150.0,465.3058414819758,125.78482907549032,1000.0,1000.0,0.0,150000,0.00629984300583601,16.05700189590454,-16.340172691345217
151000,0,113.54609003655193,0.00041294097900390625,0.0001964569091796875,0.010459661483764648,150975.5,485.84177811806524,1000.0,151.0,278.8892749325017,158.49904667848895,1000.0,1000.0,0.0,151000,0.006106895692646504,16.02353937149048,-16.40084861755371
152000,0,111.22961070866744,0.0004253387451171875,0.0001575946807861328,0.009357929229736328,151975.5,197.49730250028452,1000.0,152.0,156.31813387454437,118.60955340893376,1000.0,1000.0,0.0,152000,0.006198131260462105,16.358221645355226,-16.918625793457032
153000,0,88.03177813402108,0.00047087669372558594,0.00013399124145507812,0.010109186172485352,152975.5,203.53666906285326,1000.0,153.0,165.6160681756759,207.31008141930468,1000.0,1000.0,0.0,153000,0.0065637411829084155,16.16551986694336,-16.776668243408203
154000,0,109.3270539563151,0.00045609474182128906,0.0001323223114013672,0.01046133041381836,153975.5,496.1373045006063,1000.0,154.0,520.7341684239782,173.13993276083488,1000.0,1000.0,0.0,154000,0.006576045854017138,16.585257930755617,-16.80616271972656
155000,0,105.24173232297888,0.00048661231994628906,0.00013494491577148438,0.010577678680419922,154975.5,25.656268282463927,1000.0,155.0,336.20342470526407,235.9972463791069,1000.0,1000.0,0.0,155000,0.006083062244579196,16.652247409820557,-17.02844051361084
156000,0,81.72586913663287,0.0004773139953613281,0.0001392364501953125,0.010027408599853516,155975.5,361.9792041578367,1000.0,156.0,163.06384606974558,193.2184823510608,1000.0,1000.0,0.0,156000,0.007073278818279505,16.75935005187988,-17.288007850646974
157000,0,103.61489475969954,0.0004451274871826172,0.000171661376953125,0.012213706970214844,156975.5,498.51669748260974,1000.0,157.0,398.00611424759825,197.6988945413366,1000.0,1000.0,0.0,157000,0.00676898742094636,16.98063690185547,-17.318416442871094
158000,0,105.47669546402611,0.000514984130859375,0.0001342296600341797,0.010567426681518555,157975.5,463.2398302732372,1000.0,158.0,360.3927578713743,199.9619426524256,1000.0,1000.0,0.0,158000,0.007631416097283363,17.15624361038208,-17.2899462890625
159000,0,84.09321841560131,0.0004904270172119141,0.00012683868408203125,0.010063886642456055,158975.5,561.9487400810824,1000.0,159.0,510.29784063149964,109.30901563153972,1000.0,1000.0,0.0,159000,0.007014769604429602,17.43303373336792,-17.705272064208984
160000,0,110.39675729739689,0.0003814697265625,0.00011420249938964844,0.008847475051879883,159975.5,324.7790368680144,1000.0,160.0,389.70901162223106,186.75701823043204,1000.0,1000.0,0.0,160000,0.006762763522565365,17.65557273864746,-18.089741516113282
161000,0,105.7358952135917,0.0004153251647949219,0.0001125335693359375,0.009122848510742188,160975.5,522.903476506827,1000.0,161.0,464.7504394044207,135.1162960427862,1000.0,1000.0,0.0,161000,0.007966246036812664,17.778148937225343,-18.267253036499024
162000,0,85.75716410940463,0.0004088878631591797,0.0001647472381591797,0.009523153305053711,161975.5,532.2214430259371,1000.0,162.0,442.471937197043,130.85910567199392,1000.0,1000.0,0.0,162000,0.0073829411529004576,17.685509300231935,-18.127612075805665
163000,0,118.78738033619433,0.0004456043243408203,0.00014781951904296875,0.010038614273071289,162975.5,471.6674984501515,1000.0,163.0,162.64992440563793,141.79562170621705,1000.0,1000.0,0.0,163000,0.007686966611072421,18.092829704284668,-18.441384353637694
164000,0,112.3729332139491,0.0004942417144775391,0.0001239776611328125,0.009515523910522461,163975.5,504.7459324546082,1000.0,164.0,321.1889339545841,207.92444460660747,1000.0,1000.0,0.0,164000,0.007264389544725418,18.062433815002443,-18.22706314086914
165000,0,105.81149058764764,0.0004398822784423828,0.0001227855682373047,0.010501384735107422,164975.5,17.042187287208694,1000.0,165.0,572.724214042711,45.959199219150484,1000.0,1000.0,0.0,165000,0.007910104598850012,18.14838363647461,-18.8643440246582
166000,0,115.80556897718017,0.0005793571472167969,0.0001537799835205078,0.011875152587890625,165975.5,556.0430281948084,1000.0,166.0,254.38058791685503,190.08110202477138,1000.0,1000.0,0.0,166000,0.007851394545286893,18.713242378234863,-19.208414001464845
167000,0,116.23387420382518,0.0004832744598388672,0.0001227855682373047,0.00980067253112793,166975.5,101.35355095273657,1000.0,167.0,212.46981549289166,200.34267028628315,1000.0,1000.0,0.0,167000,0.007459905091673135,18.616142234802247,-19.265995712280272
168000,0,111.32420013759247,0.0004222393035888672,0.00012183189392089844,0.00939488410949707,167975.5,12.839617125115055,1000.0,168.0,456.9709828646639,211.89451308911168,1000.0,1000.0,0.0,168000,0.008675619456917048,18.544935722351074,-19.13958869934082
169000,0,111.67068428347707,0.0004527568817138672,0.00011444091796875,0.008974790573120117,168975.5,511.7096584200792,1000.0,169.0,397.5474892798485,150.06975579938913,1000.0,1000.0,0.0,169000,0.00802078957669437,18.508804817199707,-18.743103713989257
170000,0,108.73757411974059,0.0004277229309082031,0.0001590251922607422,0.009643316268920898,169975.5,557.5711023377477,1000.0,170.0,351.5463547296504,221.61481062137145,1000.0,1000.0,0.0,170000,0.00787827929481864,18.733348846435547,-19.350342330932616
171000,0,111.21745918609781,0.00042057037353515625,0.00016188621520996094,0.009100675582885742,170975.5,570.0517065651239,1000.0,171.0,296.57712803963716,215.4479809226737,1000.0,1000.0,0.0,171000,0.007926666038110852,19.067830085754395,-19.786391296386718
172000,0,82.57882418167442,0.00042748451232910156,0.0001239776611328125,0.009445667266845703,171975.5,510.68283570900473,1000.0,172.0,521.4326670961154,120.33116536219748,1000.0,1000.0,0.0,172000,0.0079310601670295,19.395309181213378,-20.00306327819824
173000,0,112.15472272463278,0.0004482269287109375,0.000125885009765625,0.009554147720336914,172975.5,573.3500208265345,1000.0,173.0,266.76752545593735,189.85554169573916,1000.0,1000.0,0.0,173000,0.007869882117956877,19.499042434692385,-19.852101135253907
174000,0,106.87949280514125,0.00042557716369628906,0.0001583099365234375,0.009218454360961914,173975.5,528.8990857871825,1000.0,174.0,549.0161437666081,116.78275827835813,1000.0,1000.0,0.0,174000,0.008082951251417399,19.781815376281738,-19.950121994018556
175000,0,84.15777496068307,0.0004343986511230469,0.00012254714965820312,0.011066675186157227,174975.5,629.5696373641717,1000.0,175.0,375.4691918556262,183.9604511037974,1000.0,1000.0,0.0,175000,0.00787989892065525,20.299227294921874,-20.91681999206543
176000,0,116.663022949853,0.00046896934509277344,0.0001316070556640625,0.010360240936279297,175975.5,444.0588784207607,1000.0,176.0,538.7090254421743,126.85695495849187,1000.0,1000.0,0.0,176000,0.008141944808885455,20.100299034118652,-20.87127342224121
177000,0,116.54094641950144,0.0004687309265136719,0.00012159347534179688,0.00936746597290039,176975.5,632.7538254464441,1000.0,177.0,364.1721366315329,208.51146123598804,1000.0,1000.0,0.0,177000,0.008357086349278689,20.44986930847168,-20.91815216064453
178000,0,116.79101381397771,0.0004475116729736328,0.0001239776611328125,0.009870052337646484,177975.5,618.0478738106921,1000.0,178.0,506.05072707407743,175.61587564051942,1000.0,1000.0,0.0,178000,0.008723263973370194,20.82422519683838,-21.25064872741699
179000,0,112.13966980816791,0.0005693435668945312,0.00014591217041015625,0.012675762176513672,178975.5,61.292765584934706,1000.0,179.0,505.362052808356,174.36910240207888,1000.0,1000.0,0.0,179000,0.007987967235967517,20.42886302947998,-20.66330467224121
180000,0,116.4711736688704,0.0004169940948486328,0.00012183189392089844,0.009501934051513672,179975.5,456.11121321238255,1000.0,180.0,639.1371303748413,30.60995931645445,1000.0,1000.0,0.0,180000,0.008725935146212577,20.908386955261232,-21.25876388549805
181000,0,115.98130939325212,0.00047135353088378906,0.00012540817260742188,0.009369373321533203,180975.5,295.240171529233,1000.0,181.0,165.16979873048285,75.49520030675328,1000.0,1000.0,0.0,181000,0.00810923839919269,20.70110507965088,-21.215502014160155
182000,0,81.91491231599288,0.0004048347473144531,0.0001628398895263672,0.009435892105102539,181975.5,214.96438458576617,1000.0,182.0,585.8885164983833,127.3908894756152,1000.0,1000.0,0.0,182000,0.008729425789788366,20.731539726257324,-20.72182113647461
183000,0,105.8342917615212,0.00046539306640625,0.0001201629638671875,0.009415626525878906,182975.5,479.98482138384674,1000.0,183.0,402.1361791668369,247.6351581213626,1000.0,1000.0,0.0,183000,0.008900875337421893,20.971594352722168,-21.333595581054688
184000,0,111.07773076751955,0.0004439353942871094,0.00012993812561035156,0.009251117706298828,183975.5,310.1585608392256,1000.0,184.0,307.8221570599343,172.22819289709682,1000.0,1000.0,0.0,184000,0.009011610066518188,20.855309028625488,-21.464695892333985
185000,0,86.5338782193056,0.0004649162292480469,0.00012111663818359375,0.009505510330200195,184975.5,232.45027484825388,1000.0,185.0,569.2214566861792,113.83986212683395,1000.0,1000.0,0.0,185000,0.009091324983164667,20.933280067443846,-21.386409912109375
186000,0,113.25726870486172,0.00045943260192871094,0.00011992454528808594,0.009005069732666016,185975.5,513.6117799509931,1000.0,186.0,502.87375148056174,172.51378760265436,1000.0,1000.0,0.0,186000,0.008676440361887217,21.086876029968263,-21.489307403564453
187000,0,111.30529301369747,0.0004229545593261719,0.00011491775512695312,0.009126901626586914,186975.5,63.882337669977375,1000.0,187.0,580.4635424115393,41.42331270269784,1000.0,1000.0,0.0,187000,0.008818939737975597,20.98077350616455,-21.05359176635742
188000,0,113.51443807659747,0.0004277229309082031,0.000118255615234375,0.00934290885925293,187975.5,562.7990101816878,1000.0,188.0,160.33345173872993,155.98397462609586,1000.0,1000.0,0.0,188000,0.009818363022059202,21.252915496826173,-21.744209365844725
189000,0,117.18171851828673,0.0004227161407470703,0.0001914501190185547,0.013373374938964844,188975.5,643.5021928558386,1000.0,189.0,291.7006253464213,208.33059338715398,1000.0,1000.0,0.0,189000,0.01004999341443181,21.630098304748536,-21.99793357849121
190000,0,115.33370656876019,0.00043964385986328125,0.0001220703125,0.009323358535766602,189975.5,68.2132974222274,1000.0,190.0,363.36834177911254,220.39215567700293,1000.0,1000.0,0.0,190000,0.008829925209283829,21.523552169799803,-21.74189140319824
191000,0,114.14184021191724,0.0003914833068847656,0.00011301040649414062,0.009014129638671875,190975.5,606.1649132134108,1000.0,191.0,626.7350917970507,31.8774862913706,1000.0,1000.0,0.0,191000,0.009281173953786493,21.859896507263183,-22.33717628479004
192000,0,107.03326518134112,0.0005517005920410156,0.00014638900756835938,0.01237797737121582,191975.5,515.6690813835771,1000.0,192.0,346.3325270239173,205.99033118248465,1000.0,1000.0,0.0,192000,0.009828005833551288,22.04026210784912,-22.52351448059082
193000,0,117.40976003565146,0.00039458274841308594,0.00011444091796875,0.009241104125976562,192975.5,115.39858836404217,1000.0,193.0,278.6969345833328,192.15406845156934,1000.0,1000.0,0.0,193000,0.009635443529114128,21.932660942077636,-22.20856330871582
194000,0,104.43047933950145,0.0004534721374511719,0.00013494491577148438,0.01006937026977539,193975.5,569.7253183688898,1000.0,194.0,511.4270821682936,171.7994354841109,1000.0,1000.0,0.0,194000,0.009284628266468644,22.318346061706542,-22.64511039733887
195000,0,80.05988977197374,0.0004944801330566406,0.0001270771026611328,0.010157585144042969,194975.5,603.9286815604469,1000.0,195.0,513.9794687560934,204.2386426696318,1000.0,1000.0,0.0,195000,0.009631248079240323,22.243025703430177,-22.65598648071289
196000,0,111.20301058870753,0.0004858970642089844,0.00012540817260742188,0.00970315933227539,195975.5,598.977545091264,1000.0,196.0,544.2603477077754,162.75325363128547,1000.0,1000.0,0.0,196000,0.009567206082865596,22.52065227508545,-23.004428024291993
197000,0,114.53844679209092,0.00040149688720703125,0.00011491775512695312,0.009906530380249023,196975.5,265.5738396945741,1000.0,197.0,114.5613919262048,152.48574519988074,1000.0,1000.0,0.0,197000,0.008992566661909222,22.584061088562013,-23.031098785400392
198000,0,84.45925428326797,0.0004601478576660156,0.00011324882507324219,0.009549617767333984,197975.5,333.0971915631325,1000.0,198.0,581.4905124608346,172.84411143051548,1000.0,1000.0,0.0,198000,0.00989365710876882,22.74058002471924,-23.279213256835938
199000,0,107.93565504267961,0.0004901885986328125,0.00013518333435058594,0.011223554611206055,198975.5,615.2405276018936,1000.0,199.0,666.0573870028732,20.885575408008922,1000.0,1000.0,0.0,199000,0.009549274202436208,22.999844093322753,-23.313557434082032
200000,0,112.5738024266297,0.0004456043243408203,0.00012135505676269531,0.009650468826293945,199975.5,568.7378850238669,1000.0,200.0,283.7407651064051,242.28750664154097,1000.0,1000.0,0.0,200000,0.011148458179086447,23.416479263305664,-23.75011054992676
