niicovila/Q-Reps/lightning_research_framework/results/XTD3_TEST/td3_5/log.csv
time/steps,time/epochs,time/steps_per_second,time/dataset,time/preprocess,time/train_step,train/env_steps,train/reward,train/length,train/num_ep,eval/reward,eval/stddev,eval/length,eval/discount,eval/early_termination,step,train/q_loss,train/target_q,train/actor_loss
3000,0,120.80069445284478,0.0004169940948486328,0.00013446807861328125,0.009328603744506836,2975.5,3.770440917501305,1000.0,3.0,0.4089156924987799,0.02526838527127336,1000.0,1000.0,0.0,3000,-49.99609191894531,51.483345642089844,-175.13130981445312
4000,0,116.97491440868085,0.0004215240478515625,0.00013399124145507812,0.009309053421020508,3975.5,1.4590842424537385,1000.0,4.0,0.39085049504717734,0.04406556791106126,1000.0,1000.0,0.0,4000,31.647433891296387,inf,-664.5133715820313
5000,0,118.27134454113255,0.00038623809814453125,0.0001316070556640625,0.008591890335083008,4975.5,1.099886299823082,1000.0,5.0,0.41604387244100227,0.03103042398655476,1000.0,1000.0,0.0,5000,44.70250602722168,inf,-83.91269561767578
6000,0,113.2134304476168,0.0003566741943359375,0.00012111663818359375,0.008852005004882812,5975.5,1.2712547910333873,1000.0,6.0,0.4028373412839391,0.025895976455067356,1000.0,1000.0,0.0,6000,49.53064743041992,inf,-288.16316284179686
7000,0,116.9226103129753,0.0004754066467285156,0.00012159347534179688,0.008727073669433594,6975.5,1.0730156592807203,1000.0,7.0,0.3838976801967748,0.0405683884848959,1000.0,1000.0,0.0,7000,47.03267333984375,inf,-249.28693420410156
8000,0,119.80282238876482,0.000396728515625,0.0001277923583984375,0.009582757949829102,7975.5,1.140370778514742,1000.0,8.0,0.39948633069634076,0.04437139898788097,1000.0,1000.0,0.0,8000,40.804547500610354,inf,-114.62629089355468
9000,0,103.12925678553128,0.00038433074951171875,0.00014448165893554688,0.00905919075012207,8975.5,1.1162882640070062,1000.0,9.0,0.37310621361179247,0.034376041790656627,1000.0,1000.0,0.0,9000,35.39483177185058,inf,-43.074170989990236
10000,0,115.36282747713676,0.0005803108215332031,0.00016689300537109375,0.014051675796508789,9975.5,1.3296820373067528,1000.0,10.0,0.40038245900302033,0.033170821463717616,1000.0,1000.0,0.0,10000,27.799145812988282,inf,-181.07630065917968
11000,0,111.07631878340787,0.0004601478576660156,0.0001404285430908203,0.01002359390258789,10975.5,1.1660305141752176,1000.0,11.0,0.3775961553031163,0.031322361894548414,1000.0,1000.0,0.0,11000,26.002246322631837,inf,-181.3535949707031
12000,0,116.09816642409795,0.0004775524139404297,0.00013518333435058594,0.009471416473388672,11975.5,1.207565804679392,1000.0,12.0,0.41823266636190154,0.04020371586727359,1000.0,1000.0,0.0,12000,36.0441206741333,inf,-246.04685424804688
13000,0,119.92079053923848,0.0005123615264892578,0.00013947486877441406,0.011415958404541016,12975.5,1.2682962146391992,1000.0,13.0,0.39458616872217983,0.04145743174170213,1000.0,1000.0,0.0,13000,26.262527542114256,inf,-244.77228149414063
14000,0,114.31960507265337,0.00041985511779785156,0.0001232624053955078,0.009345531463623047,13975.5,1.1040231922639667,1000.0,14.0,0.3959233354846695,0.03883850543188648,1000.0,1000.0,0.0,14000,28.555471725463867,inf,-91.780732421875
15000,0,110.37252896871532,0.0004634857177734375,0.00015020370483398438,0.010007143020629883,14975.5,3.632758614900533,1000.0,15.0,2.054774003520557,0.5844824350412764,1000.0,1000.0,0.0,15000,33.4514977645874,inf,-329.235
16000,0,110.38478705754541,0.0004353523254394531,0.00013494491577148438,0.009937763214111328,15975.5,11.209643241030053,1000.0,16.0,0.2492214953823663,0.044643211170976645,1000.0,1000.0,0.0,16000,43.157194213867186,inf,-534.3428344726562
17000,0,114.05387825780508,0.00041294097900390625,0.00013494491577148438,0.009268045425415039,16975.5,1.588203163799302,1000.0,17.0,0.2812711068971387,0.12314724074075854,1000.0,1000.0,0.0,17000,46.163720016479495,inf,-684.6638110351563
18000,0,112.52221978391076,0.00046634674072265625,0.00013327598571777344,0.009569883346557617,17975.5,1.1528404393135365,1000.0,18.0,0.2485806596044191,0.0610574574366337,1000.0,1000.0,0.0,18000,46.14781661987305,inf,-742.8587817382812
19000,0,109.90412254705437,0.0006346702575683594,0.0003139972686767578,0.01442861557006836,18975.5,1.463333255536413,1000.0,19.0,0.2698474259772127,0.07088038018079534,1000.0,1000.0,0.0,19000,46.18412315368652,inf,-794.5199365234375
20000,0,112.73907606890079,0.0004811286926269531,0.0001423358917236328,0.010181188583374023,19975.5,1.1898913297422107,1000.0,20.0,0.259404061681602,0.07101783257564259,1000.0,1000.0,0.0,20000,49.8291707611084,inf,-813.4317138671875
21000,0,113.09004647841981,0.0004878044128417969,0.0001480579376220703,0.00975346565246582,20975.5,1.3792145545878496,1000.0,21.0,0.2350705217055718,0.0381343464536712,1000.0,1000.0,0.0,21000,-1.5799153518676758,-inf,-855.3128955078125
22000,0,113.27060422273749,0.0005550384521484375,0.00014591217041015625,0.012074947357177734,21975.5,1.1170474309605518,1000.0,22.0,0.22981411929518045,0.04307562872326265,1000.0,1000.0,0.0,22000,56.31989387512207,inf,-997.2383959960938
23000,0,110.9106015340199,0.0005156993865966797,0.00013065338134765625,0.00974726676940918,22975.5,3.9690881406362326,1000.0,23.0,1.7088692858628955,0.9348049843145241,1000.0,1000.0,0.0,23000,-1.9792940521240234,-inf,-1131.992666015625
24000,0,115.45561749689223,0.00042700767517089844,0.00014209747314453125,0.009329557418823242,23975.5,1.9462087827211827,1000.0,24.0,1.3646264824269068,0.23478573981249798,1000.0,1000.0,0.0,24000,-2.3026330947875975,-inf,-1132.5473681640624
25000,0,112.73574281126545,0.0005025863647460938,0.0001385211944580078,0.010998010635375977,24975.5,5.038133105714706,1000.0,25.0,1.3351232880667359,0.12321951991778134,1000.0,1000.0,0.0,25000,2.381644706726074,-inf,-1138.580791015625
26000,0,115.87198537809266,0.0004563331604003906,0.00013446807861328125,0.009627103805541992,25975.5,2.1429486881170106,1000.0,26.0,1.2966619852852925,0.2529983246519267,1000.0,1000.0,0.0,26000,41.91226203918457,inf,-1116.3085205078125
27000,0,114.24257000459225,0.00042557716369628906,0.00013303756713867188,0.009270191192626953,26975.5,2.2513019629743174,1000.0,27.0,1.3754122526535177,0.2138799829736282,1000.0,1000.0,0.0,27000,13.342723083496093,inf,-1135.6737255859375
28000,0,92.30320969179476,0.0005004405975341797,0.0001404285430908203,0.010541677474975586,27975.5,2.549567011511791,1000.0,28.0,1.6240980056664724,0.9579771103075447,1000.0,1000.0,0.0,28000,-50.0,-inf,-1123.4302587890625
29000,0,118.05164173895422,0.00046753883361816406,0.00013589859008789062,0.009334802627563477,28975.5,3.0920342279235276,1000.0,29.0,1.2731929999867955,0.12761229389434514,1000.0,1000.0,0.0,29000,50.851922760009764,inf,-1139.578447265625
30000,0,114.11128335690302,0.0004353523254394531,0.0001499652862548828,0.009742975234985352,29975.5,1.852425214906109,1000.0,30.0,1.6297554049902412,0.9422042340076852,1000.0,1000.0,0.0,30000,42.053004837036134,inf,-1128.8580322265625
31000,0,93.62666072594914,0.0005345344543457031,0.0001227855682373047,0.008813619613647461,30975.5,2.0785440794533674,1000.0,31.0,1.6138759531900426,0.9596654278941074,1000.0,1000.0,0.0,31000,58.19197654724121,inf,-1129.4646875
32000,0,119.80966668818552,0.0003895759582519531,0.0001418590545654297,0.009345293045043945,31975.5,2.1866416361951413,1000.0,32.0,1.3108979031087493,0.2130744915305307,1000.0,1000.0,0.0,32000,46.463319320678714,inf,-1132.5382958984376
33000,0,119.48549185483651,0.0004239082336425781,0.00012445449829101562,0.008693695068359375,32975.5,2.3049163804389536,1000.0,33.0,1.6025241386760019,0.9364930123230317,1000.0,1000.0,0.0,33000,51.89514526367188,inf,-1126.8990185546875
34000,0,123.02667085916491,0.0004374980926513672,0.00013065338134765625,0.010170936584472656,33975.5,2.735451267352922,1000.0,34.0,1.3256104806440916,0.10472279644347308,1000.0,1000.0,0.0,34000,46.54261047363281,inf,-1130.1510546875
35000,0,96.36300810916121,0.00038743019104003906,0.00011563301086425781,0.008886575698852539,34975.5,2.0362614658841007,1000.0,35.0,1.9090698541624889,1.2631333701563399,1000.0,1000.0,0.0,35000,40.77125846862793,inf,-1119.1781982421876
36000,0,118.941862799701,0.0005588531494140625,0.0001513957977294922,0.009537935256958008,35975.5,2.1564032021124304,1000.0,36.0,1.9330654809709238,1.2946261828273917,1000.0,1000.0,0.0,36000,48.746923217773436,inf,-1126.7683544921874
37000,0,121.01001707981351,0.00043010711669921875,0.0001232624053955078,0.008691549301147461,36975.5,2.0858549212962547,1000.0,37.0,1.2676220584042204,0.1250700554711063,1000.0,1000.0,0.0,37000,43.50920684814453,inf,-1135.67845703125
38000,0,120.48519208153103,0.00040411949157714844,0.0001270771026611328,0.009396076202392578,37975.5,1.9173637653856208,1000.0,38.0,1.6278890619996438,0.8696388192928902,1000.0,1000.0,0.0,38000,42.3723193359375,inf,-1127.4301611328126
39000,0,121.60772666280859,0.0005698204040527344,0.0001628398895263672,0.011565208435058594,38975.5,2.1512351479984755,1000.0,39.0,1.402700700812622,0.25255530102648227,1000.0,1000.0,0.0,39000,47.87527587890625,inf,-1122.9160986328125
40000,0,116.34840075540534,0.0004487037658691406,0.00012922286987304688,0.00986480712890625,39975.5,2.3118407293875913,1000.0,40.0,1.317228510023939,0.1439755579040898,1000.0,1000.0,0.0,40000,49.4172599029541,inf,-1125.98650390625
41000,0,120.11503173338572,0.00042176246643066406,0.00012683868408203125,0.009311676025390625,40975.5,1.9620671640244776,1000.0,41.0,1.3963314627789436,0.2871406648830467,1000.0,1000.0,0.0,41000,50.21303756713867,inf,-1124.620419921875
42000,0,91.40581720771763,0.00045561790466308594,0.0001277923583984375,0.009264707565307617,41975.5,2.05512336745778,1000.0,42.0,1.2388104813845995,0.15303160476588928,1000.0,1000.0,0.0,42000,50.13627326965332,inf,-1132.7499755859376
43000,0,117.95038793697395,0.0005774497985839844,0.0001633167266845703,0.011919260025024414,42975.5,2.3848385005999706,1000.0,43.0,1.3626642159962368,0.2880275247103096,1000.0,1000.0,0.0,43000,49.399316482543945,inf,-1133.9358251953124
44000,0,121.78441597658563,0.0004673004150390625,0.00013780593872070312,0.008849382400512695,43975.5,2.0501611374938262,1000.0,44.0,1.6376830365085708,0.9250576299057419,1000.0,1000.0,0.0,44000,49.64554298400879,inf,-1128.2898046875
45000,0,115.3823765506306,0.0004203319549560547,0.00012803077697753906,0.008625268936157227,44975.5,2.112238158472265,1000.0,45.0,1.5778288923792394,0.9348207330522732,1000.0,1000.0,0.0,45000,42.21722915649414,inf,-1127.6188330078126
46000,0,91.46657350575082,0.00045680999755859375,0.0001723766326904297,0.009470939636230469,45975.5,2.0591557215567464,1000.0,46.0,1.470703148681977,0.3563510798093786,1000.0,1000.0,0.0,46000,35.3873348236084,inf,-1134.475068359375
47000,0,121.08890121951994,0.00046634674072265625,0.0001499652862548828,0.00935816764831543,46975.5,2.2639169764288445,1000.0,47.0,1.2456297233203426,0.07399183148654995,1000.0,1000.0,0.0,47000,49.98671607971191,inf,-1136.033720703125
48000,0,116.88344549875295,0.00042724609375,0.00013136863708496094,0.009258747100830078,47975.5,2.111592164984975,1000.0,48.0,1.3960175680711353,0.12877716792308933,1000.0,1000.0,0.0,48000,49.652250061035154,inf,-1128.5034521484374
49000,0,121.50971688607711,0.0004482269287109375,0.0001289844512939453,0.009088277816772461,48975.5,2.3792147684641405,1000.0,49.0,1.6406037984837138,1.0572132038292152,1000.0,1000.0,0.0,49000,43.15044692993164,inf,-1137.0533056640625
50000,0,122.71897927680048,0.00041556358337402344,0.00012683868408203125,0.010187149047851562,49975.5,2.189736442728906,1000.0,50.0,1.3776684455857688,0.22412089924071746,1000.0,1000.0,0.0,50000,31.911288375854493,inf,-1131.080947265625
51000,0,120.87136345926406,0.00039315223693847656,0.00012183189392089844,0.008842945098876953,50975.5,2.286341680391944,1000.0,51.0,1.3293025416917477,0.13909662331364492,1000.0,1000.0,0.0,51000,35.711144332885745,inf,-1134.6805322265625
52000,0,117.32496099241779,0.00039577484130859375,0.00012445449829101562,0.008943796157836914,51975.5,2.052614828277698,1000.0,52.0,1.2630704520979068,0.07980815615092175,1000.0,1000.0,0.0,52000,47.83805320739746,inf,-1134.308125
53000,0,91.89244849554001,0.0003924369812011719,0.00012230873107910156,0.008963584899902344,52975.5,2.2318942792560823,1000.0,53.0,1.3216669572648212,0.14998562998156711,1000.0,1000.0,0.0,53000,48.40324478149414,inf,-1132.76169921875
54000,0,115.64107215821772,0.0006394386291503906,0.0001728534698486328,0.013367652893066406,53975.5,2.611622460233913,1000.0,54.0,1.3681094939155327,0.228690308381092,1000.0,1000.0,0.0,54000,47.875976638793944,inf,-1128.3681396484376
55000,0,115.94463146709363,0.00043773651123046875,0.00012946128845214844,0.008812427520751953,54975.5,1.737746009550485,1000.0,55.0,1.3455818114848985,0.17005408383667064,1000.0,1000.0,0.0,55000,47.76105911254883,inf,-1134.072919921875
56000,0,119.86294205901264,0.000400543212890625,0.00012612342834472656,0.009828329086303711,55975.5,2.6159816620180916,1000.0,56.0,1.41532458628516,0.25901147662478485,1000.0,1000.0,0.0,56000,46.99127388000488,inf,-1136.0603076171874
57000,0,86.54180569987315,0.0004477500915527344,0.0001590251922607422,0.00908803939819336,56975.5,1.8974254881632322,1000.0,57.0,1.282794223650242,0.1012099642598124,1000.0,1000.0,0.0,57000,47.400474319458006,inf,-1126.618876953125
58000,0,115.17415189474384,0.00042176246643066406,0.0001289844512939453,0.00920867919921875,57975.5,2.0193601042909295,1000.0,58.0,1.6482816650373295,1.100002172561906,1000.0,1000.0,0.0,58000,46.99902534484863,inf,-1133.8776953125
59000,0,118.21194423416105,0.0004565715789794922,0.00013709068298339844,0.009200096130371094,58975.5,2.0028297301760025,1000.0,59.0,1.343000769773612,0.25842673327191923,1000.0,1000.0,0.0,59000,40.77419937133789,inf,-1135.3252294921874
60000,0,119.93745632065188,0.00040650367736816406,0.0001709461212158203,0.009616851806640625,59975.5,2.333637624271218,1000.0,60.0,1.6429584251542866,0.9222684281283398,1000.0,1000.0,0.0,60000,46.82353469848633,inf,-1132.4786279296875
61000,0,121.80832464996439,0.0005209445953369141,0.000171661376953125,0.01104116439819336,60975.5,2.4344734222797064,1000.0,61.0,1.5888955839945182,0.9630203907676915,1000.0,1000.0,0.0,61000,45.05941375732422,inf,-1133.463642578125
62000,0,118.79747376816742,0.0003800392150878906,0.00011515617370605469,0.008806228637695312,61975.5,2.2569353892256983,1000.0,62.0,1.273818595610317,0.12258503510850552,1000.0,1000.0,0.0,62000,24.738137588500976,inf,-1137.5611572265625
63000,0,121.08603471689747,0.0004239082336425781,0.0001392364501953125,0.00866842269897461,62975.5,5.240805969257717,1000.0,63.0,1.3322761910775345,0.14520861825938342,1000.0,1000.0,0.0,63000,43.949750366210935,inf,-1137.8927294921875
64000,0,90.76870805714076,0.00039839744567871094,0.00012755393981933594,0.009068965911865234,63975.5,1.9602911637556684,1000.0,64.0,1.2964137201895851,0.10761483310523019,1000.0,1000.0,0.0,64000,48.99144958496094,inf,-1135.3964794921876
65000,0,121.36233086748969,0.0006165504455566406,0.00018286705017089844,0.01373434066772461,64975.5,2.1603505888234857,1000.0,65.0,1.3262179854935874,0.2555021292585372,1000.0,1000.0,0.0,65000,46.63984069824219,inf,-1135.48615234375
66000,0,117.85301641393139,0.00043010711669921875,0.0001227855682373047,0.008807659149169922,65975.5,2.548664171591472,1000.0,66.0,1.7437906242625503,0.9298370783407777,1000.0,1000.0,0.0,66000,48.974984359741214,inf,-1133.2840185546875
67000,0,115.83569646066677,0.0004169940948486328,0.00015091896057128906,0.009294271469116211,66975.5,2.1693158851395222,1000.0,67.0,1.344280263686127,0.2761986209370923,1000.0,1000.0,0.0,67000,47.465719833374024,inf,-1131.7756689453124
68000,0,115.59161032190785,0.0005352497100830078,0.00014543533325195312,0.01147317886352539,67975.5,2.304004501116153,1000.0,68.0,1.5594884911764137,0.9122189800482908,1000.0,1000.0,0.0,68000,46.73089630126953,inf,-1137.0461181640626
69000,0,120.52763946169372,0.0004353523254394531,0.0001201629638671875,0.009143590927124023,68975.5,2.5623295084403566,1000.0,69.0,1.324005171547,0.1016641463695539,1000.0,1000.0,0.0,69000,38.27447437286377,inf,-1133.0372412109375
70000,0,120.13925289914476,0.0004634857177734375,0.00012350082397460938,0.00915074348449707,69975.5,2.194599148820517,1000.0,70.0,1.3127619080178379,0.11656716662488706,1000.0,1000.0,0.0,70000,49.62459106445313,inf,-1134.7349267578124
71000,0,104.72517501619203,0.0004973411560058594,0.00013446807861328125,0.009076833724975586,70975.5,2.2718746262764378,1000.0,71.0,1.292929559846044,0.09500903912907388,1000.0,1000.0,0.0,71000,37.76246013641357,inf,-1132.26828125
72000,0,119.54686073999673,0.0005681514739990234,0.0001480579376220703,0.011657476425170898,71975.5,2.3496428509659992,1000.0,72.0,1.8991129870229198,1.335063323925527,1000.0,1000.0,0.0,72000,44.39297882080078,inf,-1133.403466796875
73000,0,122.4870367060676,0.0004589557647705078,0.00012946128845214844,0.009560346603393555,72975.5,2.536340287526796,1000.0,73.0,1.4476757046883932,0.2766109459210428,1000.0,1000.0,0.0,73000,48.74369972229004,inf,-1122.9036474609375
74000,0,120.61206907459233,0.0003933906555175781,0.00012063980102539062,0.009154319763183594,73975.5,1.8830018683195777,1000.0,74.0,1.243906730235916,0.08858735322410825,1000.0,1000.0,0.0,74000,52.53195442199707,nan,-1134.5677197265625
75000,0,90.77444423619728,0.0004074573516845703,0.00012564659118652344,0.008902549743652344,74975.5,2.4971493977310986,1000.0,75.0,1.3690158442353095,0.2754137545959063,1000.0,1000.0,0.0,75000,48.35748519897461,inf,-1128.4837060546874
76000,0,120.20432681285021,0.00039315223693847656,0.00012993812561035156,0.008945941925048828,75975.5,2.813056178294889,1000.0,76.0,1.2671347078815842,0.11238186132706598,1000.0,1000.0,0.0,76000,50.11087341308594,inf,-1131.203876953125
77000,0,121.34449444326471,0.0004665851593017578,0.0001361370086669922,0.009598016738891602,76975.5,2.024540418677488,1000.0,77.0,1.322030684018734,0.09079657592192251,1000.0,1000.0,0.0,77000,38.012747611999515,inf,-1128.9109228515624
78000,0,121.11421623066977,0.0004405975341796875,0.00013184547424316406,0.008797645568847656,77975.5,2.0941914227838425,1000.0,78.0,1.6900005425539006,0.9276665284532901,1000.0,1000.0,0.0,78000,48.34174285888672,inf,-1127.56662109375
79000,0,115.34043035306904,0.0006172657012939453,0.0001823902130126953,0.013733863830566406,78975.5,1.9878803675813146,1000.0,79.0,1.8407004899428459,0.9633430808208212,1000.0,1000.0,0.0,79000,48.2009822845459,inf,-1133.033349609375
80000,0,116.12310926021595,0.00048542022705078125,0.0001239776611328125,0.009075164794921875,79975.5,1.9931481331613137,1000.0,80.0,1.5724061134848522,0.8946314586973462,1000.0,1000.0,0.0,80000,37.13260265350342,inf,-1138.0865576171875
81000,0,116.76981421192212,0.0004055500030517578,0.00012612342834472656,0.009243488311767578,80975.5,2.1864169197100285,1000.0,81.0,1.430157687274972,0.2689998653548976,1000.0,1000.0,0.0,81000,47.8947248840332,inf,-1131.2292333984376
82000,0,96.48395087174316,0.00037360191345214844,0.00012612342834472656,0.00917959213256836,81975.5,5.267387969678798,1000.0,82.0,1.3517682396198345,0.23797372383432466,1000.0,1000.0,0.0,82000,43.45327522277832,inf,-1127.422568359375
83000,0,121.8755030559651,0.0005645751953125,0.00016069412231445312,0.01448512077331543,82975.5,4.623081198633936,1000.0,83.0,1.2523724654538655,0.07329030526986563,1000.0,1000.0,0.0,83000,48.18798774719238,inf,-1130.2879541015625
84000,0,123.07056708121482,0.0004107952117919922,0.00012350082397460938,0.009076356887817383,83975.5,2.2709399456255204,1000.0,84.0,1.2510250058375874,0.10877588480902584,1000.0,1000.0,0.0,84000,49.76882392883301,inf,-1136.361201171875
85000,0,121.8731657877945,0.0004184246063232422,0.00013136863708496094,0.009341001510620117,84975.5,2.1116479076654637,1000.0,85.0,1.6328557108790498,1.0007895879594357,1000.0,1000.0,0.0,85000,54.74406684875488,nan,-1128.1893408203125
86000,0,88.36863187293369,0.00045299530029296875,0.00013589859008789062,0.009150981903076172,85975.5,2.2319420564041774,1000.0,86.0,1.3407675919836446,0.22931710931362256,1000.0,1000.0,0.0,86000,47.63057098388672,inf,-1134.952265625
87000,0,121.27313101406365,0.0004456043243408203,0.00013971328735351562,0.00929570198059082,86975.5,1.7252270525802664,1000.0,87.0,1.645876255154056,1.092693521973682,1000.0,1000.0,0.0,87000,47.55632675170899,inf,-1130.11029296875
88000,0,120.42901089410194,0.00039196014404296875,0.00012373924255371094,0.008884429931640625,87975.5,2.0322207410458275,1000.0,88.0,1.6325442177396716,0.8510856979877889,1000.0,1000.0,0.0,88000,38.74205604553222,inf,-1129.37861328125
89000,0,122.3265678481184,0.00040149688720703125,0.0001270771026611328,0.009023666381835938,88975.5,2.0641798066010977,1000.0,89.0,1.321404815181894,0.11855903799842304,1000.0,1000.0,0.0,89000,28.32759105682373,inf,-1123.41103515625
90000,0,117.2360242370847,0.0015478134155273438,0.0001876354217529297,0.012971639633178711,89975.5,4.993354376237626,1000.0,90.0,1.6206392962179579,0.9937651148367551,1000.0,1000.0,0.0,90000,30.995646362304687,inf,-1131.775869140625
91000,0,121.27516479678197,0.00040340423583984375,0.00012636184692382812,0.010059356689453125,90975.5,2.1845962088985673,1000.0,91.0,1.270852939648853,0.09102514869267346,1000.0,1000.0,0.0,91000,32.589137687683106,inf,-1128.1116064453124
92000,0,116.83278523768485,0.00041103363037109375,0.0001266002655029297,0.008940458297729492,91975.5,1.8600289056873347,1000.0,92.0,1.3393249729681767,0.22259477861523522,1000.0,1000.0,0.0,92000,32.156732635498045,inf,-1134.04712890625
93000,0,106.10067551432584,0.0003910064697265625,0.00012350082397460938,0.008735895156860352,92975.5,1.7264968021396896,1000.0,93.0,1.4121971243433182,0.31069508255314493,1000.0,1000.0,0.0,93000,30.460051918029784,inf,-1134.1089599609375
94000,0,120.40501840679593,0.0005917549133300781,0.00015664100646972656,0.01437067985534668,93975.5,2.1309990630996807,1000.0,94.0,1.3194325808106226,0.19450618296017302,1000.0,1000.0,0.0,94000,42.77384895324707,inf,-1136.1330078125
95000,0,121.6131566967923,0.0004093647003173828,0.00012993812561035156,0.009292840957641602,94975.5,1.7843443984144371,1000.0,95.0,1.300574031608032,0.07422562852198666,1000.0,1000.0,0.0,95000,40.31718505859375,inf,-1139.664375
96000,0,120.80459127862133,0.0005152225494384766,0.00015091896057128906,0.008918046951293945,95975.5,2.1847585446248843,1000.0,96.0,1.4735943128364608,0.3274040754079945,1000.0,1000.0,0.0,96000,28.499548892974854,inf,-1131.5919091796875
97000,0,91.37264265211549,0.00046896934509277344,0.00012922286987304688,0.00911092758178711,96975.5,2.6934953561967587,1000.0,97.0,1.3351161061658154,0.1712273657786545,1000.0,1000.0,0.0,97000,36.25894550323486,inf,-1130.723720703125
98000,0,115.95052914835892,0.00041794776916503906,0.0001347064971923828,0.008992671966552734,97975.5,1.9883514790940309,1000.0,98.0,1.8710664916576072,0.911163509900044,1000.0,1000.0,0.0,98000,40.40549797058105,inf,-1131.5599609375
99000,0,114.82548557749693,0.00040841102600097656,0.0001385211944580078,0.009546279907226562,98975.5,2.3113852171340037,1000.0,99.0,1.2928035705670735,0.10543974478467234,1000.0,1000.0,0.0,99000,52.63703666687012,nan,-1132.5975048828125
100000,0,113.66375635552227,0.0004181861877441406,0.0001728534698486328,0.009401559829711914,99975.5,2.1628914212443817,1000.0,100.0,1.3167125475852581,0.2243706446982683,1000.0,1000.0,0.0,100000,53.77685264587402,nan,-1128.345869140625
101000,0,118.44221094175347,0.0005259513854980469,0.00014090538024902344,0.011806964874267578,100975.5,2.1251651669590457,1000.0,101.0,1.4224671169737924,0.3362250011640911,1000.0,1000.0,0.0,101000,49.16170562744141,inf,-1128.1697802734375
102000,0,119.04421857136856,0.00044035911560058594,0.00014591217041015625,0.009051322937011719,101975.5,1.6377600786265525,1000.0,102.0,1.2668341752172128,0.12486691655820546,1000.0,1000.0,0.0,102000,38.94258193969726,nan,-1129.9014599609375
103000,0,117.02191058321458,0.0004303455352783203,0.00012612342834472656,0.009190082550048828,102975.5,4.58788682524816,1000.0,103.0,1.6344548304184516,0.9447116649027939,1000.0,1000.0,0.0,103000,44.134129486083985,inf,-1132.3106982421875
104000,0,87.38151537815703,0.00042819976806640625,0.00012493133544921875,0.009897470474243164,103975.5,2.148678480568642,1000.0,104.0,1.4169874340334399,0.34992768706670074,1000.0,1000.0,0.0,104000,49.189914016723634,inf,-1129.6570263671874
105000,0,111.18897840269548,0.0004787445068359375,0.0001342296600341797,0.009668350219726562,104975.5,1.9036952187339278,1000.0,105.0,1.3958982639091086,0.09739467898765733,1000.0,1000.0,0.0,105000,35.70328086853027,inf,-1132.41173828125
106000,0,117.69513837015553,0.0004677772521972656,0.00013637542724609375,0.0093231201171875,105975.5,1.956371102633343,1000.0,106.0,1.6201276490871739,0.7639385959011309,1000.0,1000.0,0.0,106000,45.022837753295896,nan,-1135.9103173828125
107000,0,82.92901284851783,0.0004589557647705078,0.00012922286987304688,0.009525775909423828,106975.5,2.008401862960074,1000.0,107.0,1.671501437428626,0.9082124597908984,1000.0,1000.0,0.0,107000,39.87953151702881,nan,-1136.07826171875
108000,0,117.36967705250527,0.00042510032653808594,0.00012135505676269531,0.009474515914916992,107975.5,2.2234323467418617,1000.0,108.0,1.7217015752334817,0.8877323525996073,1000.0,1000.0,0.0,108000,49.59112464904785,inf,-1127.9009765625
109000,0,116.03072018483898,0.00042438507080078125,0.00015854835510253906,0.009020805358886719,108975.5,2.513061454355604,1000.0,109.0,1.3182547714725343,0.10731639887974295,1000.0,1000.0,0.0,109000,53.406783752441406,nan,-1128.0296875
110000,0,115.58428388132222,0.00042891502380371094,0.0001277923583984375,0.009203910827636719,109975.5,4.719141900899913,1000.0,110.0,1.386054281407499,0.20518610387051398,1000.0,1000.0,0.0,110000,58.14130867004395,inf,-1137.845087890625
111000,0,114.73326585879585,0.0006203651428222656,0.00017786026000976562,0.012467622756958008,110975.5,2.037788479263634,1000.0,111.0,1.5991627681239748,0.3169699531193461,1000.0,1000.0,0.0,111000,36.645677375793454,nan,-1136.6041064453125
112000,0,115.66454308646966,0.0005004405975341797,0.0001373291015625,0.010731935501098633,111975.5,4.74530481692617,1000.0,112.0,1.3329263254026331,0.074235695119531,1000.0,1000.0,0.0,112000,34.075705986022946,nan,-1130.6271484375
113000,0,109.9416884707994,0.0004649162292480469,0.00015163421630859375,0.01006007194519043,112975.5,2.108848111874835,1000.0,113.0,1.370220225982266,0.2734247486107624,1000.0,1000.0,0.0,113000,49.35696212768555,nan,-1128.2081591796875
114000,0,117.40542186751223,0.0005619525909423828,0.0001442432403564453,0.01361703872680664,113975.5,2.093389747791955,1000.0,114.0,1.6150356673785702,0.9617097833306,1000.0,1000.0,0.0,114000,54.654544296264646,nan,-1135.1681787109376
115000,0,113.36735008295165,0.0003955364227294922,0.00011610984802246094,0.009152650833129883,114975.5,2.1947627918795263,1000.0,115.0,1.5562200674970064,0.9062244985881333,1000.0,1000.0,0.0,115000,57.73764961242676,nan,-1132.7131982421874
116000,0,118.35284198360111,0.0004458427429199219,0.00012969970703125,0.009285926818847656,115975.5,1.96626228706101,1000.0,116.0,1.7806358742841524,0.9962766412420541,1000.0,1000.0,0.0,116000,58.03908218383789,nan,-1130.290009765625
117000,0,84.39780074548,0.000461578369140625,0.0001571178436279297,0.009708166122436523,116975.5,4.842030764963397,1000.0,117.0,1.3645222659396694,0.27673769777644647,1000.0,1000.0,0.0,117000,58.10731803894043,nan,-1129.574609375
118000,0,112.22091952411505,0.00048279762268066406,0.0001342296600341797,0.009925365447998047,117975.5,4.350354253963898,1000.0,118.0,1.287852224637795,0.10007339669541472,1000.0,1000.0,0.0,118000,58.04986541748047,nan,-1134.8477490234375
119000,0,112.70217880460514,0.0004153251647949219,0.00012636184692382812,0.009867191314697266,118975.5,2.4078756589024413,1000.0,119.0,1.390024523888243,0.2585895425725723,1000.0,1000.0,0.0,119000,58.02599075317383,nan,-1133.2182421875
120000,0,102.50886561656056,0.00046253204345703125,0.00017976760864257812,0.009693384170532227,119975.5,2.329547388488363,1000.0,120.0,1.3886219882601198,0.12803501107399162,1000.0,1000.0,0.0,120000,57.95203262329102,nan,-1136.38619140625
121000,0,108.29901789153945,0.0004551410675048828,0.00014853477478027344,0.010024785995483398,120975.5,1.858378013224003,1000.0,121.0,1.3593908039027356,0.09025223705331749,1000.0,1000.0,0.0,121000,57.376863632202145,nan,-1132.775771484375
122000,0,111.45625619156544,0.00043487548828125,0.0001518726348876953,0.009339094161987305,121975.5,2.2418500867637707,1000.0,122.0,1.2583723974669954,0.06771677206672944,1000.0,1000.0,0.0,122000,55.51139175415039,nan,-1133.662646484375
123000,0,113.5451678852351,0.0006144046783447266,0.00015687942504882812,0.012907266616821289,122975.5,2.1728444655151575,1000.0,123.0,1.288621595960033,0.08614152583335781,1000.0,1000.0,0.0,123000,55.10706535339355,nan,-1132.2514306640626
124000,0,113.6552555377856,0.0004744529724121094,0.0001423358917236328,0.009484529495239258,123975.5,2.02739932085049,1000.0,124.0,1.3275078619260272,0.22667285227983916,1000.0,1000.0,0.0,124000,45.86273223876953,nan,-1133.169873046875
125000,0,111.55995474090123,0.0004742145538330078,0.00013947486877441406,0.00969243049621582,124975.5,2.258786124180019,1000.0,125.0,1.4144581151124425,0.3142954087362523,1000.0,1000.0,0.0,125000,38.34624900817871,inf,-1128.5350439453125
126000,0,110.64026897828452,0.0006062984466552734,0.00016760826110839844,0.012155294418334961,125975.5,2.3672273287390273,1000.0,126.0,1.6443673320818593,1.0631317826234268,1000.0,1000.0,0.0,126000,50.954706039428714,inf,-1135.9998828125
127000,0,111.24784297208078,0.0004956722259521484,0.0001571178436279297,0.009557723999023438,126975.5,1.9289971308633251,1000.0,127.0,1.7160115073417583,0.8854929310450143,1000.0,1000.0,0.0,127000,45.38907196044922,inf,-1134.4354296875
128000,0,111.10103368919818,0.0004165172576904297,0.0001285076141357422,0.009785175323486328,127975.5,2.2211265807618594,1000.0,128.0,1.2432273818065789,0.13387510555709695,1000.0,1000.0,0.0,128000,44.31234100341797,inf,-1133.32826171875
129000,0,112.55332075317777,0.0005838871002197266,0.00014591217041015625,0.012207746505737305,128975.5,2.45016382460641,1000.0,129.0,1.57125281235404,0.7356738895186581,1000.0,1000.0,0.0,129000,55.791905899047855,inf,-1132.827177734375
130000,0,118.74480493743276,0.00046825408935546875,0.00012731552124023438,0.00989985466003418,129975.5,4.926075543647441,1000.0,130.0,1.3188886255593835,0.22581617249329888,1000.0,1000.0,0.0,130000,26.95752529144287,inf,-1130.3472119140624
131000,0,112.85853666936998,0.0004374980926513672,0.0001595020294189453,0.00935506820678711,130975.5,1.869721898594685,1000.0,131.0,1.5591123937927827,0.40897763454351377,1000.0,1000.0,0.0,131000,26.020108890533447,inf,-1135.949208984375
132000,0,110.79832942811178,0.0006778240203857422,0.00023126602172851562,0.01508188247680664,131975.5,2.1907385603340304,1000.0,132.0,1.4681842051131333,0.32667328041947974,1000.0,1000.0,0.0,132000,46.25958625793457,inf,-1134.9774560546875
133000,0,109.31901846247194,0.0006051063537597656,0.00017142295837402344,0.010009527206420898,132975.5,2.0459783050930787,1000.0,133.0,1.3401788106023713,0.18970638038758922,1000.0,1000.0,0.0,133000,40.076938438415525,inf,-1130.384521484375
134000,0,80.05692524286373,0.00046563148498535156,0.00013017654418945312,0.009814739227294922,133975.5,2.4728086396788815,1000.0,134.0,1.400876659148741,0.22405481157912943,1000.0,1000.0,0.0,134000,44.31465370178223,inf,-1129.86037109375
135000,0,112.71011361559877,0.0004947185516357422,0.00011539459228515625,0.008582592010498047,134975.5,2.374424069193532,1000.0,135.0,1.3280026356424517,0.238746455604752,1000.0,1000.0,0.0,135000,38.24804191589355,inf,-1130.3947802734374
136000,0,110.21990878216091,0.0004436969757080078,0.0001354217529296875,0.010016679763793945,135975.5,1.8722795953030213,1000.0,136.0,1.322218589545982,0.12189793944386006,1000.0,1000.0,0.0,136000,33.40694629669189,inf,-1135.025419921875
137000,0,109.63024299870565,0.0004544258117675781,0.0001347064971923828,0.00973367691040039,136975.5,2.032972354695459,1000.0,137.0,1.5907806913818536,0.9599176255629612,1000.0,1000.0,0.0,137000,29.500086402893068,inf,-1136.3624365234375
138000,0,113.01459814285799,0.000621795654296875,0.00016355514526367188,0.014265298843383789,137975.5,2.22658348150687,1000.0,138.0,1.3301218593762858,0.1377099925226758,1000.0,1000.0,0.0,138000,34.17240650177002,inf,-1132.482919921875
139000,0,89.22012289106702,0.0005781650543212891,0.000164031982421875,0.011481285095214844,138975.5,2.4094169274498665,1000.0,139.0,1.9481780580629806,1.283106621883383,1000.0,1000.0,0.0,139000,45.75187133789063,inf,-1129.286416015625
140000,0,92.73479726069678,0.0007421970367431641,0.0001976490020751953,0.01446843147277832,139975.5,2.3612007866563296,1000.0,140.0,1.317757171072388,0.3403250627637422,1000.0,1000.0,0.0,140000,42.182746505737306,inf,-1134.16259765625
141000,0,95.5347462522299,0.0005970001220703125,0.000164031982421875,0.011527538299560547,140975.5,1.771679874228707,1000.0,141.0,1.3179017991645854,0.13639430862532118,1000.0,1000.0,0.0,141000,43.649420471191405,inf,-1130.786611328125
142000,0,77.14817445774871,0.0005209445953369141,0.00013828277587890625,0.01008296012878418,141975.5,4.500139431057665,1000.0,142.0,1.6256012849203203,0.8877870372826158,1000.0,1000.0,0.0,142000,35.31511066436767,inf,-1136.206865234375
143000,0,111.70470761001744,0.0003993511199951172,0.00012135505676269531,0.009082794189453125,142975.5,1.9652870171628525,1000.0,143.0,1.3598583187824937,0.14153114563057834,1000.0,1000.0,0.0,143000,37.77616310119629,inf,-1130.50375
144000,0,109.51997484930997,0.0004985332489013672,0.0001373291015625,0.010550498962402344,143975.5,2.1320238909379183,1000.0,144.0,1.796921360445782,0.9579209528536577,1000.0,1000.0,0.0,144000,44.02297470092773,inf,-1131.0359326171874
145000,0,82.90678505493115,0.0004420280456542969,0.0001342296600341797,0.009041309356689453,144975.5,4.385088878943823,1000.0,145.0,1.4148786319502613,0.2856416770889209,1000.0,1000.0,0.0,145000,34.04558032989502,inf,-1134.8865966796875
146000,0,93.82059241821715,0.0004813671112060547,0.00015544891357421875,0.010094642639160156,145975.5,2.079838079320051,1000.0,146.0,1.4090103097254914,0.308462841082517,1000.0,1000.0,0.0,146000,35.47412971496582,inf,-1137.25455078125
147000,0,96.82526637715071,0.0004999637603759766,0.00018310546875,0.010370969772338867,146975.5,1.8972066765726405,1000.0,147.0,1.6931206374898171,0.9177196988811883,1000.0,1000.0,0.0,147000,42.37447967529297,inf,-1128.4492529296874
148000,0,101.43193912009697,0.000652313232421875,0.0001697540283203125,0.01395416259765625,147975.5,1.9699731033284582,1000.0,148.0,1.4568785923743368,0.34470067203011534,1000.0,1000.0,0.0,148000,43.1634487915039,inf,-1130.63041015625
149000,0,99.88687928280989,0.0005857944488525391,0.00014662742614746094,0.010787010192871094,148975.5,2.459400451758854,1000.0,149.0,1.311172180587937,0.14655561446292936,1000.0,1000.0,0.0,149000,41.6009822845459,inf,-1133.3198095703126
150000,0,73.05352759913416,0.0006589889526367188,0.00020194053649902344,0.010253429412841797,149975.5,2.2367856011474494,1000.0,150.0,1.604136436158915,0.9373205081323627,1000.0,1000.0,0.0,150000,38.960931358337405,inf,-1131.057294921875
151000,0,99.88178892130723,0.0005669593811035156,0.00014400482177734375,0.01051783561706543,150975.5,1.8503825854967704,1000.0,151.0,1.2426074081813,0.09423373636307482,1000.0,1000.0,0.0,151000,43.28929412841797,inf,-1134.0025439453125
152000,0,104.74374355076033,0.0005202293395996094,0.0001499652862548828,0.010350704193115234,151975.5,1.887626608569349,1000.0,152.0,1.301371112576808,0.046913821125552806,1000.0,1000.0,0.0,152000,40.47530128479004,inf,-1136.41857421875
153000,0,101.14819234223327,0.0005552768707275391,0.00014162063598632812,0.010406255722045898,152975.5,2.2478716264219694,1000.0,153.0,1.6739193852296068,0.9334168301482855,1000.0,1000.0,0.0,153000,32.242393264770506,inf,-1130.1099609375
154000,0,102.69494710883504,0.0006084442138671875,0.0002067089080810547,0.01120758056640625,153975.5,2.7411271277593627,1000.0,154.0,1.242298534449406,0.09352258938031173,1000.0,1000.0,0.0,154000,35.63696071624756,inf,-1132.712763671875
155000,0,105.13083504026966,0.0008285045623779297,0.00024580955505371094,0.016149282455444336,154975.5,1.8941150504683313,1000.0,155.0,1.5616555218491475,0.9315132345737165,1000.0,1000.0,0.0,155000,38.689732513427735,inf,-1135.1247021484376
156000,0,101.73302280410608,0.0005834102630615234,0.0001575946807861328,0.010621070861816406,155975.5,4.703454590601292,1000.0,156.0,1.6653696945086964,0.9450154420318428,1000.0,1000.0,0.0,156000,36.47807571411133,inf,-1129.564560546875
157000,0,107.0697684867038,0.0012497901916503906,0.0001983642578125,0.017563343048095703,156975.5,1.9322019024905843,1000.0,157.0,1.368717019894016,0.20558413409262305,1000.0,1000.0,0.0,157000,38.895095634460446,inf,-1132.5557275390624
158000,0,97.84883474077071,0.0004775524139404297,0.0001494884490966797,0.010256767272949219,157975.5,1.872057375928993,1000.0,158.0,1.2980983454437636,0.2661243747544047,1000.0,1000.0,0.0,158000,33.657745628356935,inf,-1134.938828125
159000,0,77.30803230113517,0.0004572868347167969,0.00013494491577148438,0.010281562805175781,158975.5,1.8627327861160212,1000.0,159.0,1.4632688035194812,0.34590237659237083,1000.0,1000.0,0.0,159000,39.23294132232666,inf,-1133.69287109375
160000,0,103.72456471731046,0.0005540847778320312,0.0001437664031982422,0.010437250137329102,159975.5,1.9336875230330834,1000.0,160.0,1.7143777553039938,0.8981219147337296,1000.0,1000.0,0.0,160000,35.82665287017822,inf,-1127.339375
161000,0,98.04714711429402,0.0006263256072998047,0.00015211105346679688,0.01153254508972168,160975.5,2.120018400803229,1000.0,161.0,1.5118885664339505,0.26912279105573844,1000.0,1000.0,0.0,161000,35.54844375610352,inf,-1130.2839697265624
162000,0,105.18709858632165,0.0005371570587158203,0.00014209747314453125,0.010246753692626953,161975.5,2.22127956527998,1000.0,162.0,1.3395947711453244,0.14668706219323766,1000.0,1000.0,0.0,162000,36.97479885101318,inf,-1127.75609375
163000,0,99.06717325673071,0.0005576610565185547,0.0001437664031982422,0.011377811431884766,162975.5,4.672560482829464,1000.0,163.0,1.888639707296134,1.2522444262213281,1000.0,1000.0,0.0,163000,43.2371265411377,inf,-1136.4001025390626
164000,0,105.84080818765926,0.0008976459503173828,0.00017762184143066406,0.014857292175292969,163975.5,2.1100281383860393,1000.0,164.0,1.3038694441200507,0.10565937789255252,1000.0,1000.0,0.0,164000,43.98215293884277,inf,-1132.7062939453126
165000,0,105.37483236466194,0.0004832744598388672,0.00013637542724609375,0.009919404983520508,164975.5,1.8904522044569045,1000.0,165.0,1.6755332440220343,0.963209233176308,1000.0,1000.0,0.0,165000,44.1036735534668,inf,-1132.1574560546876
166000,0,67.64993358077372,0.0005419254302978516,0.00014543533325195312,0.010693550109863281,165975.5,4.585037581154096,1000.0,166.0,1.3174794920360575,0.10134494226937726,1000.0,1000.0,0.0,166000,43.891587829589845,inf,-1134.3789892578125
167000,0,101.48092374336333,0.0005109310150146484,0.00014162063598632812,0.01040506362915039,166975.5,2.269588802201757,1000.0,167.0,2.1728059355470863,1.196620258643084,1000.0,1000.0,0.0,167000,38.41542808532715,inf,-1127.674248046875
168000,0,85.12419438245392,0.00045752525329589844,0.0001392364501953125,0.01008915901184082,167975.5,1.8572963684066488,1000.0,168.0,1.4282424277940498,0.28656429931376703,1000.0,1000.0,0.0,168000,43.407822875976564,inf,-1129.649775390625
169000,0,100.77248500295039,0.0007879734039306641,0.0001995563507080078,0.011199951171875,168975.5,2.2182969201716594,1000.0,169.0,1.5918500286967827,0.9707423012984624,1000.0,1000.0,0.0,169000,44.83327323913574,inf,-1130.3399755859375
170000,0,102.51352572086667,0.0005381107330322266,0.000141143798828125,0.011617898941040039,169975.5,2.243331699823905,1000.0,170.0,1.2547380054062036,0.12922315275826526,1000.0,1000.0,0.0,170000,44.70908729553223,inf,-1132.00107421875
171000,0,95.08099207126432,0.0008070468902587891,0.00020074844360351562,0.017305374145507812,170975.5,2.124000696124982,1000.0,171.0,1.2730995625302781,0.08913688832771967,1000.0,1000.0,0.0,171000,43.86888427734375,inf,-1131.6364892578124
172000,0,94.74734742468087,0.0006024837493896484,0.00015974044799804688,0.010822057723999023,171975.5,2.0727524650537346,1000.0,172.0,1.7674632637492285,0.897412827496578,1000.0,1000.0,0.0,172000,36.891857681274416,inf,-1132.0072265625
173000,0,94.33020736298035,0.0008614063262939453,0.00019598007202148438,0.016698122024536133,172975.5,2.075169234917754,1000.0,173.0,1.3254599393319406,0.13588934290933696,1000.0,1000.0,0.0,173000,37.41070735931397,inf,-1134.3002685546876
174000,0,99.12823579182216,0.0006062984466552734,0.00019502639770507812,0.012083768844604492,173975.5,1.8398559589541894,1000.0,174.0,1.3497255045907701,0.1951729965811979,1000.0,1000.0,0.0,174000,40.86895225524902,inf,-1130.2328857421876
175000,0,100.4600612776329,0.0006890296936035156,0.0001876354217529297,0.013605833053588867,174975.5,2.1317432295627903,1000.0,175.0,1.3235686228124293,0.2608097191553795,1000.0,1000.0,0.0,175000,42.4130224609375,inf,-1131.480712890625
176000,0,97.06174614245707,0.0005826950073242188,0.00014591217041015625,0.011407136917114258,175975.5,1.969803287565893,1000.0,176.0,1.7767482913834034,0.876264139686283,1000.0,1000.0,0.0,176000,43.09227897644043,nan,-1131.5117578125
177000,0,94.55587883477006,0.0007522106170654297,0.00019311904907226562,0.014737844467163086,176975.5,2.030788610797611,1000.0,177.0,1.306859242686331,0.10327331390716926,1000.0,1000.0,0.0,177000,38.8683390045166,nan,-1134.0648681640625
178000,0,96.54622511824559,0.000637054443359375,0.00014352798461914062,0.010287284851074219,177975.5,2.0933916881477552,1000.0,178.0,1.980242310696046,1.2494735293619803,1000.0,1000.0,0.0,178000,44.13892654418945,nan,-1128.99837890625
179000,0,97.34391521620665,0.0008115768432617188,0.00018930435180664062,0.015656232833862305,178975.5,2.0916904304362953,1000.0,179.0,1.3178150671694753,0.12287942362796163,1000.0,1000.0,0.0,179000,41.6761922454834,nan,-1132.3632958984374
180000,0,103.67221192880604,0.0005381107330322266,0.0001430511474609375,0.010275602340698242,179975.5,2.036593083476513,1000.0,180.0,2.2091731310247447,1.202179392905852,1000.0,1000.0,0.0,180000,42.92994743347168,nan,-1136.2390673828124
181000,0,78.06092405226316,0.0005395412445068359,0.0001461505889892578,0.010216236114501953,180975.5,2.0113912310504105,1000.0,181.0,1.3235485112238294,0.11781308101945252,1000.0,1000.0,0.0,181000,45.01317207336426,nan,-1130.483212890625
182000,0,96.75615847297829,0.0006289482116699219,0.0001506805419921875,0.011340141296386719,181975.5,1.944636943124521,1000.0,182.0,1.398909803355615,0.0992826271349356,1000.0,1000.0,0.0,182000,45.15681037902832,nan,-1131.7776220703124
183000,0,81.00455361691756,0.0005855560302734375,0.0001499652862548828,0.010759592056274414,182975.5,2.6017091820583094,1000.0,183.0,1.7375676993256577,0.8541003562443431,1000.0,1000.0,0.0,183000,45.118078079223636,nan,-1130.80109375
184000,0,96.79067775332673,0.0005915164947509766,0.00014591217041015625,0.011402606964111328,183975.5,2.402637559665073,1000.0,184.0,1.5981704236192271,0.9436612969441678,1000.0,1000.0,0.0,184000,46.83743110656738,nan,-1133.783662109375
185000,0,104.87118081791591,0.0005462169647216797,0.00015211105346679688,0.010558605194091797,184975.5,2.5413627276116646,1000.0,185.0,1.33903034518744,0.2280773741265856,1000.0,1000.0,0.0,185000,51.56590301513672,nan,-1132.67056640625
186000,0,102.88185682159803,0.0008988380432128906,0.00022292137145996094,0.015648603439331055,185975.5,2.3752747281551736,1000.0,186.0,1.3410642750565822,0.2051989348275198,1000.0,1000.0,0.0,186000,54.03425094604492,nan,-1128.5188330078124
187000,0,99.78322393025101,0.0006091594696044922,0.0001666545867919922,0.011137723922729492,186975.5,2.1435827515638772,1000.0,187.0,1.6159872348109932,0.8651537134984849,1000.0,1000.0,0.0,187000,56.15554695129394,nan,-1135.043232421875
188000,0,88.32612848772368,0.0005931854248046875,0.00014495849609375,0.010700702667236328,187975.5,4.548821898389815,1000.0,188.0,1.634641016716326,0.9618091674813595,1000.0,1000.0,0.0,188000,56.58006271362305,nan,-1130.35791015625
189000,0,106.19856933499295,0.0005745887756347656,0.00015807151794433594,0.010825395584106445,188975.5,2.4839926585306653,1000.0,189.0,1.8388834740822735,0.9365960268960293,1000.0,1000.0,0.0,189000,56.40644859313965,nan,-1132.2569677734375
190000,0,72.86374771861274,0.0005977153778076172,0.0001461505889892578,0.010912895202636719,189975.5,1.8907739044000498,1000.0,190.0,1.6878380490941527,0.9703526080179495,1000.0,1000.0,0.0,190000,56.50088012695313,nan,-1132.2110595703125
191000,0,100.44023831874173,0.0004780292510986328,0.0001418590545654297,0.010409116744995117,190975.5,4.430159984002377,1000.0,191.0,1.3792259993385403,0.11912666111158234,1000.0,1000.0,0.0,191000,56.3493017578125,nan,-1134.4884228515625
192000,0,96.25504590945705,0.0004918575286865234,0.00014066696166992188,0.010168790817260742,191975.5,2.1209408222340214,1000.0,192.0,1.2735027455726349,0.23842504702627013,1000.0,1000.0,0.0,192000,55.89426620483398,nan,-1133.5293115234374
193000,0,104.65556243671593,0.0005888938903808594,0.00014853477478027344,0.012960433959960938,192975.5,2.1971962139601513,1000.0,193.0,1.3589076711814367,0.12272785174038683,1000.0,1000.0,0.0,193000,55.176535568237306,nan,-1130.3899951171875
194000,0,102.01406008907706,0.0006530284881591797,0.00016164779663085938,0.011321067810058594,193975.5,1.9194499956116606,1000.0,194.0,1.5834643585955939,0.9047841940525545,1000.0,1000.0,0.0,194000,54.68815124511719,nan,-1126.069248046875
195000,0,98.83690077107931,0.0006673336029052734,0.00016307830810546875,0.018419265747070312,194975.5,1.9245304589791892,1000.0,195.0,1.4858550500793568,0.21372426598578645,1000.0,1000.0,0.0,195000,54.31301033020019,nan,-1134.73845703125
196000,0,104.46247070456,0.0006232261657714844,0.0001506805419921875,0.011796951293945312,195975.5,1.9480343239111233,1000.0,196.0,1.315628752932399,0.1432182201724173,1000.0,1000.0,0.0,196000,54.12633445739746,nan,-1133.531572265625
197000,0,68.47228412142583,0.0005629062652587891,0.00015115737915039062,0.010283708572387695,196975.5,2.0104437228719023,1000.0,197.0,1.6734257566606885,0.9339990170339616,1000.0,1000.0,0.0,197000,53.513904113769534,nan,-1130.2921484375
198000,0,95.80201073708754,0.0005099773406982422,0.0001399517059326172,0.010157108306884766,197975.5,1.8069480930627009,1000.0,198.0,1.424554968170113,0.23717418766628026,1000.0,1000.0,0.0,198000,53.51773078918457,nan,-1131.42603515625
199000,0,78.39257892517621,0.0006108283996582031,0.0001494884490966797,0.010863542556762695,198975.5,2.3447283554554503,1000.0,199.0,1.6955258543256952,0.9302175127393114,1000.0,1000.0,0.0,199000,53.39182243347168,nan,-1130.5846875
200000,0,99.86119490473399,0.00054931640625,0.00014495849609375,0.011341571807861328,199975.5,2.008989191807328,1000.0,200.0,1.3333452122170857,0.2130619776371893,1000.0,1000.0,0.0,200000,52.93346450805664,nan,-1131.206494140625
