niicovila/Q-Reps/dev/lightning_research_framework/results/XTD3_TEST/td3_7/log.csv
time/steps,time/epochs,time/steps_per_second,time/dataset,time/preprocess,time/train_step,train/env_steps,train/reward,train/length,train/num_ep,eval/reward,eval/stddev,eval/length,eval/discount,eval/early_termination,step,train/q_loss,train/target_q,train/actor_loss
3000,0,105.64683467846548,0.0006208419799804688,0.00015997886657714844,0.01307225227355957,2975.5,2.510695878127634,1000.0,3.0,0.9397335131068323,0.04331509994415982,1000.0,1000.0,0.0,3000,-22.36827838897705,0.004331486691371538,-0.08783143550157547
4000,0,99.68305273264824,0.0005545616149902344,0.0001773834228515625,0.010999679565429688,3975.5,3.0820901028546293,1000.0,4.0,1.0683036967112223,0.0978247583058306,1000.0,1000.0,0.0,4000,-25.929198112487793,0.08061018124222756,-0.1016414913535118
5000,0,72.67777212508682,0.0005185604095458984,0.00014090538024902344,0.010485172271728516,4975.5,2.4634855192809226,1000.0,5.0,7.271098513159977,0.5179597018868015,1000.0,1000.0,0.0,5000,-27.191283836364747,0.04865664854645729,-0.045460306107997894
6000,0,100.05820799529755,0.0005965232849121094,0.0001480579376220703,0.010960578918457031,5975.5,4.412298215260368,1000.0,6.0,1.2183761292245028,0.09687238839468681,1000.0,1000.0,0.0,6000,-27.11021728515625,0.022253066040575503,-0.022621759213507175
7000,0,83.74144178175456,0.0005154609680175781,0.00014138221740722656,0.010488033294677734,6975.5,3.311423826295468,1000.0,7.0,1.289282222500276,0.19113921475561343,1000.0,1000.0,0.0,7000,-26.77011070251465,0.02213953426107764,-0.038198131024837496
8000,0,105.57423792704881,0.0005075931549072266,0.00014090538024902344,0.011190176010131836,7975.5,5.579980830021153,1000.0,8.0,1.3155299193087506,0.24177228780319746,1000.0,1000.0,0.0,8000,-26.161242218017577,0.04968207236379385,-0.07157833740115166
9000,0,98.68240074949898,0.0005309581756591797,0.0001964569091796875,0.011217832565307617,8975.5,4.00855487214129,1000.0,9.0,1.4726342029200163,0.2197242001139707,1000.0,1000.0,0.0,9000,-25.319102592468262,0.08470014080405236,-0.1090690702199936
10000,0,105.05462995848714,0.0005559921264648438,0.00014400482177734375,0.010488510131835938,9975.5,3.1436025322991163,1000.0,10.0,1.179935122745892,0.07102220097322827,1000.0,1000.0,0.0,10000,-25.064529571533203,0.11448843955993653,-0.13498737543821335
11000,0,101.35747306150363,0.00049591064453125,0.0001385211944580078,0.01003122329711914,10975.5,2.7324158981534348,1000.0,11.0,1.200100695042622,0.10142504212315011,1000.0,1000.0,0.0,11000,-24.74141242980957,0.12928822085261346,-0.143241468667984
12000,0,102.07458741151865,0.0007405281066894531,0.00018668174743652344,0.014559268951416016,11975.5,3.2100660694109493,1000.0,12.0,1.2344805622825632,0.1140520650539194,1000.0,1000.0,0.0,12000,-24.68053997039795,0.1419154077768326,-0.1576285645365715
13000,0,105.19728202365438,0.00045871734619140625,0.00018930435180664062,0.009816169738769531,12975.5,19.60217548513161,1000.0,13.0,27.88976876854871,7.1561675494730075,1000.0,1000.0,0.0,13000,-23.77794017791748,0.32093282401561735,-0.4507102930545807
14000,0,79.47641082195467,0.0005772113800048828,0.0001494884490966797,0.01095724105834961,13975.5,17.005586058946022,1000.0,14.0,6.74558873138749,0.422514298794325,1000.0,1000.0,0.0,14000,-23.23328853607178,0.5487902867794037,-0.6841469264030456
15000,0,100.37370581388225,0.0005431175231933594,0.0001437664031982422,0.010489463806152344,14975.5,45.72098821086717,1000.0,15.0,90.98742874527032,19.404263195584132,1000.0,1000.0,0.0,15000,-21.545740089416505,0.7398452496528626,-0.8245382452011109
16000,0,99.39697849398661,0.0005865097045898438,0.0001461505889892578,0.0107421875,15975.5,82.38871695265858,1000.0,16.0,3.2684998489150283,2.5309771330975286,1000.0,1000.0,0.0,16000,-20.23347911834717,0.9277379965782165,-1.0571535968780517
17000,0,101.2742633760953,0.0005750656127929688,0.00014352798461914062,0.010623693466186523,16975.5,113.6574980465506,1000.0,17.0,91.48901094920481,21.671344909768706,1000.0,1000.0,0.0,17000,-19.645856819152833,1.282528328895569,-1.4338662481307984
18000,0,101.73603329054617,0.0004906654357910156,0.0001533031463623047,0.010396003723144531,17975.5,51.92302670980705,1000.0,18.0,100.16102121133314,18.686627408814797,1000.0,1000.0,0.0,18000,-19.23627067565918,1.4429007911682128,-1.5705406475067138
19000,0,100.94992919094761,0.0007281303405761719,0.0010504722595214844,0.015720367431640625,18975.5,79.7053067556849,1000.0,19.0,89.40368873381064,42.92283107352234,1000.0,1000.0,0.0,19000,-17.807963275909422,1.7128098917007446,-1.8418095159530639
20000,0,100.97500989454485,0.0007288455963134766,0.00020313262939453125,0.011990547180175781,19975.5,96.35341117876135,1000.0,20.0,10.0924184934922,9.600110530200917,1000.0,1000.0,0.0,20000,-17.111879196166992,1.881575689315796,-2.070269465446472
21000,0,76.38336937332662,0.0004992485046386719,0.00015282630920410156,0.01005697250366211,20975.5,34.343090421716205,1000.0,21.0,65.31088217737233,11.455769083513701,1000.0,1000.0,0.0,21000,-17.03772169113159,2.0369963693618773,-2.2257377338409423
22000,0,103.5410241079553,0.0005497932434082031,0.00019311904907226562,0.010950565338134766,21975.5,81.62567916330029,1000.0,22.0,72.43170785979876,10.251327868225786,1000.0,1000.0,0.0,22000,-16.548910007476806,2.3153448820114138,-2.5215747451782224
23000,0,102.84013367758007,0.0005548000335693359,0.0001456737518310547,0.010621070861816406,22975.5,156.0293588904725,1000.0,23.0,116.3282075441667,50.675839375610074,1000.0,1000.0,0.0,23000,-16.08165008544922,2.6801414918899535,-2.8736242866516113
24000,0,101.36614451821461,0.0005176067352294922,0.00015616416931152344,0.010449647903442383,23975.5,108.57647569814492,1000.0,24.0,95.28869364920638,30.557228114574354,1000.0,1000.0,0.0,24000,-15.917870998382568,2.9620729541778563,-3.1494333267211916
25000,0,101.63742157232406,0.0005180835723876953,0.00014138221740722656,0.010021686553955078,24975.5,87.66627428388234,1000.0,25.0,109.2239029690198,19.343128486138184,1000.0,1000.0,0.0,25000,-16.081029300689696,3.126298050880432,-3.2553568267822266
26000,0,106.49231020784553,0.0007295608520507812,0.00020813941955566406,0.014836788177490234,25975.5,137.94149026238026,1000.0,26.0,80.59616176188987,30.42971557867257,1000.0,1000.0,0.0,26000,-15.8594362449646,3.305389199256897,-3.456856336593628
27000,0,104.52812734261607,0.0005702972412109375,0.00014662742614746094,0.010806560516357422,26975.5,69.57946332535391,1000.0,27.0,101.41632659496109,38.23849079222201,1000.0,1000.0,0.0,27000,-15.745285663604736,3.397911047935486,-3.546134090423584
28000,0,75.25007983752614,0.0004820823669433594,0.0001347064971923828,0.01015782356262207,27975.5,123.58191847757301,1000.0,28.0,141.35903543089265,22.683117428107344,1000.0,1000.0,0.0,28000,-15.477407512664795,3.6066878604888917,-3.8088511085510253
29000,0,102.38770147726396,0.0005910396575927734,0.00015425682067871094,0.010925769805908203,28975.5,99.36017438188476,1000.0,29.0,159.525237609611,16.269379763589846,1000.0,1000.0,0.0,29000,-15.293428058624267,3.800125494003296,-4.005685739517212
30000,0,100.32348030750242,0.0006279945373535156,0.00018024444580078125,0.010364294052124023,29975.5,137.95585890454802,1000.0,30.0,160.59318573008775,37.111040078954474,1000.0,1000.0,0.0,30000,-15.014816150665283,4.048484835624695,-4.3103187370300295
31000,0,101.77049383986164,0.0007348060607910156,0.0002162456512451172,0.01535654067993164,30975.5,146.41634959955184,1000.0,31.0,192.42556091121017,23.885192556169248,1000.0,1000.0,0.0,31000,-14.959218196868896,4.313579406738281,-4.582415294647217
32000,0,100.75234495256288,0.0005428791046142578,0.00014281272888183594,0.010396242141723633,31975.5,160.02010323484694,1000.0,32.0,172.62524180486474,20.943766553006988,1000.0,1000.0,0.0,32000,-14.748582668304444,4.535454196929932,-4.811102523803711
33000,0,75.08664592893028,0.0005767345428466797,0.0001456737518310547,0.010597705841064453,32975.5,177.069658232204,1000.0,33.0,168.85088509786348,43.81504043056788,1000.0,1000.0,0.0,33000,-14.451420631408691,4.82099536895752,-5.050509643554688
34000,0,104.34879527424279,0.0005221366882324219,0.00013446807861328125,0.01081991195678711,33975.5,159.60818216842006,1000.0,34.0,147.55154599050198,44.21844611544758,1000.0,1000.0,0.0,34000,-14.381552848815918,5.014067859649658,-5.282829360961914
35000,0,104.73866924107676,0.0005791187286376953,0.00014734268188476562,0.010852813720703125,34975.5,177.30576800193316,1000.0,35.0,165.3733887922549,45.981222237318875,1000.0,1000.0,0.0,35000,-14.266292343139648,5.2311562824249265,-5.456793727874756
36000,0,100.4288388499744,0.0007257461547851562,0.00021123886108398438,0.010802030563354492,35975.5,98.20786189676784,1000.0,36.0,122.50601257337753,53.03469418384886,1000.0,1000.0,0.0,36000,-14.144416942596436,5.366220684051513,-5.703191604614258
37000,0,104.30379897931931,0.00047397613525390625,0.0001800060272216797,0.014610767364501953,36975.5,180.7058387288433,1000.0,37.0,115.27466928576305,52.52165996024562,1000.0,1000.0,0.0,37000,-14.110582084655762,5.579617214202881,-5.886055278778076
38000,0,106.13654537172934,0.0006787776947021484,0.0002009868621826172,0.01340627670288086,37975.5,95.6833841312036,1000.0,38.0,147.79368994886528,40.854528826658004,1000.0,1000.0,0.0,38000,-13.928817062377929,5.7401588344573975,-6.041963348388672
39000,0,104.68183919199664,0.0005574226379394531,0.00017380714416503906,0.010298013687133789,38975.5,214.53160703107125,1000.0,39.0,106.21884393481214,47.762898486541985,1000.0,1000.0,0.0,39000,-13.576795692443847,6.032396945953369,-6.3691616630554195
40000,0,74.01512664951419,0.0005128383636474609,0.00023555755615234375,0.010227441787719727,39975.5,69.02761500055892,1000.0,40.0,153.09201693295478,55.26709273192546,1000.0,1000.0,0.0,40000,-13.733417892456055,6.165642728805542,-6.519687690734863
41000,0,102.25914402085799,0.0005257129669189453,0.00014090538024902344,0.010209798812866211,40975.5,64.88834945572513,1000.0,41.0,153.71074891834806,71.7969671289289,1000.0,1000.0,0.0,41000,-13.561159114837647,6.247156991958618,-6.551934394836426
42000,0,101.07443445554614,0.0006155967712402344,0.00018787384033203125,0.010131359100341797,41975.5,153.26326212253306,1000.0,42.0,129.4001071570921,64.50307864175937,1000.0,1000.0,0.0,42000,-13.430711841583252,6.5053477954864505,-6.8258931350708005
43000,0,105.93881151027385,0.0006568431854248047,0.00018835067749023438,0.013483524322509766,42975.5,209.31384358225125,1000.0,43.0,151.77920961213636,66.25246467302432,1000.0,1000.0,0.0,43000,-13.305437088012695,6.790613250732422,-7.085827579498291
44000,0,111.13111832619097,0.00044989585876464844,0.0002739429473876953,0.009981155395507812,43975.5,100.1783737541118,1000.0,44.0,143.59214934060753,90.87834013868597,1000.0,1000.0,0.0,44000,-13.36688440322876,6.92654580116272,-7.183640670776367
45000,0,76.36912784183086,0.00054931640625,0.00013899803161621094,0.010002851486206055,44975.5,71.5667508021691,1000.0,45.0,117.25861820521861,40.48489250301316,1000.0,1000.0,0.0,45000,-13.261312046051025,7.040798749923706,-7.294348106384278
46000,0,107.82887866608326,0.0005388259887695312,0.0001575946807861328,0.010293722152709961,45975.5,62.1433295659546,1000.0,46.0,110.98586696996858,68.7651139318232,1000.0,1000.0,0.0,46000,-13.19821002960205,7.145701265335083,-7.427166481018066
47000,0,114.36174737755945,0.0006098747253417969,0.00015044212341308594,0.010436534881591797,46975.5,90.59702672010852,1000.0,47.0,118.73855271014138,81.19650277602128,1000.0,1000.0,0.0,47000,-12.990417213439942,7.240839910507202,-7.538710823059082
48000,0,104.46371954545387,0.0005166530609130859,0.00014710426330566406,0.011982917785644531,47975.5,56.79273440611843,1000.0,48.0,122.23454616914732,74.51672828533701,1000.0,1000.0,0.0,48000,-12.979443130493165,7.350671625137329,-7.720525150299072
49000,0,120.76848568332042,0.000591278076171875,0.000148773193359375,0.011029243469238281,48975.5,99.87828055579418,1000.0,49.0,153.84555048726628,47.57610591154372,1000.0,1000.0,0.0,49000,-12.774783782958984,7.4779290676116945,-7.812973289489746
50000,0,117.48632226677826,0.0004851818084716797,0.00014352798461914062,0.00899052619934082,49975.5,114.23919261343393,1000.0,50.0,120.58368321677094,45.46698193309731,1000.0,1000.0,0.0,50000,-12.777994289398194,7.645240640640258,-7.859342803955078
51000,0,117.65611447665619,0.0005362033843994141,0.0001475811004638672,0.011688232421875,50975.5,67.99683325306921,1000.0,51.0,127.0621064620486,64.71111630123033,1000.0,1000.0,0.0,51000,-12.765866203308105,7.6928922557830814,-7.989950981140137
52000,0,121.36942476104052,0.00043702125549316406,0.00014591217041015625,0.010341405868530273,51975.5,56.152889268898875,1000.0,52.0,159.3089870771178,84.25579090934875,1000.0,1000.0,0.0,52000,-12.73558500289917,7.824503469467163,-8.089228134155274
53000,0,119.70865584400758,0.00045609474182128906,0.00012636184692382812,0.009088516235351562,52975.5,195.45904934010795,1000.0,53.0,117.674443228802,87.46891700742854,1000.0,1000.0,0.0,53000,-12.68282777786255,7.983344554901123,-8.279292221069335
54000,0,93.29681808394592,0.00041747093200683594,0.00013256072998046875,0.009360313415527344,53975.5,54.969694387777594,1000.0,54.0,136.10885477686966,47.86119966883243,1000.0,1000.0,0.0,54000,-12.606604824066162,8.074010887145995,-8.421035995483399
55000,0,118.15519971964824,0.00038552284240722656,0.0001361370086669922,0.009278535842895508,54975.5,292.84230734519093,1000.0,55.0,177.8606245168217,73.72488155471434,1000.0,1000.0,0.0,55000,-12.6247731590271,8.353061180114747,-8.679080848693848
56000,0,119.1725467265157,0.0004801750183105469,0.0001347064971923828,0.010159969329833984,55975.5,159.25338877226656,1000.0,56.0,145.81893947446224,75.7923527175811,1000.0,1000.0,0.0,56000,-12.495876007080078,8.52875521659851,-8.901262397766112
57000,0,114.08291491456642,0.00041794776916503906,0.0001270771026611328,0.009236335754394531,56975.5,110.07860746436484,1000.0,57.0,181.00517732895545,71.187693405298,1000.0,1000.0,0.0,57000,-12.416431522369384,8.60690912246704,-8.938393287658691
58000,0,121.23127829319657,0.0005013942718505859,0.00014400482177734375,0.011320114135742188,57975.5,82.73918425910972,1000.0,58.0,173.55252734315934,81.24339360657201,1000.0,1000.0,0.0,58000,-12.572399253845214,8.719348602294922,-9.047586822509766
59000,0,119.0818698075806,0.0005035400390625,0.00013875961303710938,0.009682893753051758,58975.5,139.89386438036047,1000.0,59.0,226.12597891262016,62.1885138171531,1000.0,1000.0,0.0,59000,-12.553309116363526,8.799606418609619,-9.046210670471192
60000,0,105.71558770985317,0.0004482269287109375,0.0001366138458251953,0.00912165641784668,59975.5,168.66645309718916,1000.0,60.0,91.14760909618812,76.39227376931129,1000.0,1000.0,0.0,60000,-12.359117755889892,8.955826740264893,-9.296207160949708
61000,0,109.16418154400164,0.0006346702575683594,0.0001704692840576172,0.01664423942565918,60975.5,57.241812127928796,1000.0,61.0,115.68566479826293,66.05686276752284,1000.0,1000.0,0.0,61000,-12.229506893157959,9.05019287109375,-9.345841407775879
62000,0,120.00052643053206,0.0004680156707763672,0.00012922286987304688,0.009865522384643555,61975.5,115.31231153582644,1000.0,62.0,167.17536086099867,68.8282524001174,1000.0,1000.0,0.0,62000,-12.353069286346436,9.10741147994995,-9.507789421081544
63000,0,117.01485874981168,0.00046324729919433594,0.0001475811004638672,0.00897836685180664,62975.5,117.22062799476132,1000.0,63.0,218.2511979717239,73.00170400214273,1000.0,1000.0,0.0,63000,-12.311092338562013,9.187232761383056,-9.404895248413085
64000,0,81.62369959362361,0.0003616809844970703,0.00015854835510253906,0.008969306945800781,63975.5,183.31869296605075,1000.0,64.0,167.6601956982331,66.4628273129632,1000.0,1000.0,0.0,64000,-12.215805053710938,9.228625202178955,-9.48173542022705
65000,0,117.30835709722855,0.00042819976806640625,0.00013518333435058594,0.009036064147949219,64975.5,249.09354087556588,1000.0,65.0,133.70444248342568,40.387897152544475,1000.0,1000.0,0.0,65000,-12.182878112792968,9.426837120056152,-9.740569000244141
66000,0,118.85436549857408,0.0004451274871826172,0.0001761913299560547,0.009091854095458984,65975.5,254.6289740468175,1000.0,66.0,197.47357654127978,67.57660851216676,1000.0,1000.0,0.0,66000,-11.992897853851318,9.61784906387329,-9.978699722290038
67000,0,117.13125736904395,0.00046825408935546875,0.0001385211944580078,0.008944272994995117,66975.5,68.48885810762476,1000.0,67.0,240.067158451488,71.9957496095444,1000.0,1000.0,0.0,67000,-12.122306632995606,9.579019985198975,-9.892897567749024
68000,0,119.18907291034984,0.0006046295166015625,0.00016999244689941406,0.012498617172241211,67975.5,239.81034711585573,1000.0,68.0,193.2146160208548,97.05535788940172,1000.0,1000.0,0.0,68000,-12.115775566101075,9.874538497924805,-10.166373672485351
69000,0,121.99766144466874,0.00039315223693847656,0.0001201629638671875,0.009166955947875977,68975.5,101.96834813790466,1000.0,69.0,188.55179701157047,77.89166558721098,1000.0,1000.0,0.0,69000,-12.05170955657959,9.777805728912353,-10.027609481811524
70000,0,113.94871321182221,0.00040721893310546875,0.000125885009765625,0.009137630462646484,69975.5,301.6455815830249,1000.0,70.0,179.22455712080765,70.81628742519067,1000.0,1000.0,0.0,70000,-12.099118213653565,10.025512790679931,-10.331448135375977
71000,0,83.67408334244358,0.00040221214294433594,0.00011944770812988281,0.009043216705322266,70975.5,327.0060105243411,1000.0,71.0,249.19508824980852,80.996398274518,1000.0,1000.0,0.0,71000,-12.05143201828003,10.308207721710206,-10.613245010375977
72000,0,119.10635250312511,0.0004494190216064453,0.0001163482666015625,0.009389638900756836,71975.5,274.16220594278593,1000.0,72.0,171.3666425576772,52.40656476241646,1000.0,1000.0,0.0,72000,-11.873240604400635,10.514195156097411,-10.891633567810059
73000,0,118.74675480204363,0.00044846534729003906,0.00012826919555664062,0.009037256240844727,72975.5,306.8719425293441,1000.0,73.0,138.39862045115402,69.95663837751471,1000.0,1000.0,0.0,73000,-11.834137020111084,10.686433124542237,-10.934119911193848
74000,0,116.47596059321233,0.0004470348358154297,0.0001475811004638672,0.014045953750610352,73975.5,243.7719403734314,1000.0,74.0,156.21510775793735,31.78746684168865,1000.0,1000.0,0.0,74000,-11.815799770355225,10.96518918991089,-11.195212020874024
75000,0,119.14844297282511,0.0005180835723876953,0.0001380443572998047,0.011454105377197266,74975.5,134.28438556730782,1000.0,75.0,256.6715486699409,73.15309539008405,1000.0,1000.0,0.0,75000,-11.84126699447632,10.95661952972412,-11.125856361389161
76000,0,118.78462176325455,0.0004105567932128906,0.00011467933654785156,0.00905299186706543,75975.5,181.05986938856168,1000.0,76.0,211.12308649601877,60.39653248968167,1000.0,1000.0,0.0,76000,-11.871836738586426,10.998126316070557,-11.309798431396484
77000,0,118.89641284282999,0.00043773651123046875,0.00017976760864257812,0.009596824645996094,76975.5,303.1717689048601,1000.0,77.0,180.21624242817748,62.50888799800738,1000.0,1000.0,0.0,77000,-11.93948709487915,11.26320369720459,-11.44701930999756
78000,0,92.00956795052464,0.0003952980041503906,0.00013709068298339844,0.009103536605834961,77975.5,143.90550850777646,1000.0,78.0,185.41938900858858,71.59554315540171,1000.0,1000.0,0.0,78000,-12.01699254989624,11.276183547973632,-11.567414283752441
79000,0,115.68342879144677,0.0003590583801269531,0.00011444091796875,0.008678197860717773,78975.5,107.48494351913426,1000.0,79.0,229.66418998245223,61.05439585694695,1000.0,1000.0,0.0,79000,-12.029112758636474,11.346261386871339,-11.53411075592041
80000,0,117.31800384766211,0.0003871917724609375,0.00012135505676269531,0.009299516677856445,79975.5,228.92344328078048,1000.0,80.0,163.49894589909775,34.69555032485995,1000.0,1000.0,0.0,80000,-11.833474178314209,11.41028226852417,-11.679820709228515
81000,0,117.12059475302023,0.0004069805145263672,0.00012803077697753906,0.009506702423095703,80975.5,198.98331410338142,1000.0,81.0,276.78096117885013,76.64004602781739,1000.0,1000.0,0.0,81000,-11.793047695159911,11.632239151000977,-11.841037330627442
82000,0,122.11771830526635,0.0005869865417480469,0.0001666545867919922,0.011887073516845703,81975.5,193.6129993389404,1000.0,82.0,272.6567803768647,84.87215477372061,1000.0,1000.0,0.0,82000,-11.889220905303954,11.551870956420899,-11.800238494873048
83000,0,117.57761690752352,0.0004341602325439453,0.00012421607971191406,0.009027957916259766,82975.5,212.74448715195513,1000.0,83.0,172.311806675477,37.124305897113395,1000.0,1000.0,0.0,83000,-11.923332138061523,11.689944038391113,-11.910856857299805
84000,0,120.83250268209123,0.00039768218994140625,0.00012540817260742188,0.009333133697509766,83975.5,251.92413611209386,1000.0,84.0,247.23501797094872,81.36420869970306,1000.0,1000.0,0.0,84000,-11.784618797302246,11.941980609893799,-12.09105194091797
85000,0,87.78051522632505,0.00060272216796875,0.00018787384033203125,0.013550519943237305,84975.5,106.47262120776608,1000.0,85.0,198.03395026424602,48.74000464514874,1000.0,1000.0,0.0,85000,-11.768556938171386,11.844303646087646,-12.104249000549316
86000,0,118.46489213810526,0.000392913818359375,0.00015354156494140625,0.009247541427612305,85975.5,196.2173222312794,1000.0,86.0,177.7527984058105,71.2677089567211,1000.0,1000.0,0.0,86000,-11.765981521606445,12.004769458770753,-12.360164184570312
87000,0,119.16638444596478,0.00044608116149902344,0.00014257431030273438,0.008870601654052734,86975.5,146.30259900894725,1000.0,87.0,193.94640530385576,35.39384123337273,1000.0,1000.0,0.0,87000,-11.687889366149902,11.981184368133546,-12.308618698120117
88000,0,119.4200376513142,0.0003769397735595703,0.00011873245239257812,0.009081125259399414,87975.5,171.54614369310036,1000.0,88.0,236.39732292499812,75.2341374009389,1000.0,1000.0,0.0,88000,-11.662790298461914,12.06338306427002,-12.316595993041993
89000,0,120.11413738870058,0.0006890296936035156,0.00019359588623046875,0.01151895523071289,88975.5,133.7458306544494,1000.0,89.0,180.72459357822223,36.12064366046173,1000.0,1000.0,0.0,89000,-11.738641338348389,12.008470458984375,-12.348381729125977
90000,0,118.74937713472916,0.0004646778106689453,0.0001270771026611328,0.009312868118286133,89975.5,151.7859967065723,1000.0,90.0,184.64778755887886,29.651478968306048,1000.0,1000.0,0.0,90000,-11.652436256408691,12.147928714752197,-12.504296531677246
91000,0,120.51891210974989,0.0003819465637207031,0.0001270771026611328,0.009181737899780273,90975.5,163.31665020005397,1000.0,91.0,228.86398873098045,79.33333020413986,1000.0,1000.0,0.0,91000,-11.603358573913575,12.269094829559327,-12.667790603637695
92000,0,88.89989164918754,0.0004363059997558594,0.0001842975616455078,0.009227514266967773,91975.5,351.8629462012683,1000.0,92.0,226.86861024010054,56.22054709444912,1000.0,1000.0,0.0,92000,-11.758493633270264,12.343062591552734,-12.650042457580566
93000,0,114.453120736289,0.0004379749298095703,0.00013518333435058594,0.009123086929321289,92975.5,180.71985281615068,1000.0,93.0,250.03503942897274,56.03150581906134,1000.0,1000.0,0.0,93000,-11.67939655303955,12.397496929168701,-12.729708557128907
94000,0,116.41427822827757,0.00039267539978027344,0.00012040138244628906,0.00908207893371582,93975.5,205.79277072423275,1000.0,94.0,187.4482533620739,48.04103881360756,1000.0,1000.0,0.0,94000,-11.544227542877197,12.464303798675537,-12.864118728637695
95000,0,117.05992676609806,0.0004563331604003906,0.00013446807861328125,0.009009599685668945,94975.5,184.27351876602495,1000.0,95.0,206.3106292248016,65.29605339950406,1000.0,1000.0,0.0,95000,-11.497491493225098,12.499708766937255,-12.835096435546875
96000,0,118.82729305321513,0.0005092620849609375,0.0001494884490966797,0.011615991592407227,95975.5,190.8139609498261,1000.0,96.0,258.49418314477333,96.28708745328589,1000.0,1000.0,0.0,96000,-11.488080539703368,12.61086290359497,-13.090671615600586
97000,0,115.15543209259648,0.0004286766052246094,0.00014472007751464844,0.009218931198120117,96975.5,251.98269000191658,1000.0,97.0,220.17974105732227,79.70709418889886,1000.0,1000.0,0.0,97000,-11.397033596038819,12.70821985244751,-13.079604034423829
98000,0,115.35375337317892,0.0004849433898925781,0.00013709068298339844,0.009401798248291016,97975.5,269.4056111123946,1000.0,98.0,231.0680620576934,79.1183321726339,1000.0,1000.0,0.0,98000,-11.43882936477661,12.837097644805908,-13.165872306823731
99000,0,91.09418029867344,0.0003821849822998047,0.000156402587890625,0.00932002067565918,98975.5,260.77673458838177,1000.0,99.0,199.11703163810304,94.34178977994634,1000.0,1000.0,0.0,99000,-11.277795238494873,12.850871276855468,-13.295119018554688
100000,0,120.38580365620261,0.0004055500030517578,0.0001201629638671875,0.009157419204711914,99975.5,190.77814367186292,1000.0,100.0,235.16707643313083,97.63585738116895,1000.0,1000.0,0.0,100000,-11.323933849334717,12.950484199523926,-13.283927154541015
101000,0,120.58710219778071,0.00040793418884277344,0.00012493133544921875,0.009019613265991211,100975.5,257.0108389420603,1000.0,101.0,321.9699802994716,80.07821584271274,1000.0,1000.0,0.0,101000,-11.214844512939454,13.10043125152588,-13.592646751403809
102000,0,117.49751239321219,0.00046825408935546875,0.00013136863708496094,0.009597063064575195,101975.5,278.6964292530838,1000.0,102.0,210.24279345050317,85.12862853229937,1000.0,1000.0,0.0,102000,-11.215191040039063,13.46595136642456,-13.700319252014161
103000,0,119.5023092418108,0.00041961669921875,0.00015735626220703125,0.011029958724975586,102975.5,201.2502411252948,1000.0,103.0,329.37703883313867,82.4702937945069,1000.0,1000.0,0.0,103000,-11.119337368011475,13.463393783569336,-13.744284210205079
104000,0,117.98814690456874,0.00043892860412597656,0.00013971328735351562,0.00897526741027832,103975.5,125.8064947121328,1000.0,104.0,278.14430060116104,82.35022598829819,1000.0,1000.0,0.0,104000,-11.175352611541747,13.529214839935303,-13.84423526763916
105000,0,114.3650527475344,0.0004227161407470703,0.00012636184692382812,0.008992910385131836,104975.5,372.05517958163273,1000.0,105.0,336.50371741742725,32.176732608423855,1000.0,1000.0,0.0,105000,-11.116791820526123,13.822927742004394,-14.201685333251953
106000,0,84.65898264798302,0.0004887580871582031,0.0001354217529296875,0.009356260299682617,105975.5,159.54354056621844,1000.0,106.0,384.1243513707926,10.77787707948288,1000.0,1000.0,0.0,106000,-11.154114894866943,13.774428443908691,-14.196849327087403
107000,0,118.26667568969795,0.0004458427429199219,0.00019550323486328125,0.009890556335449219,106975.5,331.49146184775077,1000.0,107.0,346.0947773558288,10.862509867353094,1000.0,1000.0,0.0,107000,-11.174500656127929,13.962991275787353,-14.25607753753662
108000,0,119.90392372444794,0.0004673004150390625,0.00015807151794433594,0.009281396865844727,107975.5,373.48454518065785,1000.0,108.0,357.4133955316375,63.681783372813584,1000.0,1000.0,0.0,108000,-11.037645530700683,14.226299018859864,-14.476731643676757
109000,0,121.11547526437586,0.0004153251647949219,0.0001423358917236328,0.009488344192504883,108975.5,389.12355804621814,1000.0,109.0,381.85580651417723,15.132928750623266,1000.0,1000.0,0.0,109000,-11.206926593780517,14.512973937988281,-14.812699127197266
110000,0,101.38510931345937,0.00040030479431152344,0.00012087821960449219,0.008960723876953125,109975.5,423.29062968828407,1000.0,110.0,428.45761847755205,23.108408107644966,1000.0,1000.0,0.0,110000,-11.321517906188966,14.58068998336792,-14.967941703796386
111000,0,117.80773284019081,0.00046944618225097656,0.000125885009765625,0.009258747100830078,110975.5,397.3643694806671,1000.0,111.0,412.9007480973595,25.36975289886708,1000.0,1000.0,0.0,111000,-11.199202404022216,14.79153657913208,-15.13422233581543
112000,0,118.02128055907755,0.00044155120849609375,0.00012731552124023438,0.009096622467041016,111975.5,408.73193573325165,1000.0,112.0,324.69940941258403,101.93045734160677,1000.0,1000.0,0.0,112000,-11.293779430389405,14.992994346618651,-15.360355415344237
113000,0,102.04001994915399,0.000377655029296875,0.00011420249938964844,0.00904989242553711,112975.5,438.8403310731167,1000.0,113.0,437.05143968018285,16.832331051770595,1000.0,1000.0,0.0,113000,-11.089881439208984,15.258963737487793,-15.597855911254882
114000,0,117.03967452269468,0.0006206035614013672,0.0001800060272216797,0.012813806533813477,113975.5,441.46300860583074,1000.0,114.0,404.86669348521895,74.96784715667287,1000.0,1000.0,0.0,114000,-11.085562000274658,15.503895359039307,-15.909296531677246
115000,0,119.1154853675216,0.00046944618225097656,0.0001354217529296875,0.009048938751220703,114975.5,486.6830838983553,1000.0,115.0,419.08769128879766,8.793106465707064,1000.0,1000.0,0.0,115000,-11.272037601470947,15.86176591873169,-16.18561206817627
116000,0,119.56533141769005,0.0003998279571533203,0.00012302398681640625,0.009404182434082031,115975.5,371.22216625475255,1000.0,116.0,490.0122849122762,15.964082535580568,1000.0,1000.0,0.0,116000,-11.261997470855713,16.02807907104492,-16.449706192016603
117000,0,82.01175064603525,0.00042819976806640625,0.0001201629638671875,0.009590864181518555,116975.5,450.3416798157326,1000.0,117.0,345.6343580743959,129.32261094742734,1000.0,1000.0,0.0,117000,-11.309268455505372,16.181805572509766,-16.47449897766113
118000,0,119.69683565508578,0.0004932880401611328,0.00013303756713867188,0.00940847396850586,117975.5,212.93514400596808,1000.0,118.0,471.7913439973116,10.254767489496924,1000.0,1000.0,0.0,118000,-11.203578605651856,16.370642337799072,-16.595474395751953
119000,0,120.18889551143918,0.0004215240478515625,0.00012540817260742188,0.008683443069458008,118975.5,149.5242669810552,1000.0,119.0,448.8298081981008,16.887855321263583,1000.0,1000.0,0.0,119000,-11.257698421478272,16.327823295593262,-16.688595275878907
120000,0,118.4210764073977,0.0004286766052246094,0.00012087821960449219,0.00891876220703125,119975.5,468.23082513934247,1000.0,120.0,487.5089529227541,29.757057934135446,1000.0,1000.0,0.0,120000,-11.28916883468628,16.584826221466063,-16.74219139099121
121000,0,117.6372391077046,0.0005793571472167969,0.00019121170043945312,0.01149296760559082,120975.5,178.5523742610037,1000.0,121.0,413.1033716053801,124.33090658445106,1000.0,1000.0,0.0,121000,-11.244563789367676,16.43791717529297,-16.666648597717284
122000,0,116.54528570420317,0.0004210472106933594,0.00017023086547851562,0.009354591369628906,121975.5,472.66510353210873,1000.0,122.0,490.954295809604,13.656065361876308,1000.0,1000.0,0.0,122000,-11.13548152923584,16.662982845306395,-17.052035675048828
123000,0,114.28154162636405,0.00044536590576171875,0.00012445449829101562,0.008924722671508789,122975.5,206.4929369387062,1000.0,123.0,289.58861212868624,82.31537516970027,1000.0,1000.0,0.0,123000,-11.133833904266357,16.835627059936524,-17.229588012695313
124000,0,85.86840361857702,0.0003840923309326172,0.00012421607971191406,0.009192466735839844,123975.5,268.37084516134075,1000.0,124.0,521.0240782820288,5.671793538279862,1000.0,1000.0,0.0,124000,-11.147022342681884,17.12656581878662,-17.457085762023926
125000,0,119.07132235670319,0.00046181678771972656,0.0001881122589111328,0.009471893310546875,124975.5,457.5769475209537,1000.0,125.0,497.4370235170701,22.36507905446397,1000.0,1000.0,0.0,125000,-11.144694061279298,17.077159309387206,-17.221222534179688
126000,0,117.4799382672825,0.0004591941833496094,0.00017833709716796875,0.008895158767700195,125975.5,524.3527002089045,1000.0,126.0,510.7498730866846,46.37265089097843,1000.0,1000.0,0.0,126000,-11.217627964019776,17.53109191894531,-17.733792724609376
127000,0,117.98960731493797,0.0004825592041015625,0.00013518333435058594,0.00961160659790039,126975.5,227.40179126713957,1000.0,127.0,511.3620048697486,39.42939133447973,1000.0,1000.0,0.0,127000,-11.084384002685546,17.53980365753174,-17.71884178161621
128000,0,116.46477015563607,0.0005550384521484375,0.00015091896057128906,0.011919736862182617,127975.5,416.7720575253917,1000.0,128.0,540.4643170733987,27.264129160716223,1000.0,1000.0,0.0,128000,-11.0442724609375,17.881242790222167,-18.0793009185791
129000,0,117.49204871224714,0.00043082237243652344,0.00013518333435058594,0.009144783020019531,128975.5,427.58444947764644,1000.0,129.0,512.8656838418758,8.451339471085959,1000.0,1000.0,0.0,129000,-10.983567886352539,18.03183464050293,-18.3541259765625
130000,0,119.3120794582475,0.00042700767517089844,0.0001544952392578125,0.009198665618896484,129975.5,539.2140714509227,1000.0,130.0,506.6731348258203,9.122661400736709,1000.0,1000.0,0.0,130000,-11.14337734222412,18.122705764770508,-18.320312271118166
131000,0,90.14859469515906,0.0003902912139892578,0.00014448165893554688,0.009344100952148438,130975.5,510.23545157057305,1000.0,131.0,567.766526577434,17.929356265140022,1000.0,1000.0,0.0,131000,-11.17150957107544,18.32546016693115,-18.535095748901366
132000,0,119.01037307076149,0.00039196014404296875,0.00014209747314453125,0.009067773818969727,131975.5,537.8880853442856,1000.0,132.0,446.4838888509686,149.9790470646557,1000.0,1000.0,0.0,132000,-11.005826263427734,18.68310905456543,-19.018719253540038
133000,0,112.90556513565183,0.0005140304565429688,0.00016045570373535156,0.012955665588378906,132975.5,547.2393290190768,1000.0,133.0,482.8766352194422,13.129611624691796,1000.0,1000.0,0.0,133000,-10.847633991241455,18.977400436401368,-19.199889678955078
134000,0,117.0038256417867,0.0006635189056396484,0.0001862049102783203,0.012056827545166016,133975.5,187.9396881285027,1000.0,134.0,550.360055226175,14.472493767649528,1000.0,1000.0,0.0,134000,-10.970961055755616,19.077230339050292,-19.591763381958007
135000,0,118.69480271036944,0.0005609989166259766,0.0001876354217529297,0.011889934539794922,134975.5,212.92219562441613,1000.0,135.0,547.0113764890365,23.443226120292127,1000.0,1000.0,0.0,135000,-10.922233867645264,19.177864456176756,-19.37864730834961
136000,0,116.26738340285586,0.00044608116149902344,0.0001537799835205078,0.009363412857055664,135975.5,446.7523114031938,1000.0,136.0,456.6508499461115,80.280405842226,1000.0,1000.0,0.0,136000,-10.964940586090087,19.14708766937256,-19.600894165039062
137000,0,116.19349551964426,0.0004467964172363281,0.0001347064971923828,0.009436845779418945,136975.5,143.69807267899284,1000.0,137.0,210.46900557556472,125.3421802274241,1000.0,1000.0,0.0,137000,-10.693502159118653,19.35151523590088,-19.617104949951173
138000,0,83.31583311184926,0.0004076957702636719,0.00012564659118652344,0.009225845336914062,137975.5,472.5435210979714,1000.0,138.0,546.5657421461491,16.812950069723666,1000.0,1000.0,0.0,138000,-10.833242378234864,19.586525955200194,-19.847458801269532
139000,0,116.91120354064195,0.0004901885986328125,0.00013780593872070312,0.009988069534301758,138975.5,113.32761143157968,1000.0,139.0,586.3415275859983,21.035504606613877,1000.0,1000.0,0.0,139000,-10.854475727081299,19.552908935546874,-19.837369079589845
140000,0,116.67600415040489,0.0004260540008544922,0.00012087821960449219,0.008966445922851562,139975.5,519.4514386565237,1000.0,140.0,548.9689584129844,7.154215226253245,1000.0,1000.0,0.0,140000,-10.849842376708985,19.950890769958495,-20.047634048461916
141000,0,116.8848135440563,0.0004432201385498047,0.000133514404296875,0.009201526641845703,140975.5,503.30554175251973,1000.0,141.0,547.3474710827616,18.425448216997342,1000.0,1000.0,0.0,141000,-10.659744129180908,20.044099731445314,-20.288215866088866
142000,0,122.24570713753599,0.0005412101745605469,0.00016045570373535156,0.011614561080932617,141975.5,199.03714118091466,1000.0,142.0,585.5220404015452,9.024307476766445,1000.0,1000.0,0.0,142000,-10.872316188812256,20.32055274963379,-20.79402000427246
143000,0,117.59693473871205,0.0005502700805664062,0.00015592575073242188,0.009973526000976562,142975.5,468.8019174686257,1000.0,143.0,579.1026692399635,12.550028494523955,1000.0,1000.0,0.0,143000,-10.784434680938721,20.258537254333497,-20.860257415771486
144000,0,117.4454635007412,0.0004131793975830078,0.00012564659118652344,0.009409189224243164,143975.5,553.216735839191,1000.0,144.0,347.6473618278507,129.1965447769977,1000.0,1000.0,0.0,144000,-10.61348295211792,20.637727699279786,-21.209488296508788
145000,0,86.44466932261064,0.0003724098205566406,0.00011348724365234375,0.009088516235351562,144975.5,516.0189847257944,1000.0,145.0,584.3832315353395,23.668919222718493,1000.0,1000.0,0.0,145000,-10.6727486038208,20.833780517578123,-21.173905029296876
146000,0,118.76067466124232,0.0004398822784423828,0.00012111663818359375,0.009329795837402344,145975.5,343.08867224899484,1000.0,146.0,522.5099450775111,97.56868633296362,1000.0,1000.0,0.0,146000,-10.575560398101807,21.011481323242187,-21.3220499420166
147000,0,118.84938108725984,0.00045013427734375,0.0001354217529296875,0.00987386703491211,146975.5,512.4658182907161,1000.0,147.0,558.9829006154465,12.283116957143232,1000.0,1000.0,0.0,147000,-10.63607997894287,21.106989288330077,-21.379783782958985
148000,0,115.80672005795991,0.0005106925964355469,0.00014209747314453125,0.009142398834228516,147975.5,291.9719497849122,1000.0,148.0,576.0066218763149,95.33367847089809,1000.0,1000.0,0.0,148000,-10.63679256439209,21.42492778778076,-21.779243087768556
149000,0,118.54163098522605,0.0005948543548583984,0.0002110004425048828,0.01128697395324707,148975.5,484.15027532525306,1000.0,149.0,597.270631237049,14.325943564857269,1000.0,1000.0,0.0,149000,-10.70369197845459,21.46374355316162,-21.78783248901367
150000,0,118.79949266040026,0.0004754066467285156,0.00013446807861328125,0.008749723434448242,149975.5,501.9155425579213,1000.0,150.0,603.9767277275963,14.155798901582635,1000.0,1000.0,0.0,150000,-10.653690395355225,21.693723945617677,-21.964500656127928
151000,0,116.67152530982194,0.0004105567932128906,0.0001761913299560547,0.009372949600219727,150975.5,552.99471017108,1000.0,151.0,563.4662555968274,10.65972704436795,1000.0,1000.0,0.0,151000,-10.71351957321167,21.953571128845216,-22.334257125854492
152000,0,90.54493565817339,0.00041604042053222656,0.00012540817260742188,0.0095977783203125,151975.5,376.3321652913399,1000.0,152.0,541.3690445165151,49.365380030146916,1000.0,1000.0,0.0,152000,-10.48286226272583,22.453490676879884,-22.86064781188965
153000,0,119.48944045162253,0.0004343986511230469,0.00012373924255371094,0.009241104125976562,152975.5,546.9183721310504,1000.0,153.0,623.9889888587754,26.02857404099551,1000.0,1000.0,0.0,153000,-10.516494636535645,22.434519081115724,-22.624643402099608
154000,0,115.53798952024633,0.0004658699035644531,0.00014090538024902344,0.009593963623046875,153975.5,574.6157789219668,1000.0,154.0,624.3104696486477,23.417924218501508,1000.0,1000.0,0.0,154000,-10.5890895652771,23.046724853515624,-23.56944221496582
155000,0,85.6190436919424,0.00041556358337402344,0.000148773193359375,0.008826971054077148,154975.5,556.0194369655825,1000.0,155.0,534.955662550586,89.76361001741398,1000.0,1000.0,0.0,155000,-10.684214859008788,23.094054450988768,-23.35169090270996
156000,0,116.68126235858222,0.00041747093200683594,0.00012540817260742188,0.009580612182617188,155975.5,308.1034293437828,1000.0,156.0,590.1443144035118,14.141250254368316,1000.0,1000.0,0.0,156000,-10.481480903625489,23.15070255279541,-23.646183471679688
157000,0,114.11420169923701,0.00043010711669921875,0.00012159347534179688,0.009030342102050781,156975.5,508.7639811970119,1000.0,157.0,611.0389579494926,26.7047409815344,1000.0,1000.0,0.0,157000,-10.450762882232667,23.65619037628174,-23.979082565307618
158000,0,115.25200549784213,0.0004181861877441406,0.00012254714965820312,0.009679317474365234,157975.5,540.3999382903415,1000.0,158.0,571.0053622554949,7.233004020041329,1000.0,1000.0,0.0,158000,-10.556695251464843,23.637624435424804,-23.786812438964844
159000,0,114.56034576471546,0.0005738735198974609,0.00015664100646972656,0.010828971862792969,158975.5,620.5074715866007,1000.0,159.0,546.2333524004981,127.91277223038077,1000.0,1000.0,0.0,159000,-10.48887659072876,24.026415977478027,-24.33838325500488
160000,0,115.00986589187333,0.0004088878631591797,0.0001251697540283203,0.009394645690917969,159975.5,569.9472574933885,1000.0,160.0,646.5901543469622,13.832453690134274,1000.0,1000.0,0.0,160000,-10.519425411224365,24.220239334106445,-24.35581901550293
161000,0,116.51705376008339,0.0004355907440185547,0.00012254714965820312,0.009356021881103516,160975.5,548.3807819132154,1000.0,161.0,604.9528696912015,16.050691763017387,1000.0,1000.0,0.0,161000,-10.559408397674561,24.28002368927002,-24.50633888244629
162000,0,87.1406436139513,0.0003936290740966797,0.00012063980102539062,0.010003805160522461,161975.5,325.7486861774049,1000.0,162.0,466.3125629556438,141.79848963832467,1000.0,1000.0,0.0,162000,-10.352058086395264,24.593637466430664,-24.843091583251955
163000,0,116.74849231670228,0.0004706382751464844,0.00012254714965820312,0.012173652648925781,162975.5,353.25687568584397,1000.0,163.0,243.56754417238213,89.60982417735386,1000.0,1000.0,0.0,163000,-10.356103305816651,24.811317138671875,-25.28424385070801
164000,0,117.55191359747806,0.00044274330139160156,0.00012135505676269531,0.00923013687133789,163975.5,422.7673191977779,1000.0,164.0,637.5194043126778,19.68662733355546,1000.0,1000.0,0.0,164000,-10.341361751556397,24.74697052001953,-25.136034317016602
165000,0,115.49046019915566,0.0004456043243408203,0.00012135505676269531,0.00933527946472168,164975.5,607.954951853185,1000.0,165.0,303.3296818093901,122.35342502295906,1000.0,1000.0,0.0,165000,-10.46655553817749,25.103001861572267,-25.36862274169922
166000,0,117.6022762830729,0.0006589889526367188,0.0001823902130126953,0.016095876693725586,165975.5,560.9135042695452,1000.0,166.0,553.1148472870009,94.13530012580375,1000.0,1000.0,0.0,166000,-10.44940881729126,25.10316131591797,-25.417581481933595
167000,0,115.89555014343591,0.00041365623474121094,0.00011539459228515625,0.009135961532592773,166975.5,581.7162852506348,1000.0,167.0,608.9464074146468,12.273745793220721,1000.0,1000.0,0.0,167000,-10.296333703994751,25.144278678894043,-25.693019180297853
168000,0,119.88157907523524,0.0004229545593261719,0.00017762184143066406,0.0089569091796875,167975.5,580.2722538622588,1000.0,168.0,575.38473693387,14.274706104989344,1000.0,1000.0,0.0,168000,-10.369733276367187,25.43828884124756,-25.942187042236327
169000,0,90.01000038628102,0.0003879070281982422,0.00011467933654785156,0.008659839630126953,168975.5,583.2165603069853,1000.0,169.0,629.9094879390772,31.0806233804217,1000.0,1000.0,0.0,169000,-10.510997867584228,25.853572425842284,-26.013475723266602
170000,0,109.80796256851373,0.0006139278411865234,0.00014638900756835938,0.01057291030883789,169975.5,538.9847139130658,1000.0,170.0,578.4485951936981,7.0470180684266195,1000.0,1000.0,0.0,170000,-10.387867240905761,26.07504505157471,-26.245503311157226
171000,0,100.0063423364309,0.0005364418029785156,0.00013637542724609375,0.01024484634399414,170975.5,594.7805055870356,1000.0,171.0,521.569654785254,117.8263876658024,1000.0,1000.0,0.0,171000,-10.459692497253418,26.14597568511963,-26.35463928222656
172000,0,85.21322484908966,0.0004069805145263672,0.00012159347534179688,0.009222269058227539,171975.5,571.8785274279843,1000.0,172.0,650.3835773641317,27.886753312095465,1000.0,1000.0,0.0,172000,-10.439006538391114,26.451453666687012,-26.673288803100586
173000,0,116.75798219862116,0.00039577484130859375,0.00013375282287597656,0.008993148803710938,172975.5,563.8762068862703,1000.0,173.0,633.3726171217374,17.301313152290746,1000.0,1000.0,0.0,173000,-10.247718601226806,26.63835178375244,-27.11093925476074
174000,0,117.04045835012262,0.0004031658172607422,0.00012636184692382812,0.009331464767456055,173975.5,571.8738652132026,1000.0,174.0,666.782700858664,18.98447605204512,1000.0,1000.0,0.0,174000,-10.394462451934814,26.834536018371583,-27.35651252746582
175000,0,82.28145988196586,0.0003960132598876953,0.00011754035949707031,0.00951695442199707,174975.5,615.1129577606781,1000.0,175.0,566.6526730308664,112.5487518836462,1000.0,1000.0,0.0,175000,-10.540884342193603,27.195739822387694,-27.692381439208983
176000,0,114.06287307740212,0.000476837158203125,0.00013685226440429688,0.009600639343261719,175975.5,533.8187374742384,1000.0,176.0,635.6244762371343,10.80966593487179,1000.0,1000.0,0.0,176000,-10.441481590270996,27.31396903991699,-27.40024169921875
177000,0,117.36724666993875,0.0005202293395996094,0.0001430511474609375,0.010550737380981445,176975.5,533.8049262815064,1000.0,177.0,612.4863584511506,14.14972347587137,1000.0,1000.0,0.0,177000,-10.404755916595459,27.41698589324951,-28.06872116088867
178000,0,89.40150944168391,0.0004494190216064453,0.00016736984252929688,0.010122537612915039,177975.5,271.9194588819468,1000.0,178.0,621.5462195902794,18.108615191153635,1000.0,1000.0,0.0,178000,-10.309843978881837,27.73870216369629,-27.977414169311523
179000,0,109.87993723098526,0.0004982948303222656,0.00014090538024902344,0.010158061981201172,178975.5,573.5243044074679,1000.0,179.0,662.1756424745337,15.324402253697693,1000.0,1000.0,0.0,179000,-10.509307231903076,27.63302967071533,-28.031305465698242
180000,0,110.86727130855134,0.0004839897155761719,0.00014519691467285156,0.009637594223022461,179975.5,537.9069465676547,1000.0,180.0,598.884183862156,10.898132294771571,1000.0,1000.0,0.0,180000,-10.339966773986816,27.91767822265625,-28.230963668823243
181000,0,77.83234265422826,0.00044226646423339844,0.00013256072998046875,0.009696245193481445,180975.5,613.8389322050093,1000.0,181.0,649.361517553276,23.910371248142617,1000.0,1000.0,0.0,181000,-10.452006721496582,28.13989013671875,-28.54583297729492
182000,0,109.69704990200165,0.0004684925079345703,0.0001327991485595703,0.009542465209960938,181975.5,587.2066381612785,1000.0,182.0,594.8385770568124,31.696080614023774,1000.0,1000.0,0.0,182000,-10.301141147613526,28.61631980895996,-28.977401657104494
183000,0,115.85310206377038,0.0005116462707519531,0.0001246929168701172,0.009195089340209961,182975.5,590.0303045467149,1000.0,183.0,632.9966686540872,16.843466370249033,1000.0,1000.0,0.0,183000,-10.323470783233642,28.60681270599365,-29.177986755371094
184000,0,111.56179447732008,0.0004975795745849609,0.0001354217529296875,0.010104656219482422,183975.5,622.2131321300399,1000.0,184.0,643.3926519814993,17.345203079800985,1000.0,1000.0,0.0,184000,-10.471513500213623,28.696368370056152,-29.063986511230468
185000,0,110.9556680375074,0.0005283355712890625,0.0001404285430908203,0.009972572326660156,184975.5,612.6034573582208,1000.0,185.0,677.604399696562,14.608559643316642,1000.0,1000.0,0.0,185000,-10.301797046661378,29.2030859375,-29.641054000854492
186000,0,110.58589401714089,0.0004391670227050781,0.0001361370086669922,0.00977325439453125,185975.5,611.8389847277516,1000.0,186.0,711.774303168217,13.909964143667333,1000.0,1000.0,0.0,186000,-10.282337589263916,28.916413803100586,-29.181429443359374
187000,0,109.84885746087868,0.0007238388061523438,0.0002033710479736328,0.014523506164550781,186975.5,651.4943239516156,1000.0,187.0,620.7383573327065,23.848924376731656,1000.0,1000.0,0.0,187000,-10.2736083984375,29.577017555236818,-29.716124572753905
188000,0,107.69658980381845,0.00043201446533203125,0.00019693374633789062,0.009796857833862305,187975.5,633.7331646232049,1000.0,188.0,647.2118644528232,18.431729315813808,1000.0,1000.0,0.0,188000,-10.297903146743774,29.684693756103517,-30.03152084350586
189000,0,78.56623455247653,0.0004432201385498047,0.000179290771484375,0.009828805923461914,188975.5,633.5825166264584,1000.0,189.0,656.3636310525601,15.843053641278015,1000.0,1000.0,0.0,189000,-10.247739162445068,30.035462684631348,-30.26150405883789
190000,0,109.37626149097672,0.0004413127899169922,0.00012683868408203125,0.009818553924560547,189975.5,607.2942382044088,1000.0,190.0,644.9248792914195,30.917215618188624,1000.0,1000.0,0.0,190000,-10.226904487609863,30.006730461120604,-30.289684219360353
191000,0,102.39255054197717,0.0006084442138671875,0.0001442432403564453,0.010825872421264648,190975.5,599.5786447582313,1000.0,191.0,624.8778821546678,10.125130434124127,1000.0,1000.0,0.0,191000,-10.236529273986816,30.1017626953125,-30.54053581237793
192000,0,98.7329018966454,0.0007948875427246094,0.00019931793212890625,0.01871466636657715,191975.5,647.1723812095369,1000.0,192.0,661.7691389197744,8.137672168032436,1000.0,1000.0,0.0,192000,-10.30752480506897,30.298827514648437,-30.923503341674806
193000,0,106.06676107626947,0.0005202293395996094,0.0001552104949951172,0.010261058807373047,192975.5,631.5288216697851,1000.0,193.0,660.4160912193845,11.006093845578333,1000.0,1000.0,0.0,193000,-10.372643032073974,30.513400115966796,-30.853353424072267
194000,0,74.3277933546483,0.0004482269287109375,0.00013065338134765625,0.009867668151855469,193975.5,620.3322092476902,1000.0,194.0,686.7402536771135,15.526615637161168,1000.0,1000.0,0.0,194000,-10.319230003356934,30.879332733154296,-30.930428619384767
195000,0,109.13980956821862,0.0005207061767578125,0.000118255615234375,0.009490489959716797,194975.5,590.8782954591409,1000.0,195.0,660.9918632513011,13.156122438095757,1000.0,1000.0,0.0,195000,-10.198052730560303,31.23782382965088,-31.596451187133788
196000,0,106.08419854568447,0.0005934238433837891,0.00014829635620117188,0.010838985443115234,195975.5,603.6421471595105,1000.0,196.0,648.9376506368199,18.98501200676487,1000.0,1000.0,0.0,196000,-10.34674810409546,31.33936279296875,-31.82548400878906
197000,0,85.80277674810998,0.0005335807800292969,0.00013375282287597656,0.0099029541015625,196975.5,614.340026420281,1000.0,197.0,649.8784337100265,17.4798337577159,1000.0,1000.0,0.0,197000,-10.290908222198487,31.42207862854004,-31.63674072265625
198000,0,100.14521675307564,0.0005643367767333984,0.0001537799835205078,0.01151585578918457,197975.5,588.6516281338096,1000.0,198.0,617.4847222271188,57.22657485377367,1000.0,1000.0,0.0,198000,-10.185728912353516,31.884784545898437,-32.08476036071777
199000,0,89.07282630486267,0.0005557537078857422,0.00014400482177734375,0.010237693786621094,198975.5,555.9380630615457,1000.0,199.0,618.1551296721094,12.147189988741514,1000.0,1000.0,0.0,199000,-10.321050338745117,31.756828689575194,-32.23480293273926
200000,0,101.52749806351666,0.0005478858947753906,0.000141143798828125,0.010543346405029297,199975.5,616.1269955119611,1000.0,200.0,661.2653576904347,18.72185669931007,1000.0,1000.0,0.0,200000,-10.1831743144989,31.856858558654785,-31.98118362426758
