niicovila/Q-Reps/lightning_research_framework/results/XSAC_TEST/xsac_3/log.csv
time/steps,time/epochs,time/steps_per_second,time/dataset,time/preprocess,time/train_step,train/env_steps,train/q_loss,train/target_q,train/alpha_loss,train/actor_loss,train/entropy,train/alpha,train/reward,train/length,train/num_ep,eval/reward,eval/stddev,eval/length,eval/discount,eval/early_termination,step
1000,0,70.67885881295085,0.0005092620849609375,0.0001575946807861328,0.015352964401245117,988.0,1.9142902456223965e-05,0.019461608678102493,0.971100981036822,-0.400994007786115,3.9555333852767944,0.09753395865360896,3.1996921772274725,1000.0,1.0,0.1642382536230403,0.06154695610618792,1000.0,1000.0,0.0,1000
2000,0,72.19201339500249,0.0005300045013427734,0.00018405914306640625,0.01602339744567871,1988.0,1.1481537949293852e-05,0.012957599610090256,0.9346959491570791,-0.3854550321896871,4.072021285692851,0.092792143424352,3.3601825612010114,1000.0,2.0,0.11543685601977358,0.0905880999267427,1000.0,1000.0,0.0,2000
3000,0,69.98167327167472,0.0004761219024658203,0.0001609325408935547,0.01574110984802246,2988.0,9.584459476172925e-06,0.008711219280958176,0.890893816947937,-0.36484065900246304,4.076257983843486,0.08840666400889556,4.2084963002959945,1000.0,3.0,0.19037781154251077,0.03705502201896758,1000.0,1000.0,0.0,3000
4000,0,70.141302573735,0.0005242824554443359,0.0001380443572998047,0.016719818115234375,3988.0,1.0587461292743684e-05,0.0074946104362607,0.8500137428442637,-0.3454414481918017,4.081671357154846,0.08430483068029086,3.8075489299588785,1000.0,4.0,0.3225473020820917,0.09491389787251428,1000.0,1000.0,0.0,4000
5000,0,63.16719086313803,0.0005161762237548828,0.0001366138458251953,0.016498804092407227,4988.0,1.206595916301012e-05,0.01117035921663046,0.8108392159144083,-0.3347023179133733,4.078638553619385,0.08044377776483695,7.614972047640794,1000.0,5.0,0.5816297468352138,0.45221974578435775,1000.0,1000.0,0.0,5000
6000,0,62.97772665983982,0.0005438327789306641,0.00013494491577148438,0.016058921813964844,5988.0,1.5465144533663987e-05,0.013109030090272427,0.77410489320755,-0.32324180752038956,4.079222520192464,0.07679494346181552,5.939082740318276,1000.0,6.0,1.9836166714933274,1.4715028642078138,1000.0,1000.0,0.0,6000
7000,0,69.50587127928597,0.0006084442138671875,0.00013947486877441406,0.01658463478088379,6988.0,1.7767625395208596e-05,0.013900695256888867,0.7392247418562571,-0.30958493302265805,4.079050938288371,0.07333596547444661,3.3466900767011607,1000.0,7.0,3.879409430407958,1.8359696798999607,1000.0,1000.0,0.0,7000
8000,0,68.78005424604879,0.0004963874816894531,0.00013375282287597656,0.01593184471130371,7988.0,2.174894092604518e-05,0.014908118546009064,0.7060040285189947,-0.29670894891023636,4.0776117245356245,0.07005027122795582,3.0349803762036944,1000.0,8.0,11.508712766840512,1.9598899715499205,1000.0,1000.0,0.0,8000
9000,0,69.86268330546136,0.0007295608520507812,0.00015497207641601562,0.017211437225341797,8988.0,2.5302686262875797e-05,0.01652760338038206,0.6739019155502319,-0.28608046223719913,4.068833351135254,0.06692339479923248,5.93312320932904,1000.0,9.0,21.857414646599977,0.516154055474358,1000.0,1000.0,0.0,9000
10000,0,70.77871190055923,0.0005080699920654297,0.000164031982421875,0.01609635353088379,9988.0,2.8999303467571735e-05,0.01908455777913332,0.6441241304079691,-0.2752334773540497,4.072300950686137,0.06394422240555286,5.356070170609855,1000.0,10.0,29.25939190390029,0.1932726275723633,1000.0,1000.0,0.0,10000
11000,0,68.38955414677415,0.0005750656127929688,0.00016117095947265625,0.017143964767456055,10988.0,3.149067983031273e-05,0.02143569879233837,0.6151113857825597,-0.2657172456383705,4.0656129121780396,0.06110462173819542,6.420707335410359,1000.0,11.0,31.871565357963483,0.3970438285459378,1000.0,1000.0,0.0,11000
12000,0,69.02090882462325,0.0005831718444824219,0.00014591217041015625,0.015828609466552734,11988.0,4.0802909061312676e-05,0.02772830843925476,0.5874809424082438,-0.2592940429846446,4.059830069541931,0.05839338464041551,11.189494435464061,1000.0,12.0,33.555430078290414,0.5411702155373114,1000.0,1000.0,0.0,12000
13000,0,69.5177600528257,0.0005660057067871094,0.0001533031463623047,0.016147851943969727,12988.0,4.6265157870948314e-05,0.03236974775791168,0.5606677333513895,-0.25335899864633876,4.04560919602712,0.05580716704328855,6.796917927142223,1000.0,13.0,38.919766529107015,0.3000197899420103,1000.0,1000.0,0.0,13000
14000,0,70.33386882024074,0.0005333423614501953,0.0001304149627685547,0.01637125015258789,13988.0,5.155389430001378e-05,0.03773777201771736,0.5349014153083166,-0.2492077760398388,4.027985135714213,0.05333604197949171,10.10911172114011,1000.0,14.0,44.594284872073146,0.9456282451426435,1000.0,1000.0,0.0,14000
15000,0,69.33838714135608,0.0005438327789306641,0.0001366138458251953,0.016091585159301758,14988.0,6.283808965235948e-05,0.045482487082481385,0.510673388838768,-0.24595832576354346,4.0166991750399275,0.05097757404049238,17.588757723833826,1000.0,15.0,50.50085628702159,1.65880372227016,1000.0,1000.0,0.0,15000
16000,0,65.0041442175302,0.0005571842193603516,0.0001399517059326172,0.016695499420166016,15988.0,8.209047373384238e-05,0.06042750462889671,0.486921322842439,-0.25007524092992145,3.992200195789337,0.04872575060774883,27.72300344769218,1000.0,16.0,52.80532551107772,1.1306333124822519,1000.0,1000.0,0.0,16000
17000,0,63.913242766167016,0.0005564689636230469,0.00013971328735351562,0.0169675350189209,16988.0,8.72272695414722e-05,0.07344070136547089,0.4642146974802017,-0.25725043813387555,3.9656399687131247,0.046577333472669125,24.658481651751913,1000.0,17.0,56.878404313316864,2.942024193632407,1000.0,1000.0,0.0,17000
18000,0,69.15861468549456,0.0005445480346679688,0.00013875961303710938,0.016313791275024414,17988.0,0.00012413308257237077,0.09260315358638764,0.44157179196675617,-0.2652622312307358,3.9162538647651672,0.04452610636750857,36.06616069395143,1000.0,18.0,58.20755248055303,2.633029747018957,1000.0,1000.0,0.0,18000
19000,0,69.6773147505188,0.0005178451538085938,0.00013399124145507812,0.01578998565673828,18988.0,0.00012051410973072051,0.10287257462739945,0.4208715384205182,-0.2691898395617803,3.8859353065490723,0.04256893197695414,29.896447356408608,1000.0,19.0,59.055557920849694,4.797055653945983,1000.0,1000.0,0.0,19000
20000,0,70.2182870390522,0.0008988380432128906,0.0001876354217529297,0.01735234260559082,19988.0,0.00015038590179756284,0.12457852005958557,0.3997710843880971,-0.28212787459294003,3.821184734503428,0.04070134119441112,49.898635811470356,1000.0,20.0,61.63300054128242,1.4046722933993352,1000.0,1000.0,0.0,20000
21000,0,68.72244501783639,0.0010595321655273438,0.0002002716064453125,0.01959967613220215,20988.0,0.00018958602100610733,0.155825115442276,0.3782207618157069,-0.3042351305484772,3.717175602912903,0.038919410978754364,56.863094361669546,1000.0,21.0,63.60371135942614,8.143601465407373,1000.0,1000.0,0.0,21000
22000,0,70.20235021906099,0.0006613731384277344,0.00014066696166992188,0.016216754913330078,21988.0,0.00027754900977015494,0.18826942145824432,0.3583482454220454,-0.3289294590552648,3.626939276854197,0.0372201781719923,61.7539045775397,1000.0,22.0,64.33972726676402,4.818237653795485,1000.0,1000.0,0.0,22000
23000,0,69.21298297886665,0.0005953311920166016,0.0001342296600341797,0.0162506103515625,22988.0,0.0003104220656678081,0.21643787682056426,0.33923239012559253,-0.352469968299071,3.5279439290364585,0.03560072494049867,69.61665942687063,1000.0,23.0,59.36735820527032,6.032415876910515,1000.0,1000.0,0.0,23000
24000,0,69.3945999891465,0.0006349086761474609,0.0001342296600341797,0.015671968460083008,23988.0,0.00030829505063593386,0.25568796694278717,0.31833301732937497,-0.3847134883205096,3.3456890980402627,0.03405902969340483,75.47952241615462,1000.0,24.0,70.86708658492479,3.6165209335838573,1000.0,1000.0,0.0,24000
25000,0,69.51255245381081,0.0007543563842773438,0.0001308917999267578,0.016597747802734375,24988.0,0.00039135221391916274,0.2839671009778976,0.3008815074960391,-0.4111007899045944,3.23165492216746,0.03258947283029556,69.59501491213256,1000.0,25.0,56.56885148988018,3.562720697673582,1000.0,1000.0,0.0,25000
26000,0,69.81230937827273,0.0005681514739990234,0.00013518333435058594,0.01579904556274414,25988.0,0.00046534363413229583,0.2968156921863556,0.2852999269962311,-0.40687963366508484,3.1478996674219766,0.03118471863369147,65.62319787088444,1000.0,26.0,49.61879816295267,4.320079757847085,1000.0,1000.0,0.0,26000
27000,0,69.21887686732195,0.0005786418914794922,0.00013494491577148438,0.01613473892211914,26988.0,0.0004823690000921488,0.3219169592857361,0.2680447921156883,-0.4371282135446866,2.9817408521970115,0.02984068263322115,68.10916393878523,1000.0,27.0,43.56016408116149,13.950774910042583,1000.0,1000.0,0.0,27000
28000,0,64.54030445305057,0.0005548000335693359,0.00013589859008789062,0.016362667083740234,27988.0,0.0005211076466366648,0.3319563162326813,0.2545947457353274,-0.440517636636893,2.914983789126078,0.028555568928519886,82.85645549767723,1000.0,28.0,27.05570082098784,11.364967557803283,1000.0,1000.0,0.0,28000
29000,0,63.55306493276652,0.0005774497985839844,0.00015163421630859375,0.01616072654724121,28988.0,0.0006255354452878236,0.21900332927703858,0.23772320275505385,-0.3302803759773572,2.6972169478734336,0.027330853044986725,31.52436666014122,1000.0,29.0,41.20147895931256,16.204271684178586,1000.0,1000.0,0.0,29000
30000,0,68.81652684503194,0.0006380081176757812,0.0001347064971923828,0.015898942947387695,29988.0,0.0006535690114833414,0.13448531955480575,0.22548029695947966,-0.2414492666721344,2.618557949860891,0.026159859262406826,35.65680938087355,1000.0,30.0,63.6847196466494,18.510286194029245,1000.0,1000.0,0.0,30000
31000,0,69.4195923177247,0.0005497932434082031,0.000164031982421875,0.01662158966064453,30988.0,0.0006791788502596319,0.09476489290595054,0.21247862031062445,-0.2056212636331717,2.48427814245224,0.025041626455883186,58.82623995108322,1000.0,31.0,98.40816451234362,29.63477740048733,1000.0,1000.0,0.0,31000
32000,0,69.8557950458943,0.0009768009185791016,0.0002079010009765625,0.01727461814880371,31988.0,0.0007265890063717961,0.05190711010247469,0.19865869482358298,-0.1842065950234731,2.287237803141276,0.023969595010081928,33.46151635560136,1000.0,32.0,97.08997149911505,38.02123412443528,1000.0,1000.0,0.0,32000
33000,0,69.71748016669814,0.0008890628814697266,0.0001933574676513672,0.018667221069335938,32988.0,0.0008041047118604183,0.06407129947096109,0.19051341091593108,-0.17008106348415217,2.3039024472236633,0.02294062419484059,99.77748876932205,1000.0,33.0,51.21077462203864,24.118575387406693,1000.0,1000.0,0.0,33000
34000,0,70.68128857782838,0.0006122589111328125,0.00017523765563964844,0.015956401824951172,33988.0,0.0008661678503267467,-0.027615627776831388,0.18113516395290694,-0.063448301050812,2.251916249593099,0.02194871148094535,22.497520640617353,1000.0,34.0,84.12593834316502,21.464667437375553,1000.0,1000.0,0.0,34000
35000,0,70.45953624388186,0.0005893707275390625,0.00012683868408203125,0.016501188278198242,34988.0,0.0007330563315190375,-0.0921987072378397,0.17276884987950325,-0.002091360588868459,2.2289162476857505,0.0209934472416838,36.10030745371015,1000.0,35.0,110.96438629777337,50.38425214757482,1000.0,1000.0,0.0,35000
36000,0,69.24310260575564,0.0006794929504394531,0.00017333030700683594,0.01631903648376465,35988.0,0.0007397272391244769,-0.13530592173337935,0.16522202268242836,0.051887022253746785,2.2299734552701316,0.020073849397401016,55.44998579529842,1000.0,36.0,155.50710271931683,18.872493642185635,1000.0,1000.0,0.0,36000
37000,0,69.70200150228999,0.0007445812225341797,0.00013947486877441406,0.015946388244628906,36988.0,0.0008883115765638649,-0.09786768082529307,0.15411380057533583,0.014355036973332366,2.0252528289953866,0.01920193371673425,151.3865646170998,1000.0,37.0,136.76765852921318,34.00931438579038,1000.0,1000.0,0.0,37000
38000,0,68.53796276929512,0.0006403923034667969,0.00015020370483398438,0.016106128692626953,37988.0,0.0009414476738311351,-0.04107053685933351,0.14364089195926985,-0.0663946211958925,1.8140043914318085,0.018380881131937105,145.30307678270478,1000.0,38.0,122.13333076662089,32.94615596865253,1000.0,1000.0,0.0,38000
39000,0,68.74641459508116,0.0006780624389648438,0.0001342296600341797,0.015733718872070312,38988.0,0.0009596297726966441,0.00248974334448576,0.13521606723467508,-0.08840508417536815,1.6833142737547557,0.01759708533063531,131.44910792569212,1000.0,39.0,131.99754363120124,58.64433852962776,1000.0,1000.0,0.0,39000
40000,0,60.937220325114424,0.0006754398345947266,0.0001735687255859375,0.016097068786621094,39988.0,0.0009817871963605286,0.06709730438888073,0.12809539586305618,-0.155448945860068,1.6039567093054454,0.016844418831169605,162.4599036761419,1000.0,40.0,161.1422750557852,18.579708261285113,1000.0,1000.0,0.0,40000
41000,0,61.54998453290851,0.0006184577941894531,0.00017118453979492188,0.016227006912231445,40988.0,0.0009788799425587058,0.12444256365299225,0.12284570621947448,-0.2189520684381326,1.6201116343339284,0.016119844124962885,162.43896107850514,1000.0,41.0,112.8382400878193,50.1538400778931,1000.0,1000.0,0.0,41000
42000,0,69.4525600868475,0.0007140636444091797,0.00015282630920410156,0.016528844833374023,41988.0,0.001062648866791278,0.15419706761837004,0.11579490887622039,-0.230298463255167,1.5077169140179951,0.015422076685354114,136.02556515739124,1000.0,42.0,81.9918276738624,20.234257265002924,1000.0,1000.0,0.0,42000
43000,0,69.48491455002087,0.0006554126739501953,0.00018310546875,0.01584339141845703,42988.0,0.00113214117474854,0.1802581751346588,0.10913743575414021,-0.24923629810412726,1.3972616692384083,0.014752508684371909,182.37841419765564,1000.0,43.0,162.5509582056931,34.88861124488048,1000.0,1000.0,0.0,43000
44000,0,70.01592521492363,0.0008611679077148438,0.00015401840209960938,0.016654014587402344,43988.0,0.0011247491976246237,0.21362131476402282,0.10222372226417065,-0.26988041152556735,1.2402272721131642,0.014117629577716192,135.27487500617914,1000.0,44.0,175.63523767318674,6.287878485727458,1000.0,1000.0,0.0,44000
45000,0,69.8712489821593,0.000591278076171875,0.0001327991485595703,0.016587257385253906,44988.0,0.001116115120239556,0.24353092908859253,0.09456295023361842,-0.3091704100370407,0.9948965907096863,0.013517701377471289,171.71668129120874,1000.0,45.0,158.63944313913453,12.390502096596745,1000.0,1000.0,0.0,45000
46000,0,70.8071497545395,0.0006070137023925781,0.00013566017150878906,0.01668834686279297,45988.0,0.0013032998843118548,0.256749986410141,0.08897813223302364,-0.30471915751695633,0.8715864717960358,0.012947562849149108,152.04297732880076,1000.0,46.0,164.32069432430586,7.8678289525692175,1000.0,1000.0,0.0,46000
47000,0,69.51900446188831,0.0007402896881103516,0.0001506805419921875,0.01605844497680664,46988.0,0.0011783394240774214,0.26795191287994385,0.0831407227863868,-0.3308791071176529,0.7028163025776545,0.01240271182420353,147.24247232837803,1000.0,47.0,160.36286191659792,23.4425933980734,1000.0,1000.0,0.0,47000
48000,0,69.88633712831628,0.0005829334259033203,0.00012946128845214844,0.015756845474243164,47988.0,0.0011744053894653917,0.2730268251895904,0.07784819416701794,-0.3202502429485321,0.5521956197917461,0.011880143079906702,159.195655157945,1000.0,48.0,153.66674439858573,4.683906773027108,1000.0,1000.0,0.0,48000
49000,0,69.26080268013604,0.0006170272827148438,0.0001735687255859375,0.01674509048461914,48988.0,0.001159478100016713,0.2714300572872162,0.0718577429652214,-0.3428926095366478,0.3127578900506099,0.011381952712933222,140.55326613002805,1000.0,49.0,145.3326534049328,2.7272979403425235,1000.0,1000.0,0.0,49000
50000,0,70.35241421787339,0.0005900859832763672,0.0001857280731201172,0.0165252685546875,49988.0,0.0012444941280409694,0.2994443166255951,0.06560206599533558,-0.3669220507144928,0.012540845821301142,0.010909958276897669,144.3951068925549,1000.0,50.0,167.6618933465291,3.313396535481948,1000.0,1000.0,0.0,50000
51000,0,69.48261238337574,0.0006442070007324219,0.00012826919555664062,0.015691518783569336,50988.0,0.0012829564092680813,0.30551412522792815,0.061021161576112114,-0.36606698234875995,-0.16753168807675442,0.010461476553852359,163.7578967641678,1000.0,51.0,148.61864782804577,21.723704190008828,1000.0,1000.0,0.0,51000
52000,0,62.88240193964806,0.0017473697662353516,0.00029206275939941406,0.02289104461669922,51988.0,0.0014846052462235094,0.29771230041980745,0.05769603202740351,-0.3636709153652191,-0.25014511759703356,0.010033511944736043,170.47818884388698,1000.0,52.0,180.28451431678667,10.92123604315528,1000.0,1000.0,0.0,52000
53000,0,68.51100474217293,0.0006856918334960938,0.00014019012451171875,0.01631307601928711,52988.0,0.0013798258872702717,0.3122269952297211,0.05122153895596663,-0.3841523627440135,-0.6781682322422663,0.009624008011693755,161.11775500731096,1000.0,53.0,171.700655300156,39.02363757058609,1000.0,1000.0,0.0,53000
54000,0,67.32771678306636,0.0009469985961914062,0.00015807151794433594,0.01800251007080078,53988.0,0.0014058457175269723,0.3305422449111938,0.0475302767008543,-0.40266594539086026,-0.8523218929767609,0.009232537898545464,172.76092038522629,1000.0,54.0,176.07096391819437,3.0816072702064465,1000.0,1000.0,0.0,54000
55000,0,69.25760044596416,0.0006358623504638672,0.00013947486877441406,0.01667928695678711,54988.0,0.0014474925631657242,0.31342574179172517,0.04364983489116033,-0.3992714335521062,-1.0725451012452443,0.00885773729532957,167.0911151812642,1000.0,55.0,181.8137960200051,3.832619006313876,1000.0,1000.0,0.0,55000
56000,0,68.24125390804987,0.0007300376892089844,0.000164031982421875,0.016442060470581055,55988.0,0.001382685611024499,0.32188004851341245,0.04076886518547932,-0.39160426209370297,-1.203478882710139,0.008498973834017912,165.89816992982247,1000.0,56.0,172.10724368305063,4.163764726018625,1000.0,1000.0,0.0,56000
57000,0,68.62915909357172,0.0006909370422363281,0.00019216537475585938,0.016520023345947266,56988.0,0.0013911386858671904,0.31521175742149354,0.0375235415995121,-0.39477599908908206,-1.3996078968048096,0.008155890507623553,175.33344808999098,1000.0,57.0,171.14296156694436,1.9398153561990072,1000.0,1000.0,0.0,57000
58000,0,67.70492734757971,0.0006430149078369141,0.00019669532775878906,0.016087770462036133,57988.0,0.0015129906823858619,0.3092140132188797,0.03479516847680012,-0.3805699447790782,-1.555158019065857,0.007827502520134052,161.65782247361784,1000.0,58.0,173.1582766835267,6.770678925578943,1000.0,1000.0,0.0,58000
59000,0,65.16209177214994,0.0006461143493652344,0.00013566017150878906,0.01600360870361328,58988.0,0.0014676294382661582,0.2941517174243927,0.031192158193637926,-0.39077142377694446,-1.8483888804912567,0.007512577304927011,147.79779116402327,1000.0,59.0,191.1070663836378,6.152869861558605,1000.0,1000.0,0.0,59000
60000,0,61.14948025251126,0.0006129741668701172,0.00016164779663085938,0.01622915267944336,59988.0,0.001501391758210957,0.2971570348739624,0.02923334063962102,-0.37001288930575055,-1.9451520442962646,0.007208811662470301,190.05393767255165,1000.0,60.0,192.87889396273803,2.571783456348385,1000.0,1000.0,0.0,60000
61000,0,70.00414586778487,0.0006203651428222656,0.00013685226440429688,0.01639246940612793,60988.0,0.0015655173314735294,0.2974760591983795,0.027074328778932493,-0.37096493939558667,-2.0857542355855307,0.006916270242072642,182.9985012064247,1000.0,61.0,198.18420907963656,3.3346651137032763,1000.0,1000.0,0.0,61000
62000,0,69.52937627021991,0.0005755424499511719,0.00012874603271484375,0.01622915267944336,61988.0,0.0016593145299702882,0.2953084307909012,0.025652341078966856,-0.38605570048093796,-2.1358247896035514,0.006637969830383857,184.27155345712873,1000.0,62.0,183.80640980645285,21.292130687739636,1000.0,1000.0,0.0,62000
63000,0,69.15993750004122,0.0028455257415771484,0.0001723766326904297,0.018224477767944336,62988.0,0.0015677000395953656,0.2971407586336136,0.022950779646635056,-0.3803749829530716,-2.3980975349744162,0.006371216770882408,179.3082564078734,1000.0,63.0,190.8226578496835,5.301912504289247,1000.0,1000.0,0.0,63000
64000,0,68.77973843947888,0.0009284019470214844,0.00017595291137695312,0.018112659454345703,63988.0,0.0017109584435820579,0.2905009764432907,0.021309915464371443,-0.38943180938561756,-2.5163952112197876,0.0061166764159376425,196.16987559482882,1000.0,64.0,191.14284321733516,4.479607562412455,1000.0,1000.0,0.0,64000
65000,0,68.63495396522224,0.0006878376007080078,0.00015091896057128906,0.015830039978027344,64988.0,0.001668601566925645,0.3022894287109375,0.018929549648116033,-0.3830779368678729,-2.7762621442476907,0.005871480408435066,193.24406935026838,1000.0,65.0,190.14605133392692,4.882787993860979,1000.0,1000.0,0.0,65000
66000,0,69.10064304740415,0.0007109642028808594,0.00013709068298339844,0.016058921813964844,65988.0,0.0015861117653548718,0.2892600804567337,0.01770191453397274,-0.3770611534516017,-2.8603685100873313,0.005637782742269337,195.10091883599094,1000.0,66.0,194.07492331635294,3.635311565298828,1000.0,1000.0,0.0,66000
67000,0,69.61306307143634,0.0006718635559082031,0.00013685226440429688,0.016290903091430664,66988.0,0.0017244101595133544,0.3081883639097214,0.015572032503162822,-0.4032563840349515,-3.1247325936953225,0.005415385860639314,180.71761398128268,1000.0,67.0,183.7321396426843,8.368398099622652,1000.0,1000.0,0.0,67000
68000,0,68.71591485479941,0.0006532669067382812,0.000141143798828125,0.01627063751220703,67988.0,0.0016706870263442396,0.29535174667835234,0.014337406260892749,-0.38924181709686917,-3.244348128636678,0.0052024960750713944,176.0665385441189,1000.0,68.0,193.67912393264749,7.141318291331679,1000.0,1000.0,0.0,68000
69000,0,68.05934266644772,0.0006971359252929688,0.00015163421630859375,0.0165860652923584,68988.0,0.0017217780137434601,0.28447083830833436,0.013079143672560653,-0.37808438142140705,-3.3840415279070535,0.004999354442891975,187.54650224682572,1000.0,69.0,195.71437876731542,14.58630914763039,1000.0,1000.0,0.0,69000
70000,0,61.05014948488121,0.0006678104400634766,0.00013446807861328125,0.01663517951965332,69988.0,0.0017974574211984872,0.28609223186969757,0.011980774346739054,-0.37130259970823926,-3.505663891633352,0.004802878014743328,192.25827435891512,1000.0,70.0,197.78698930333485,6.429120167403613,1000.0,1000.0,0.0,70000
71000,0,68.26791113379672,0.0007154941558837891,0.00014400482177734375,0.016439437866210938,70988.0,0.001705106100998819,0.2801587268710136,0.011455740624417862,-0.3638141577442487,-3.5188368558883667,0.00461672122279803,186.51168144281584,1000.0,71.0,195.79395217179115,8.204684628748474,1000.0,1000.0,0.0,71000
72000,0,69.19060448475706,0.0007522106170654297,0.00013494491577148438,0.016074657440185547,71988.0,0.0017211685329675673,0.2780394160747528,0.01000175066292286,-0.3572690536578496,-3.7474762399991355,0.004439930043493708,186.54647950025281,1000.0,72.0,191.38960071244247,6.1793411636892674,1000.0,1000.0,0.0,72000
73000,0,69.56314064269428,0.0008907318115234375,0.00017976760864257812,0.017226696014404297,72988.0,0.0016624161088839174,0.30146156787872314,0.008451939560472965,-0.38875362277030945,-4.0206844607989,0.004269692619952063,183.24241065127777,1000.0,73.0,194.38882557200594,25.660137452979843,1000.0,1000.0,0.0,73000
74000,0,68.01810830604049,0.0018045902252197266,0.0002090930938720703,0.017944812774658203,73988.0,0.001745608700439334,0.32660596251487733,0.008026449591852725,-0.40881194670995075,-4.046251356601715,0.004107868337693314,189.34409336779345,1000.0,74.0,192.7740222633746,14.510700965894662,1000.0,1000.0,0.0,74000
75000,0,69.42083321471628,0.0006995201110839844,0.000141143798828125,0.01631617546081543,74988.0,0.0018497232347726821,0.3085449331998825,0.006420047449258466,-0.3812951718767484,-4.376255512237549,0.003953602203788857,178.86238735087434,1000.0,75.0,183.80901709428207,8.901398901875895,1000.0,1000.0,0.0,75000
76000,0,68.92830660980137,0.0006039142608642578,0.00012803077697753906,0.01643204689025879,75988.0,0.0018425177177414298,0.31288434386253355,0.006785766803659499,-0.381031759083271,-4.217382828394572,0.003806285133274893,191.57884771265452,1000.0,76.0,187.2817471076359,9.957001627070513,1000.0,1000.0,0.0,76000
77000,0,68.80442521136881,0.0006451606750488281,0.00012969970703125,0.01599264144897461,76988.0,0.0017947634682059289,0.3327690875530243,0.00516593692979465,-0.4066558703780174,-4.591954827308655,0.0036685231413381794,191.78088391404168,1000.0,77.0,176.41211516516375,22.529682517988,1000.0,1000.0,0.0,77000
78000,0,69.98760538261456,0.0007221698760986328,0.00013065338134765625,0.015869617462158203,77988.0,0.001638842853717506,0.34852142751216886,0.004366959483983616,-0.42033110558986664,-4.765308618545532,0.0035365618920574584,192.5455765954069,1000.0,78.0,133.28795110412773,28.419567762285745,1000.0,1000.0,0.0,78000
79000,0,69.64186683793052,0.0006256103515625,0.0001456737518310547,0.01660323143005371,78988.0,0.0017166854394599796,0.3874570691585541,0.0047849350376054645,-0.46243709822495777,-4.597880721092224,0.003412354407676806,179.0003555010803,1000.0,79.0,123.73670924185708,23.970145812983205,1000.0,1000.0,0.0,79000
80000,0,70.06767037371394,0.0007517337799072266,0.00014710426330566406,0.016835689544677734,79988.0,0.0017419607052579522,0.3844121861457825,0.003440616826992482,-0.4700438330570857,-4.955973982810974,0.0032952160690911114,121.87282037473345,1000.0,80.0,150.43561364704289,17.500831725394864,1000.0,1000.0,0.0,80000
81000,0,64.72068121835181,0.0006382465362548828,0.00012946128845214844,0.01575779914855957,80988.0,0.0018241619924083351,0.3910509157180786,0.003218968263051162,-0.4714045698444049,-4.989324410756429,0.003184748716497173,156.7767243081442,1000.0,81.0,166.11335586321707,18.907115135037373,1000.0,1000.0,0.0,81000
82000,0,63.475736289387214,0.0006232261657714844,0.00013756752014160156,0.016424894332885742,81988.0,0.0018543192138895392,0.4247679579257965,0.00271824396137769,-0.5211275890469551,-5.117822170257568,0.0030810642832269273,166.45945211943157,1000.0,82.0,132.56659785904463,13.196554855481503,1000.0,1000.0,0.0,82000
83000,0,69.69139285616966,0.0007379055023193359,0.00020003318786621094,0.016335010528564453,82988.0,0.0018455643579363822,0.43129419803619384,0.0020976716477889568,-0.5077779516577721,-5.298023660977681,0.002988137382393082,129.95562190231436,1000.0,83.0,129.88596865755923,25.411551489599137,1000.0,1000.0,0.0,83000
84000,0,69.47989602293697,0.0006639957427978516,0.000141143798828125,0.01614975929260254,83988.0,0.0018390882946550846,0.42978846073150634,0.0014361599557256948,-0.5035098865628242,-5.505731304486592,0.002905564984151473,155.23791981165826,1000.0,84.0,149.6644954291725,13.457633217977847,1000.0,1000.0,0.0,84000
85000,0,69.88722212928299,0.0009307861328125,0.00015354156494140625,0.016701459884643555,84988.0,0.001793098491616547,0.43302638292312623,0.0008433896000497043,-0.5062091996272405,-5.702595154444377,0.0028358242319275937,135.93821475836427,1000.0,85.0,176.97166145015314,10.069243349559978,1000.0,1000.0,0.0,85000
86000,0,69.70037988440613,0.0006246566772460938,0.0001366138458251953,0.016789913177490234,85988.0,0.0017759763961657882,0.44742347359657286,0.0009141352056758478,-0.5247031251589457,-5.6708007256189985,0.0027767207357101142,165.51413682964213,1000.0,86.0,163.24991394945852,8.737375066391207,1000.0,1000.0,0.0,86000
87000,0,70.4620929991896,0.0006315708160400391,0.0001392364501953125,0.016576290130615234,86988.0,0.0018453963287174701,0.43344035029411315,0.0007161678367992863,-0.5119033132990202,-5.737544139226277,0.0027287199433582523,171.1211416317464,1000.0,87.0,151.2390250487296,12.314362269543974,1000.0,1000.0,0.0,87000
88000,0,69.60936607956069,0.0006926059722900391,0.00019025802612304688,0.01703667640686035,87988.0,0.0017812775680795313,0.46598873734474183,3.597715355378265e-05,-0.5603915999333063,-5.986667950948079,0.0026983301892566183,159.7164661628564,1000.0,88.0,178.27128781847293,7.474739385933646,1000.0,1000.0,0.0,88000
89000,0,69.61250849762067,0.0006418228149414062,0.00012922286987304688,0.016258716583251953,88988.0,0.00184282339643687,0.43713388562202454,-0.00022302198734299358,-0.5478837192058563,-6.083037296930949,0.0026861174846999347,159.6377823470653,1000.0,89.0,196.01086987625027,12.309004337102934,1000.0,1000.0,0.0,89000
90000,0,70.11921073625518,0.0006039142608642578,0.00013113021850585938,0.015949010848999023,89988.0,0.0019187895208597184,0.42989954352378845,-0.0002261628336176121,-0.5162950779000918,-6.084095001220703,0.002689425426069647,134.33707761239825,1000.0,90.0,153.6784558885011,12.320536321897546,1000.0,1000.0,0.0,90000
91000,0,69.276955602537,0.0006206035614013672,0.00013637542724609375,0.016295194625854492,90988.0,0.001836182656697929,0.43552599668502806,-0.00023453647251396129,-0.5234378203749657,-6.0868856112162275,0.0026995923253707588,138.8812799211719,1000.0,91.0,204.930791814326,7.5859866596620265,1000.0,1000.0,0.0,91000
92000,0,69.44046367106479,0.0005762577056884766,0.00012946128845214844,0.016007661819458008,91988.0,0.0019083335576578974,0.4278028321266174,-0.0002166092876905168,-0.5277702907721201,-6.080042878786723,0.0027064873526493707,158.97697562565259,1000.0,92.0,173.8085639811279,34.306428896099796,1000.0,1000.0,0.0,92000
93000,0,64.21537076559873,0.0005979537963867188,0.00014257431030273438,0.016455888748168945,92988.0,0.0019944454077631237,0.3793040895462036,-3.3445840775433076e-05,-0.4697328930099805,-6.012243350346883,0.0027321594146390757,182.7942754166437,1000.0,93.0,198.6808159512247,6.812993541522054,1000.0,1000.0,0.0,93000
94000,0,63.19402927506605,0.0006475448608398438,0.0001366138458251953,0.016066789627075195,93988.0,0.0019131270283833145,0.3780167233943939,0.0002346786774675517,-0.4718106910586357,-5.915125290552775,0.002764777202780048,188.70508388339204,1000.0,94.0,217.31715959818698,14.165595434356787,1000.0,1000.0,0.0,94000
95000,0,69.95795488055637,0.0006792545318603516,0.00014209747314453125,0.016691923141479492,94988.0,0.001974287196062505,0.392210328578949,-0.00041808365980007994,-0.48103183756272,-6.149435361226399,0.0027978114473323026,212.79302510223013,1000.0,95.0,227.44939200926007,13.350008357943628,1000.0,1000.0,0.0,95000
96000,0,66.83566120440797,0.0007097721099853516,0.0001499652862548828,0.016848325729370117,95988.0,0.00199937314260751,0.35571394562721254,-0.0005171361687340929,-0.45040495445330936,-6.18193781375885,0.002842610042231778,219.31952610509728,1000.0,96.0,255.49372145285525,10.756642121248913,1000.0,1000.0,0.0,96000
97000,0,68.8304851327738,0.0008828639984130859,0.0001513957977294922,0.016656875610351562,96988.0,0.0019962799502536654,0.3345568323135376,3.912589636456687e-05,-0.4266681695977847,-5.986486037572225,0.0028935132819848755,228.98004106787675,1000.0,97.0,248.7581456410632,18.448203347624744,1000.0,1000.0,0.0,97000
98000,0,68.49986052779938,0.0007197856903076172,0.000179290771484375,0.016066312789916992,97988.0,0.0020738249365240334,0.31992788016796114,-0.00015917305790935643,-0.41768330335617065,-6.054291725158691,0.0029331250698305666,245.02713427103396,1000.0,98.0,253.85456863531812,10.68449288794845,1000.0,1000.0,0.0,98000
99000,0,69.05145260950793,0.0006089210510253906,0.00015115737915039062,0.016000032424926758,98988.0,0.002057410115376115,0.315235093832016,-0.00010779115170104585,-0.4144192586342494,-6.036250472068787,0.0029736055294051766,228.84443503512674,1000.0,99.0,252.0071436896475,16.604378647147954,1000.0,1000.0,0.0,99000
100000,0,69.25700577793394,0.0005967617034912109,0.00012731552124023438,0.0166013240814209,99988.0,0.0021116020390763877,0.3087602913379669,3.486671509260001e-05,-0.4006356820464134,-5.988455295562744,0.0030201230741416416,237.38138870422105,1000.0,100.0,262.6183362824976,7.500029143397609,1000.0,1000.0,0.0,100000
101000,0,69.40254596551237,0.0006511211395263672,0.0001461505889892578,0.016377925872802734,100988.0,0.0020618294272571804,0.2848225849866867,0.00026222868230737123,-0.3943142940600713,-5.913753787676494,0.003040325556260844,194.39895149991852,1000.0,101.0,251.3754249382328,22.451839848441846,1000.0,1000.0,0.0,101000
102000,0,69.44382080885426,0.0006897449493408203,0.00014066696166992188,0.016014814376831055,101988.0,0.002190124783664942,0.28192717909812925,-0.0001854501436658514,-0.39553650468587875,-6.06122084458669,0.003030135626128564,257.08305939901044,1000.0,102.0,241.7594241060856,18.864429042697513,1000.0,1000.0,0.0,102000
103000,0,68.94729678459953,0.0006539821624755859,0.00014209747314453125,0.01642584800720215,102988.0,0.002140619051642716,0.28508362829685213,-0.00011187538075319026,-0.3764847268660863,-6.03682021299998,0.0030389350916569433,214.14093648224656,1000.0,103.0,216.33912573422268,23.65939195594076,1000.0,1000.0,0.0,103000
104000,0,70.2158890019821,0.0006439685821533203,0.00013589859008789062,0.016283512115478516,103988.0,0.0021342174289748074,0.27047027707099913,-1.1381212364843426e-05,-0.37992893904447556,-6.003745277722676,0.003040184771331648,204.10003962487616,1000.0,104.0,205.9973156423905,12.206147940031238,1000.0,1000.0,0.0,104000
105000,0,64.9409782864504,0.0006666183471679688,0.00014853477478027344,0.016058683395385742,104988.0,0.002143271714448929,0.2804248505830765,-0.00020315811646772394,-0.3920840844511986,-6.067009250322978,0.0030314873438328505,187.91818977339912,1000.0,105.0,226.5855135854196,22.235113330847426,1000.0,1000.0,0.0,105000
106000,0,60.08707840379945,0.0006268024444580078,0.00013065338134765625,0.01609039306640625,105988.0,0.002191497995518148,0.2891307842731476,-0.00014530501357512549,-0.3951682448387146,-6.0479070742925005,0.003034417051821947,166.30935771695866,1000.0,106.0,185.12127600975205,9.555138497246359,1000.0,1000.0,0.0,106000
107000,0,68.64735558258624,0.0006031990051269531,0.00014138221740722656,0.015413761138916016,106988.0,0.0021589097287505864,0.2781226658821106,-0.00010246352879524541,-0.37626146525144577,-6.0336412986119585,0.0030465044158821306,178.32316046753948,1000.0,107.0,186.03466945678548,20.20222978787226,1000.0,1000.0,0.0,107000
108000,0,68.79277915149257,0.0009751319885253906,0.0001697540283203125,0.017739057540893555,107988.0,0.0022368811443448065,0.28038466334342954,-8.074011202552356e-05,-0.39314300070206326,-6.026604135831197,0.0030350180847259858,159.88019866502987,1000.0,108.0,166.69558487781694,3.2424467761205986,1000.0,1000.0,0.0,108000
109000,0,67.59415760641843,0.0011730194091796875,0.000217437744140625,0.016891002655029297,108988.0,0.0021646583219990133,0.26076684415340423,-0.00011513124445627909,-0.3659195179740588,-6.037630081176758,0.0030599780147895217,159.82264647962668,1000.0,109.0,149.382013117172,5.670100186107853,1000.0,1000.0,0.0,109000
110000,0,68.49775740813082,0.0007491111755371094,0.00014925003051757812,0.017042160034179688,109988.0,0.002133496864698827,0.2832719922065735,0.0003580824680587587,-0.3879886095722516,-5.883211016654968,0.0030656323263732097,161.89373378740908,1000.0,110.0,163.27002238064875,2.6608734185758016,1000.0,1000.0,0.0,110000
111000,0,66.99053192440873,0.00103759765625,0.0001747608184814453,0.01595616340637207,110988.0,0.002146669845096767,0.2950169837474823,0.00018250763969263062,-0.4080760603149732,-5.9406230847040815,0.003073473557985077,160.83996810142563,1000.0,111.0,169.09914198817793,5.66562451749424,1000.0,1000.0,0.0,111000
112000,0,68.6599415139582,0.000705718994140625,0.0001709461212158203,0.016858816146850586,111988.0,0.0022742388024926184,0.2780728989839554,-5.7033686365078516e-05,-0.3994816193977992,-6.0185379187266035,0.0030776206986047328,157.53165881406917,1000.0,112.0,166.33903604033634,3.7587789122807114,1000.0,1000.0,0.0,112000
113000,0,62.76222353104545,0.0006918907165527344,0.0001468658447265625,0.015845537185668945,112988.0,0.0021752417692914605,0.28481877088546753,0.00013230279364506714,-0.3972117006778717,-5.957359751065572,0.0031029278179630637,159.23542756219334,1000.0,113.0,163.0361841044052,6.647023507859657,1000.0,1000.0,0.0,113000
114000,0,67.8953638953639,0.0006918907165527344,0.00014209747314453125,0.016097545623779297,113988.0,0.00221016485709697,0.2926181924343109,0.0001905163286816484,-0.39756974081198376,-5.938445091247559,0.00309476611437276,156.42028480937248,1000.0,114.0,162.23272399129218,9.247552829351475,1000.0,1000.0,0.0,114000
115000,0,68.51454121453723,0.000993490219116211,0.00019812583923339844,0.017594337463378906,114988.0,0.002334518516436219,0.2845339012145996,-0.00028066166608671966,-0.39685366302728653,-6.090826352437337,0.003090643362763027,148.42019122481514,1000.0,115.0,148.05331679690076,5.355576823624859,1000.0,1000.0,0.0,115000
116000,0,69.02976919329568,0.0007219314575195312,0.0001475811004638672,0.016117334365844727,115988.0,0.002108686864376068,0.29004155576229096,0.0003066795567671458,-0.39389677594105404,-5.900788426399231,0.003090930462349206,150.20108589982726,1000.0,116.0,141.22649096008394,4.13921960610879,1000.0,1000.0,0.0,116000
117000,0,69.20782093997012,0.001013040542602539,0.00024199485778808594,0.01661396026611328,116988.0,0.00225433942861855,0.2827709227800369,-0.00023851354732566202,-0.39272328714529675,-6.07726236184438,0.0030873598880134523,146.99341556399398,1000.0,117.0,155.69417456523678,5.872394578733145,1000.0,1000.0,0.0,117000
118000,0,68.85624829267267,0.0006537437438964844,0.000141143798828125,0.016697168350219727,117988.0,0.0020859937788918616,0.29111112356185914,-0.00021087648080235036,-0.3993752772609393,-6.0685432354609175,0.0030766012884366014,149.7271289816721,1000.0,118.0,146.56045325382206,1.9227191516139408,1000.0,1000.0,0.0,118000
119000,0,68.8407428877928,0.0006649494171142578,0.00013303756713867188,0.01654815673828125,118988.0,0.00210056759417057,0.303480868935585,-0.0001121584197486906,-0.40247374524672824,-6.0363099575042725,0.003089050044460843,151.31790886136835,1000.0,119.0,153.73082053768388,4.455127730183218,1000.0,1000.0,0.0,119000
120000,0,61.89666927379248,0.0006220340728759766,0.00017499923706054688,0.015983104705810547,119988.0,0.0021340648736804723,0.31918923020362855,-8.961003550211899e-05,-0.41310139497121173,-6.029110670089722,0.003078506658008943,161.44953417922306,1000.0,120.0,154.42373354180353,2.9740876659268323,1000.0,1000.0,0.0,120000
121000,0,62.668673193856584,0.0006747245788574219,0.00013756752014160156,0.016060352325439453,120988.0,0.0022271247114986183,0.3100883233547211,0.00013678720885460885,-0.4203333506981532,-5.955311020215352,0.0030588525890683136,162.89137084379712,1000.0,121.0,167.46933561446286,5.710646113439132,1000.0,1000.0,0.0,121000
122000,0,69.76832075798103,0.0006213188171386719,0.0001430511474609375,0.016104936599731445,121988.0,0.002109820866025984,0.3302259886264801,0.00010387077842703245,-0.44130100061496097,-5.966109752655029,0.003064724946549783,173.7253047642311,1000.0,122.0,177.27686566491303,15.507656510138537,1000.0,1000.0,0.0,122000
123000,0,68.31536805209443,0.0006892681121826172,0.0001366138458251953,0.016331911087036133,122988.0,0.00207364940084517,0.3241956925392151,-0.00015178627654677257,-0.43377893418073654,-6.049017270406087,0.003096685861237347,158.65411817642374,1000.0,123.0,162.52293939411183,4.428724185192369,1000.0,1000.0,0.0,123000
124000,0,68.86949896719659,0.0009255409240722656,0.00016999244689941406,0.017118453979492188,123988.0,0.0020844512293115257,0.32042131543159486,0.00014957923364515105,-0.42553672194480896,-5.951722462972005,0.0030984721961431205,166.72234919011376,1000.0,124.0,157.92735982813832,8.102187523650764,1000.0,1000.0,0.0,124000
125000,0,68.32596257038172,0.0007195472717285156,0.00014352798461914062,0.01683950424194336,124988.0,0.0020233545498922465,0.32711814165115355,2.226645604726703e-05,-0.41968382398287457,-5.992808818817139,0.003096616109057019,145.0061463410491,1000.0,125.0,144.32264690998943,4.111920768738821,1000.0,1000.0,0.0,125000
126000,0,69.53804486586463,0.0006055831909179688,0.0001308917999267578,0.01572871208190918,125988.0,0.00204016687348485,0.33958850026130677,1.9981106864482474e-05,-0.4499660407503446,-5.9935481150945025,0.0030972971580922604,157.2167608651108,1000.0,126.0,158.83292469971,6.092264659984309,1000.0,1000.0,0.0,126000
127000,0,69.38927307017835,0.0006396770477294922,0.0001361370086669922,0.01631951332092285,126988.0,0.0020123519003391265,0.3496745073795319,6.552406436336848e-05,-0.452443391084671,-5.978909095128377,0.0031063775919998684,160.34238312144058,1000.0,127.0,160.69200294717567,5.280636832818631,1000.0,1000.0,0.0,127000
128000,0,69.6472788718025,0.0006668567657470703,0.00014090538024902344,0.016294240951538086,127988.0,0.0019542254973202943,0.35163439869880675,-5.2059528873845316e-05,-0.4425987626115481,-6.016757607460022,0.003106489583539466,158.03321255601873,1000.0,128.0,160.09093146866917,9.35687516476982,1000.0,1000.0,0.0,128000
129000,0,67.91563656336163,0.0007147789001464844,0.00014901161193847656,0.01632976531982422,128988.0,0.0019502989528700709,0.362335661649704,-0.0002504000573632463,-0.47014882663885754,-6.081095576286316,0.003087858009772996,157.66556205797167,1000.0,129.0,183.31376716814205,9.604190220218456,1000.0,1000.0,0.0,129000
130000,0,70.04670109628336,0.0006067752838134766,0.00012874603271484375,0.01608562469482422,129988.0,0.0018990311259403825,0.3619568359851837,0.0002311389380338369,-0.4536285176873207,-5.925692319869995,0.0031104284377458193,145.32214238836974,1000.0,130.0,164.11935956724804,8.420195712936602,1000.0,1000.0,0.0,130000
131000,0,67.77284267240265,0.0006313323974609375,0.00012731552124023438,0.015553712844848633,130988.0,0.0018723201006650924,0.367345814704895,0.0002413976690149866,-0.4660891965031624,-5.922142068545024,0.003100318795380493,181.61950229474195,1000.0,131.0,151.27012921719285,11.312653436971166,1000.0,1000.0,0.0,131000
132000,0,64.01512075911485,0.0006551742553710938,0.0001361370086669922,0.016111373901367188,131988.0,0.001880520605482161,0.38064082026481627,-0.0002511840627145527,-0.47992461919784546,-6.081302563349406,0.0030899132058645287,154.71871143506587,1000.0,132.0,165.39521115955657,7.7107622405889575,1000.0,1000.0,0.0,132000
133000,0,65.48406295257074,0.0006392002105712891,0.0001361370086669922,0.017330408096313477,132988.0,0.0018021437851712108,0.40074289083480835,-0.00026233025043135666,-0.4960235580801964,-6.086032311121623,0.003049415051161001,161.2711886402379,1000.0,133.0,190.2289619568019,10.95526737709803,1000.0,1000.0,0.0,133000
134000,0,69.05277132775859,0.0006694793701171875,0.00014662742614746094,0.015928030014038086,133988.0,0.0019033222785219551,0.44803759455680847,-9.431110447621904e-05,-0.5342147499322891,-6.0309791167577105,0.0030442033700334528,179.5834757333014,1000.0,134.0,177.5129486345937,5.378371243747505,1000.0,1000.0,0.0,134000
135000,0,69.40838029725948,0.0006957054138183594,0.00014138221740722656,0.015943050384521484,134988.0,0.0017680724570527673,0.44914193868637087,0.00012113939556002151,-0.5475498586893082,-5.9600010712941485,0.0030285349542585513,175.11720398319025,1000.0,135.0,181.32334825644264,7.679865822078662,1000.0,1000.0,0.0,135000
136000,0,70.20023525583905,0.0009629726409912109,0.00017547607421875,0.017114877700805664,135988.0,0.0016699458006769418,0.4715374195575714,-6.34207135590259e-05,-0.5575819512208303,-6.020810604095459,0.0030475357780233026,193.32335504927096,1000.0,136.0,172.79249312594305,5.679547191761425,1000.0,1000.0,0.0,136000
137000,0,69.757088629321,0.0006608963012695312,0.00013494491577148438,0.0161588191986084,136988.0,0.001799127864651382,0.47798559069633484,0.00036672673013526946,-0.5617697387933731,-5.879373113314311,0.003039990415951858,182.62091144636977,1000.0,137.0,180.53863396665298,3.7991162174827733,1000.0,1000.0,0.0,137000
138000,0,69.5746797043108,0.0006375312805175781,0.00012874603271484375,0.016396284103393555,137988.0,0.001783625497482717,0.5074911296367646,-0.00019645113025035243,-0.5850706001122793,-6.065003355344136,0.0030222543670485416,177.19134835451712,1000.0,138.0,185.17726151900789,4.502889583318646,1000.0,1000.0,0.0,138000
139000,0,69.86864181473392,0.0007231235504150391,0.00016236305236816406,0.016575098037719727,138988.0,0.0016785201197490095,0.5167949557304382,-0.0006226515494442234,-0.6077904651562372,-6.206372261047363,0.003017210129958888,185.3613804639208,1000.0,139.0,190.74257255515448,3.528193778902694,1000.0,1000.0,0.0,139000
140000,0,69.59324254457195,0.0006973743438720703,0.00014519691467285156,0.015940189361572266,139988.0,0.001672430648468435,0.5517479538917541,7.828474705699288e-05,-0.640108918150266,-5.974142074584961,0.003026653896085918,188.38262656540047,1000.0,140.0,200.12069741554097,4.205523932477889,1000.0,1000.0,0.0,140000
141000,0,69.61833196341999,0.0006330013275146484,0.00012874603271484375,0.015853404998779297,140988.0,0.0017209011455997824,0.5465998768806457,-0.00015949086931262477,-0.6361106038093567,-6.052446683247884,0.0030410652398131788,185.0354577515427,1000.0,141.0,196.0722029938485,6.687194928041387,1000.0,1000.0,0.0,141000
142000,0,70.05156784555433,0.0007107257843017578,0.00020265579223632812,0.01634073257446289,141988.0,0.0016622836841270327,0.5808726739883423,0.0001465908814376841,-0.6620541661977768,-5.952052076657613,0.003057296678889543,197.95226459034114,1000.0,142.0,200.13112249228752,3.3590602437232975,1000.0,1000.0,0.0,142000
143000,0,69.94526187715874,0.0006825923919677734,0.00013518333435058594,0.015951871871948242,142988.0,0.0017315886588767171,0.5846760535240173,-9.643733816725823e-05,-0.675619105497996,-6.03158966700236,0.0030529393310037753,195.25317836907647,1000.0,143.0,210.78545632886707,4.5247972950395745,1000.0,1000.0,0.0,143000
144000,0,64.6827935266377,0.0006184577941894531,0.0001304149627685547,0.016010522842407227,143988.0,0.001602419735863805,0.6082997369766235,3.9688670464480914e-05,-0.6926606545845667,-5.987031857172648,0.0030599409947171807,204.13143203190006,1000.0,144.0,219.68763467892677,5.560044358335262,1000.0,1000.0,0.0,144000
145000,0,61.58020320875086,0.0007481575012207031,0.00015687942504882812,0.0165407657623291,144988.0,0.0015323698613792659,0.6472449922561645,-0.00037465980009680305,-0.7179683049519857,-6.122700333595276,0.0030535584470878043,202.0748145630153,1000.0,145.0,218.63066560267302,4.115680702858485,1000.0,1000.0,0.0,145000
146000,0,70.08776209987367,0.0006353855133056641,0.0001270771026611328,0.015623331069946289,145988.0,0.0016204858478158712,0.6497361588478089,-0.00016317683306018202,-0.7318127403656641,-6.053014755249023,0.0030787880920494595,216.6135232148387,1000.0,146.0,231.9926491906253,10.331369648078619,1000.0,1000.0,0.0,146000
147000,0,69.51407317640711,0.0006911754608154297,0.00013828277587890625,0.016289234161376953,146988.0,0.0015547086670994758,0.6768100118637085,-0.00047522066173163086,-0.7606908629337946,-6.152897238731384,0.0031081109579342106,212.30042660475866,1000.0,147.0,228.69550833800787,15.612998769613013,1000.0,1000.0,0.0,147000
148000,0,69.34838407159594,0.0008831024169921875,0.00017881393432617188,0.01685476303100586,147988.0,0.0015186999179422856,0.6992344880104064,-0.00044240230272407643,-0.7822378178437551,-6.140042146046956,0.0031597905326634645,205.52247513683565,1000.0,148.0,227.98332126530036,11.669216738959227,1000.0,1000.0,0.0,148000
149000,0,69.76377177423325,0.0009567737579345703,0.0001709461212158203,0.016942262649536133,148988.0,0.0015140782529488206,0.7241795754432678,-0.0003315809299238026,-0.800847202539444,-6.104155580202739,0.003183686795334021,194.71703551829378,1000.0,149.0,217.35805297629628,8.416563312341957,1000.0,1000.0,0.0,149000
150000,0,69.1004153632336,0.0006711483001708984,0.0001404285430908203,0.01548314094543457,149988.0,0.0015111004747450352,0.7406122207641601,-0.00022244818683248013,-0.8360917915900549,-6.0696327686309814,0.003194250185818722,215.78428977611625,1000.0,150.0,242.6741003890972,21.058820561151972,1000.0,1000.0,0.0,150000
151000,0,70.04609280017101,0.0006606578826904297,0.000133514404296875,0.01620793342590332,150988.0,0.0015577571839094162,0.7665762829780579,0.00031233960544341244,-0.8279953797658285,-5.9023951689402265,0.0032000334661764405,224.21937221152768,1000.0,151.0,245.0874112561718,45.29402810132187,1000.0,1000.0,0.0,151000
152000,0,70.66185513516427,0.0006327629089355469,0.0001342296600341797,0.015820026397705078,151988.0,0.001523789567872882,0.7884394741058349,-6.66557871227269e-05,-0.8714599659045538,-6.020831664403279,0.003200761799234897,239.32492398657635,1000.0,152.0,252.82873708294665,14.202211795331914,1000.0,1000.0,0.0,152000
153000,0,68.88479106461168,0.0006451606750488281,0.00012731552124023438,0.016270875930786133,152988.0,0.0016267204051837326,0.818174729347229,0.00011046228125148143,-0.8889057288567225,-5.965657393137614,0.003216399384352068,261.45318330510463,1000.0,153.0,271.60548489484347,15.025057321899162,1000.0,1000.0,0.0,153000
154000,0,69.79349014042883,0.0006568431854248047,0.0001990795135498047,0.016580820083618164,153988.0,0.0015952805848792196,0.8312430715560913,-0.00023453747235180344,-0.9236256331205368,-6.072658975919087,0.0032279667599747577,199.41484941615573,1000.0,154.0,251.4365642639957,24.573737462720015,1000.0,1000.0,0.0,154000
155000,0,68.01704940916702,0.0006809234619140625,0.00013971328735351562,0.015801429748535156,154988.0,0.0015108578465878964,0.8342486476898193,0.00020703218372849128,-0.9211241255203882,-5.936323364575704,0.0032514295695970454,133.9820318470038,1000.0,155.0,227.5798633994747,82.40254879235499,1000.0,1000.0,0.0,155000
156000,0,61.07102129439049,0.000720977783203125,0.00014925003051757812,0.016241073608398438,155988.0,0.0015789299178868533,0.8615714263916016,4.942738814861514e-05,-0.9493332952260971,-5.984691023826599,0.0032271970024642846,247.5351308510343,1000.0,156.0,244.60580756385087,32.94816592489448,1000.0,1000.0,0.0,156000
157000,0,63.69946480533129,0.0006530284881591797,0.00014257431030273438,0.016111373901367188,156988.0,0.0014944985834881663,0.8866772484779358,0.0003326028175555014,-0.970077802737554,-5.896640658378601,0.0032177018001675606,263.07459094423916,1000.0,157.0,271.7285391898144,6.990081674118555,1000.0,1000.0,0.0,157000
158000,0,68.60971524288107,0.0006287097930908203,0.00015997886657714844,0.015841007232666016,157988.0,0.0014688453217968345,0.9014966225624085,0.0005779665710482126,-0.9805621653795242,-5.821308135986328,0.003234181087464094,269.8756425486685,1000.0,158.0,267.0567203842768,13.502217932431918,1000.0,1000.0,0.0,158000
159000,0,70.5525034735422,0.0006287097930908203,0.0001354217529296875,0.015887737274169922,158988.0,0.0014651267090812325,0.9265307569503785,8.862704150184679e-05,-1.0140698899825413,-5.972692211469014,0.0032453874785763523,251.70286238376823,1000.0,159.0,276.2842216251797,6.262256729750818,1000.0,1000.0,0.0,159000
160000,0,68.13155682156349,0.0008883476257324219,0.00015163421630859375,0.01627039909362793,159988.0,0.0014664786867797375,0.9647824215888977,5.070701323954078e-05,-1.0441078742345173,-5.984576185544332,0.003286638491166135,269.7306877808005,1000.0,160.0,260.52050390080024,5.584537433142472,1000.0,1000.0,0.0,160000
161000,0,69.43788855248555,0.000957489013671875,0.0001685619354248047,0.0161590576171875,160988.0,0.001473892950452864,0.9793877983093262,-0.0001524221455232085,-1.0457586844762166,-6.0462351242701216,0.00329741924845924,268.117950397453,1000.0,161.0,269.9307817213665,5.683157972730967,1000.0,1000.0,0.0,161000
162000,0,69.5504059631917,0.0006718635559082031,0.00014209747314453125,0.016458511352539062,161988.0,0.0014660892589017749,1.0073006248474121,-0.00023226899308307716,-1.0932444334030151,-6.069352984428406,0.0033499503042548895,254.41024034384182,1000.0,162.0,283.9438409515161,3.227371075022266,1000.0,1000.0,0.0,162000
163000,0,68.83025922544165,0.0006034374237060547,0.00013017654418945312,0.016666412353515625,162988.0,0.001401943601667881,1.0337674164772033,0.0005053844215581194,-1.103887716929118,-5.851617773373921,0.003405828222942849,280.7665231708786,1000.0,163.0,271.4070627882757,6.95493616461814,1000.0,1000.0,0.0,163000
164000,0,68.52448110436336,0.0005991458892822266,0.0001571178436279297,0.015594482421875,163988.0,0.0013641281658783556,1.0445548725128173,0.00022939095409431806,-1.141704112291336,-5.932867765426636,0.0034166720191327236,267.9935135316867,1000.0,164.0,273.9074520857489,8.618156796665502,1000.0,1000.0,0.0,164000
165000,0,70.46753855944819,0.0006437301635742188,0.00016927719116210938,0.016186952590942383,164988.0,0.0013610891392454505,1.0978772354125976,-0.0004285385196756882,-1.1615793704986572,-6.124068101247151,0.003453838018079599,267.09694931901345,1000.0,165.0,269.2924826356808,7.877183553186809,1000.0,1000.0,0.0,165000
166000,0,70.42087611055108,0.0006649494171142578,0.00014090538024902344,0.016510963439941406,165988.0,0.0014286749623715878,1.1300327968597412,-0.0007638784518348984,-1.2131517728169758,-6.217437068621318,0.0035153202091654143,260.0685346695283,1000.0,166.0,276.1274483147072,8.4556054695662,1000.0,1000.0,0.0,166000
167000,0,70.33731290020943,0.0006754398345947266,0.00018167495727539062,0.016107797622680664,166988.0,0.0013853665394708515,1.1466240072250367,3.111764453933574e-05,-1.2186166842778523,-5.991324067115784,0.0035866151835458973,263.394341541533,1000.0,167.0,269.72847599402405,10.18343877467503,1000.0,1000.0,0.0,167000
168000,0,67.23787465485776,0.0006146430969238281,0.0001342296600341797,0.01587843894958496,167988.0,0.001388307437300682,1.196587839126587,-0.0005078388530819211,-1.2669563790162404,-6.139282822608948,0.003646466376570364,278.27581616395753,1000.0,168.0,260.6807961089528,72.90619965043938,1000.0,1000.0,0.0,168000
169000,0,63.556108066040224,0.0006134510040283203,0.00016236305236816406,0.015843868255615234,168988.0,0.0014776350976899266,1.2040466260910034,0.0001598396702320315,-1.2950730224450429,-5.956670840581258,0.003689010899203519,287.27618866713954,1000.0,169.0,279.8455348631679,4.738970408101504,1000.0,1000.0,0.0,169000
170000,0,62.25796262299287,0.0010042190551757812,0.00017023086547851562,0.016981124877929688,169988.0,0.0014559477334842087,1.2760960149765015,-6.850121038344999e-05,-1.3650315403938293,-6.018213947614034,0.0037601326087800166,261.12584259304504,1000.0,170.0,294.9925099740174,13.547429195250476,1000.0,1000.0,0.0,170000
171000,0,69.9713528616109,0.0006227493286132812,0.0001289844512939453,0.015988588333129883,170988.0,0.0014856822090223432,1.2839366674423218,-0.0005800841633269253,-1.3663254578908284,-6.151394208272298,0.0038330830672445395,287.3321931020014,1000.0,171.0,295.7695766342574,10.832389563469498,1000.0,1000.0,0.0,171000
172000,0,69.69820240193772,0.0006313323974609375,0.00013637542724609375,0.01613450050354004,171988.0,0.0015297622652724386,1.309787664413452,0.00020847035193582997,-1.413272500038147,-5.9468709627787275,0.003922605499004324,290.22235165113665,1000.0,172.0,314.2150234132987,14.796217152517512,1000.0,1000.0,0.0,172000
173000,0,70.40399632059193,0.0008974075317382812,0.00016617774963378906,0.017191171646118164,172988.0,0.0014858303684741258,1.3219342565536498,-0.0001285630775479755,-1.4152756532033284,-6.032335996627808,0.0039758754428476095,285.0414780418384,1000.0,173.0,267.5079592159697,88.09727527929206,1000.0,1000.0,0.0,173000
174000,0,69.29293289745058,0.0009827613830566406,0.0001895427703857422,0.017984867095947266,173988.0,0.0015667139878496527,1.3545177936553956,-0.0009373848006362095,-1.4407134354114532,-6.23321529229482,0.004019439724894862,288.45426070664456,1000.0,174.0,272.63537514966185,87.90313503388008,1000.0,1000.0,0.0,174000
175000,0,69.17129754233756,0.0006215572357177734,0.0001285076141357422,0.015861988067626953,174988.0,0.0015005204547196627,1.380235104560852,-0.0001682559353260634,-1.4426960349082947,-6.041120409965515,0.00409183787026753,295.18372700147,1000.0,175.0,259.2555778422988,96.20677510771434,1000.0,1000.0,0.0,175000
176000,0,68.82623832303257,0.0006518363952636719,0.0001266002655029297,0.016142845153808594,175988.0,0.0016288597323000432,1.418013391494751,-0.0005533752409974113,-1.5112303793430328,-6.1328104337056475,0.004167202588481207,156.31402456418962,1000.0,176.0,245.9912230081426,105.77918017362028,1000.0,1000.0,0.0,176000
177000,0,69.56535584562056,0.0006492137908935547,0.00013494491577148438,0.016060829162597656,176988.0,0.0015338926995173098,1.4139891624450684,9.632107200256239e-05,-1.5201574265956879,-5.9772294362386065,0.004229609350052972,283.727616173599,1000.0,177.0,140.83483395030618,97.34027486652734,1000.0,1000.0,0.0,177000
178000,0,69.6510724225657,0.0007412433624267578,0.0001480579376220703,0.016399860382080078,177988.0,0.0016125488607212901,1.4106074523925782,-0.00039760158203231793,-1.5380434890588124,-6.093331416447957,0.004261282971128821,47.77536570894753,1000.0,178.0,113.73461631342602,94.23751856735413,1000.0,1000.0,0.0,178000
179000,0,69.89658588091312,0.0006322860717773438,0.00013947486877441406,0.016286134719848633,178988.0,0.001640620962716639,1.3921251201629639,-0.00017313347295081863,-1.4989275733629863,-6.040291905403137,0.004297115141525865,36.44487256379702,1000.0,179.0,80.20494003956466,41.784395947062436,1000.0,1000.0,0.0,179000
180000,0,69.8575635234707,0.0006420612335205078,0.00012969970703125,0.016389846801757812,179988.0,0.0017028466798365116,1.4323267841339111,0.00041505020393136266,-1.5274151762326558,-5.9042272965113325,0.004333014638784031,305.7168147180819,1000.0,180.0,122.7983571856114,38.77612676977433,1000.0,1000.0,0.0,180000
181000,0,65.67280466120988,0.0006647109985351562,0.00014019012451171875,0.01642298698425293,180988.0,0.0016290943045169115,1.4190564250946045,-0.0001289611051712806,-1.5214097201824188,-6.029791831970215,0.00433103006798774,110.17793708971946,1000.0,181.0,124.37124945028965,75.02371119149221,1000.0,1000.0,0.0,181000
182000,0,63.94337046475564,0.0006442070007324219,0.00012731552124023438,0.016194581985473633,181988.0,0.0016516867000609637,1.4285770177841186,0.00016419454186689109,-1.5362001359462738,-5.962298234303792,0.004354334940823416,117.47497578792365,1000.0,182.0,134.40228671927994,65.83618165672108,1000.0,1000.0,0.0,182000
183000,0,69.42952073597242,0.0007026195526123047,0.00015401840209960938,0.01671314239501953,182988.0,0.001621576831676066,1.4401774549484252,0.00014020516027812846,-1.5352349976698558,-5.967935562133789,0.004372063248107831,74.84974943275847,1000.0,183.0,96.62338381292284,56.11343183087539,1000.0,1000.0,0.0,183000
184000,0,70.15547494189259,0.0006608963012695312,0.00018906593322753906,0.016021013259887695,183988.0,0.0016040762374177576,1.4110714673995972,-0.00010768157881102525,-1.5110857089360554,-6.024709304173787,0.004358720849268138,67.92357659461597,1000.0,184.0,59.99718664010951,32.453440577013964,1000.0,1000.0,0.0,184000
185000,0,70.95040259828134,0.000675201416015625,0.00013256072998046875,0.01606011390686035,184988.0,0.0016717493673786522,1.3910702753067017,-0.0007932910836340549,-1.4990499019622803,-6.181778311729431,0.0043658147333189845,108.3947302048597,1000.0,185.0,125.44827004337863,64.02863107493987,1000.0,1000.0,0.0,185000
186000,0,69.97957158387963,0.0008778572082519531,0.00015211105346679688,0.016243457794189453,185988.0,0.0017319751903414726,1.3778311014175415,0.0002132014669768978,-1.4632230401039124,-5.951152443885803,0.004363854687350492,45.72520916156731,1000.0,186.0,111.7770200032945,40.94737834640005,1000.0,1000.0,0.0,186000
187000,0,69.0863473925006,0.0010259151458740234,0.00020265579223632812,0.018030166625976562,186988.0,0.0016550285322591662,1.3622135972976686,-0.0005150739392168665,-1.463342547416687,-6.118192990620931,0.004357881417187552,78.27051829309077,1000.0,187.0,87.57181904497577,51.28191816991772,1000.0,1000.0,0.0,187000
188000,0,69.58719237191177,0.0006635189056396484,0.0001361370086669922,0.01601123809814453,187988.0,0.0016401445493102074,1.3529610681533812,-0.00033288430131506175,-1.4524856209754944,-6.07673966884613,0.0043377012480050325,46.29698455563032,1000.0,188.0,80.59255047743889,18.18594736130107,1000.0,1000.0,0.0,188000
189000,0,69.41991402749981,0.0006158351898193359,0.0001704692840576172,0.01575183868408203,188988.0,0.001570334262214601,1.3276969909667968,3.756602018256672e-05,-1.418679376443227,-5.991281946500142,0.004304786872429152,44.63239322869603,1000.0,189.0,101.84027641043392,60.37640209652606,1000.0,1000.0,0.0,189000
190000,0,70.19633465794068,0.0006823539733886719,0.00019288063049316406,0.016872406005859375,189988.0,0.001575876846909523,1.3210898351669311,0.0003415942422482961,-1.4285391469796498,-5.920385917027791,0.004290474345907569,31.572839818742818,1000.0,190.0,42.89644515792247,16.97056262010079,1000.0,1000.0,0.0,190000
191000,0,68.76314011974478,0.001007080078125,0.00019860267639160156,0.0167844295501709,190988.0,0.0015813813824206591,1.3005816698074342,0.000297125934594078,-1.3952181041240692,-5.930376887321472,0.004267614140796165,51.90253743792913,1000.0,191.0,90.82216181013905,49.08716115383404,1000.0,1000.0,0.0,191000
192000,0,68.70488395056228,0.0006077289581298828,0.00018262863159179688,0.01591777801513672,191988.0,0.0016575083741918206,1.272645583152771,0.0003907595795074788,-1.361033131678899,-5.907914161682129,0.004241260467097163,43.14647128169948,1000.0,192.0,100.78354598817302,73.82333584760396,1000.0,1000.0,0.0,192000
193000,0,69.86221783972496,0.0006983280181884766,0.00012683868408203125,0.016110897064208984,192988.0,0.0015856611216440797,1.289913716316223,4.17358533013612e-05,-1.3732333679993947,-5.990188956260681,0.0042531707634528475,201.52681291499397,1000.0,193.0,119.68408966177522,101.83583852115108,1000.0,1000.0,0.0,193000
194000,0,65.17784772674156,0.0006206035614013672,0.00012922286987304688,0.016099929809570312,193988.0,0.0015680316742509603,1.316455717086792,-0.0006369586578027034,-1.4327435195446014,-6.149973511695862,0.004247336531989276,294.07034019530295,1000.0,194.0,134.20389623211048,67.3649537791982,1000.0,1000.0,0.0,194000
195000,0,63.62351684823994,0.0006644725799560547,0.0001418590545654297,0.01637434959411621,194988.0,0.0016172232571989298,1.2843583583831788,0.00020860582784128687,-1.3815989394982655,-5.950236996014913,0.004192298472238083,39.84690726206081,1000.0,195.0,114.8088582180815,91.31608619174841,1000.0,1000.0,0.0,195000
196000,0,68.8612675727982,0.0006449222564697266,0.0001552104949951172,0.016122817993164062,195988.0,0.0016024629725143312,1.2714219141006469,0.000370281736953378,-1.3721510966618855,-5.910748640696208,0.004148585954681039,145.8595961809631,1000.0,196.0,198.8950428139564,76.64824111288236,1000.0,1000.0,0.0,196000
197000,0,70.16322054278375,0.0006363391876220703,0.0001685619354248047,0.015825510025024414,196988.0,0.0016374777629971505,1.262780146598816,8.210664600483142e-05,-1.3489090104897816,-5.980039834976196,0.004113221424631774,135.7871140095614,1000.0,197.0,249.71750097749094,85.37677382140619,1000.0,1000.0,0.0,197000
198000,0,69.87688299052715,0.0006074905395507812,0.00012922286987304688,0.015784263610839844,197988.0,0.0015264832694083452,1.2620311212539672,-0.00022214453686804822,-1.3673898875713348,-6.054442922274272,0.004080434058172007,101.93060816277749,1000.0,198.0,278.66027359371833,85.70172821310176,1000.0,1000.0,0.0,198000
199000,0,70.72033063826458,0.0009217262268066406,0.00018167495727539062,0.017250776290893555,198988.0,0.0015554214734584094,1.2764505004882813,-0.00039370220777830883,-1.3747541805108388,-6.096939007441203,0.004061337987271448,317.1239823508761,1000.0,199.0,215.6898637233994,103.93573847119973,1000.0,1000.0,0.0,199000
200000,0,70.5416343752691,0.0009484291076660156,0.00017523765563964844,0.017293930053710938,199988.0,0.0015766139468178153,1.3425235652923584,-0.0002660294533901227,-1.4303737183411915,-6.065854986508687,0.004040504223667085,307.9143632752687,1000.0,200.0,304.11565629125005,49.29792434491784,1000.0,1000.0,0.0,200000
