niicovila/Q-Reps/dev/lightning_research_framework/results/XSAC_TEST/xsac_original/log.csv
time/steps,time/epochs,time/steps_per_second,time/dataset,time/preprocess,time/train_step,train/env_steps,train/q_loss,train/target_q,train/value_loss,train/target_v,train/alpha_loss,train/actor_loss,train/entropy,train/alpha,train/reward,train/length,train/num_ep,eval/reward,eval/stddev,eval/length,eval/discount,eval/early_termination,step
1000,0,63.15007187806204,0.000530242919921875,0.0001437664031982422,0.01608729362487793,988.0,0.0001456784675247036,0.13498977601528167,0.00024741509463638067,0.13553627729415893,0.9642377644777298,-0.51581904788812,3.884374479452769,0.09754180846114953,3.86756796115517,1000.0,1.0,0.6960638867546698,0.11506090318598032,1000.0,1000.0,0.0,1000
2000,0,64.48513413288694,0.0005109310150146484,0.00018596649169921875,0.016757726669311523,1988.0,6.68993564613629e-05,0.1372523921728134,7.554093142971397e-05,0.13018863797187805,0.9327850590149561,-0.5084718962510427,4.052071809768677,0.09278619103133678,3.7400963720262403,1000.0,2.0,0.4501922596294324,0.052376668202190106,1000.0,1000.0,0.0,2000
3000,0,67.60282976475146,0.0008797645568847656,0.00017023086547851562,0.01802229881286621,2988.0,6.287003925535828e-05,0.13027441501617432,3.0711605213582515e-05,0.12419989615678788,0.8912383317947388,-0.4855983381470044,4.08232569694519,0.08838762218753497,3.7574925862908954,1000.0,3.0,0.26205327453852034,0.08600594739140603,1000.0,1000.0,0.0,3000
4000,0,64.41173344996427,0.0005393028259277344,0.0001552104949951172,0.017118453979492188,3988.0,4.271048797818366e-05,0.12787655889987945,2.9707113280892373e-05,0.12376409471035003,0.8491110503673553,-0.46830810606479645,4.074163516362508,0.08427804211775462,4.178252858099631,1000.0,4.0,0.21823478519210876,0.06587477232387347,1000.0,1000.0,0.0,4000
5000,0,63.84821241007249,0.0006051063537597656,0.0001430511474609375,0.01707148551940918,4988.0,0.00011272922100033611,0.1256149271130562,3.641037503257394e-05,0.12048370927572251,0.8107843548059464,-0.4480738366643588,4.081673979759216,0.08041406484941642,3.761270671642579,1000.0,5.0,0.3441985773153304,0.06645206280289159,1000.0,1000.0,0.0,5000
6000,0,64.92087471210283,0.0006890296936035156,0.000194549560546875,0.017510652542114258,5988.0,6.189455758430996e-05,0.12356426626443863,3.519832855090499e-05,0.11940947592258454,0.7737927536169688,-0.43130527685085934,4.079288999239604,0.07676347593466441,4.634498362532795,1000.0,6.0,0.49617559431265096,0.21967535777978778,1000.0,1000.0,0.0,6000
7000,0,60.11959980506264,0.0006110668182373047,0.00013756752014160156,0.01723313331604004,6988.0,4.3888670043088495e-05,0.12129600942134858,3.353176172822714e-05,0.11676977425813675,0.7391166388988495,-0.4163463314374288,4.0819337368011475,0.07330424586931865,4.861487241870425,1000.0,7.0,0.6640979751025478,0.22489966633694736,1000.0,1000.0,0.0,7000
8000,0,64.0722690143668,0.0006692409515380859,0.00017213821411132812,0.016939163208007812,7988.0,7.956573695992119e-05,0.11811245501041412,3.8472788874059914e-05,0.11304588615894318,0.7050509452819824,-0.3996756970882416,4.068571964899699,0.070018511886398,5.614188055669655,1000.0,8.0,0.7203537960874644,0.2569242261798678,1000.0,1000.0,0.0,8000
9000,0,65.7140439879298,0.0009377002716064453,0.00017762184143066406,0.018683433532714844,8988.0,7.588156237034127e-05,0.11566004127264023,4.265953553840518e-05,0.1109371155500412,0.6744821021954218,-0.38490579277276993,4.08233920733134,0.0668912772089243,6.205124806175668,1000.0,9.0,1.4362725414999977,0.7631525594829687,1000.0,1000.0,0.0,9000
10000,0,66.00238938398458,0.0008678436279296875,0.0001430511474609375,0.0171356201171875,9988.0,0.0001313888549339026,0.11315411686897278,5.543783074244857e-05,0.10792132824659348,0.6435751616954803,-0.36645854512850445,4.068719983100891,0.0639124425748984,5.710740888416222,1000.0,10.0,1.723270010762668,1.1820821831247958,1000.0,1000.0,0.0,10000
11000,0,64.5197732465092,0.0006620883941650391,0.0001780986785888672,0.01683521270751953,10988.0,9.62990899279248e-05,0.10983762264251709,5.531953647732735e-05,0.10495000183582306,0.615256056189537,-0.3552038123210271,4.073180238405864,0.06107307535906633,6.3338792506652934,1000.0,11.0,6.383280051882382,0.5299528883977348,1000.0,1000.0,0.0,11000
12000,0,61.906353132877946,0.0007312297821044922,0.00015354156494140625,0.01699066162109375,11988.0,0.0001364128082059324,0.1127128741145134,6.337675964459777e-05,0.10774189233779907,0.5874516814947128,-0.34460341433684033,4.064586679140727,0.058362893449763455,13.300016366969306,1000.0,12.0,19.742430936064334,0.4469087778831338,1000.0,1000.0,0.0,12000
13000,0,64.08526970700761,0.0007772445678710938,0.00018310546875,0.017745018005371094,12988.0,0.0001534254415309988,0.11312942951917648,7.119091460481287e-05,0.10851949512958527,0.5605981796979904,-0.3344252382715543,4.049632112185161,0.05577788936595122,7.650717628236067,1000.0,13.0,20.339078459311004,0.7432918873601289,1000.0,1000.0,0.0,13000
14000,0,65.90386714843919,0.0008261203765869141,0.0001556873321533203,0.01722121238708496,13988.0,0.00016274016990792007,0.12079419851303101,8.983630919829011e-05,0.11641372531652451,0.5347927014032999,-0.33075986554225284,4.030988375345866,0.05330924658725659,13.101935304485492,1000.0,14.0,23.410836543377634,0.6046619064515701,1000.0,1000.0,0.0,14000
15000,0,65.09304185020933,0.0005972385406494141,0.00013875961303710938,0.01669597625732422,14988.0,0.0002189396758330986,0.1305346542596817,0.0001056523178704083,0.12735991150140763,0.5103557755549749,-0.331014742453893,4.015077034632365,0.050954134513934456,20.842788624440384,1000.0,15.0,31.343628736746258,0.5646671351763918,1000.0,1000.0,0.0,15000
16000,0,65.38015006727713,0.0005934238433837891,0.00014162063598632812,0.016879796981811523,15988.0,0.00032919331220909953,0.15348467767238616,0.00013218287378549576,0.15047561049461364,0.48584752281506854,-0.3448153908054034,3.9743839502334595,0.04870513019462427,24.008354310888304,1000.0,16.0,32.85052623626767,1.7794999787625243,1000.0,1000.0,0.0,16000
17000,0,65.60250453897639,0.0006954669952392578,0.00015115737915039062,0.017388105392456055,16988.0,0.00044577231281436977,0.1756957334280014,0.00015802719630301,0.17473398208618163,0.46257031212250393,-0.35857627789179486,3.9341696898142495,0.046559362672269344,27.357913289155952,1000.0,17.0,35.187757867738,2.855347790338852,1000.0,1000.0,0.0,17000
18000,0,61.11522984888118,0.0007648468017578125,0.00013756752014160156,0.017425060272216797,17988.0,0.0005724675545934587,0.20911090433597565,0.00019842326641082762,0.21051455557346344,0.4393923133611679,-0.3821938137213389,3.8702861666679382,0.04451267669598261,27.33621549153524,1000.0,18.0,49.01041234213924,8.371646826389695,1000.0,1000.0,0.0,18000
19000,0,65.88337006868716,0.0007157325744628906,0.00014281272888183594,0.016880035400390625,18988.0,0.0010267897346056998,0.2676793682575226,0.00027343808440491555,0.27286233961582185,0.4165554692347844,-0.4327702497442563,3.786194165547689,0.04256181853512923,48.28570521723254,1000.0,19.0,79.78573910884703,3.3535995931557085,1000.0,1000.0,0.0,19000
20000,0,65.91737320233375,0.0009233951568603516,0.00016307830810546875,0.017767667770385742,19988.0,0.0013779248343780636,0.3303238213062286,0.00031993850832805036,0.3385863435268402,0.393924447397391,-0.4884993980328242,3.676633596420288,0.04070522046337525,41.38582239826778,1000.0,20.0,89.55517096036044,5.246498021479565,1000.0,1000.0,0.0,20000
21000,0,65.66351032912036,0.0006537437438964844,0.00014901161193847656,0.01702404022216797,20988.0,0.0017287376942113043,0.45911584615707396,0.0003845292679034173,0.47567657232284544,0.36956007530291873,-0.6068742523590723,3.4894176920255027,0.038940985687077045,82.34056821292378,1000.0,21.0,103.98997917088407,14.872597682773298,1000.0,1000.0,0.0,21000
22000,0,66.14619868284929,0.0006701946258544922,0.0001399517059326172,0.01715564727783203,21988.0,0.0028633859287947416,0.6393509793281555,0.000533883550669998,0.6751323342323303,0.3392886817455292,-0.7891552845637003,3.1006799936294556,0.03727850690484047,96.63639238503526,1000.0,22.0,76.1131566806678,25.925860925183308,1000.0,1000.0,0.0,22000
23000,0,65.88452915925245,0.0006954669952392578,0.000156402587890625,0.016590595245361328,22988.0,0.00385902127251029,0.8638912725448609,0.0006703759194351733,0.9323673629760743,0.30561072130997974,-1.0244929790496826,2.552143692970276,0.03573203335205714,79.5324005557193,1000.0,23.0,52.81046606992038,24.588064316463694,1000.0,1000.0,0.0,23000
24000,0,59.10480605333646,0.0006890296936035156,0.0001423358917236328,0.017734289169311523,23988.0,0.005391553156077862,1.1147578144073487,0.0009325410262681544,1.2335785245895385,0.2650260205070178,-1.2952331602573395,1.723999301592509,0.03430925620098909,43.94136482435779,1000.0,24.0,36.29870123915748,9.37437104060412,1000.0,1000.0,0.0,24000
25000,0,66.26859936599104,0.0006129741668701172,0.0003407001495361328,0.017281532287597656,24988.0,0.007020782548934222,1.4865509462356568,0.0010091620543971657,1.6506367444992065,0.23399403194586435,-1.6900574465592701,1.091169645388921,0.03299548507978519,39.54636526939011,1000.0,25.0,42.45505709819095,12.60584677287538,1000.0,1000.0,0.0,25000
26000,0,65.26705892531587,0.0008959770202636719,0.00016617774963378906,0.017423629760742188,25988.0,0.007773044724017381,1.943818016052246,0.0010588011122308672,2.190465087890625,0.19790838162104288,-2.1948275566101074,0.2252233320226272,0.03178904019296169,28.346082903925282,1000.0,26.0,31.23950901593927,11.876396820103334,1000.0,1000.0,0.0,26000
27000,0,64.1324218647268,0.0006568431854248047,0.00018906593322753906,0.016912460327148438,26988.0,0.00809091292321682,2.6626249599456786,0.0010145328496582806,2.9863950538635256,0.17371584102511406,-2.9718501965204873,-0.3358071098725001,0.030666873479882877,35.72815155504202,1000.0,27.0,16.718564248674124,10.203669734670374,1000.0,1000.0,0.0,27000
28000,0,65.23839061680496,0.0007996559143066406,0.00016188621520996094,0.016735076904296875,27988.0,0.007475170828402042,3.4763811016082764,0.0010567398089915514,3.8186357021331787,0.1568937487900257,-3.7884872555732727,-0.6972430596748987,0.029584971566994984,9.936984813894268,1000.0,28.0,1.568257652068887,0.044268128047144716,1000.0,1000.0,0.0,28000
29000,0,65.79618278028178,0.0006616115570068359,0.00013637542724609375,0.01746964454650879,28988.0,0.00730435449630022,4.12739818572998,0.001021494318265468,4.356512355804443,0.16612723718086878,-4.356041153271993,-0.16175099834799767,0.02845254633575678,14.778225229634163,1000.0,29.0,15.424726743504431,0.9736378128077687,1000.0,1000.0,0.0,29000
30000,0,59.06971241866884,0.0006761550903320312,0.00015282630920410156,0.017364025115966797,29988.0,0.007609511222690344,4.489835987091064,0.0009905790723860263,4.608676509857178,0.1944920408229033,-4.64339005947113,1.167140672604243,0.027133796208848555,37.208890250389054,1000.0,30.0,23.6536638943375,3.207693928182536,1000.0,1000.0,0.0,30000
31000,0,65.59790802569925,0.0005841255187988281,0.00017499923706054688,0.01699233055114746,30988.0,0.010165884345769882,4.816479721069336,0.0011107229627668857,4.995021095275879,0.16552713016668955,-4.9949014981587725,0.4019117256005605,0.02585352786506216,28.711762037117193,1000.0,31.0,31.36120572145856,1.7812557621090195,1000.0,1000.0,0.0,31000
32000,0,66.40028267942608,0.0008306503295898438,0.00016427040100097656,0.017646074295043945,31988.0,0.011259029693901539,5.2935858154296875,0.0012441603373736143,5.492020206451416,0.14674105246861777,-5.488815387090047,-0.0802079049559931,0.024786177246520918,18.12837724228637,1000.0,32.0,25.203021005227424,2.3258153187321864,1000.0,1000.0,0.0,32000
33000,0,64.45140372174501,0.000713348388671875,0.0001404285430908203,0.016460180282592773,32988.0,0.01557542584836483,5.75652509689331,0.0014800964761525392,5.936983737945557,0.1386316381394863,-5.940704941749573,-0.16477326148500046,0.02375568465019266,30.19522473373776,1000.0,33.0,17.422551961090846,2.5467406873015523,1000.0,1000.0,0.0,33000
34000,0,65.63580744970321,0.0008761882781982422,0.00013971328735351562,0.01725292205810547,33988.0,0.01967448592185974,6.160401668548584,0.0015866200905293227,6.350058078765869,0.12687654979526997,-6.3438330094019575,-0.42753668998678523,0.02276645616317789,47.221340775730134,1000.0,34.0,56.780557566902246,1.8780916180133442,1000.0,1000.0,0.0,34000
35000,0,65.16107943917683,0.0006749629974365234,0.00014352798461914062,0.01679372787475586,34988.0,0.02648114785552025,6.6373637008666995,0.0018012215895578266,6.882095680236817,0.10534676288565,-6.872881372769673,-1.1830763171116512,0.021868330892175436,58.50977887440161,1000.0,35.0,46.46964266883212,7.105088002318568,1000.0,1000.0,0.0,35000
36000,0,59.51545388241371,0.0007171630859375,0.00017333030700683594,0.01709890365600586,35988.0,0.03358532153069973,7.193382949829101,0.002002493436448276,7.444883270263672,0.10055591228107612,-7.412555456161499,-1.2220672170321147,0.02104422776028514,56.43575584226126,1000.0,36.0,51.19417296038925,10.193133422038798,1000.0,1000.0,0.0,36000
37000,0,65.62586642083002,0.000736236572265625,0.0001518726348876953,0.0171356201171875,36988.0,0.028479482755064966,7.655817718505859,0.0017597401328384877,7.844775886535644,0.10819930334885915,-7.836805423100789,-0.6294277211030325,0.020144915984322626,60.70877171761344,1000.0,37.0,53.539405931659495,23.86030178782488,1000.0,1000.0,0.0,37000
38000,0,65.27538801335668,0.0009775161743164062,0.0001838207244873047,0.018381834030151367,37988.0,0.02391930893063545,7.992247066497803,0.0016320492373779415,8.149325256347657,0.10625015385448933,-8.137902021408081,-0.47742629299561185,0.019237312177817028,52.545422025997595,1000.0,38.0,37.22906665542642,24.427040593449654,1000.0,1000.0,0.0,38000
39000,0,64.0774373327141,0.0006544589996337891,0.00014281272888183594,0.017073392868041992,38988.0,0.02044567547738552,8.233313789367676,0.0015882122050970794,8.395205078125,0.09826766451199849,-8.381171067555746,-0.6514058162768682,0.018371082842350006,14.629453545578896,1000.0,39.0,17.90593505308569,8.538047940228406,1000.0,1000.0,0.0,39000
40000,0,65.94639264472721,0.0007097721099853516,0.00014972686767578125,0.01652693748474121,39988.0,0.020024612843990326,8.546114196777344,0.001701449709944427,8.73679500579834,0.08183879777789116,-8.710190534591675,-1.3483929733435314,0.01759238603214423,24.393229984291583,1000.0,40.0,15.304274194067597,6.067249112899006,1000.0,1000.0,0.0,40000
41000,0,65.7352600068959,0.00069427490234375,0.00014352798461914062,0.016870975494384766,40988.0,0.0208307958394289,8.905522003173829,0.0015605786256492138,9.117669715881348,0.06873367478450139,-9.080973148345947,-1.9393216570218403,0.01692535790304343,27.1617478744192,1000.0,41.0,39.62472154819258,29.766407918669124,1000.0,1000.0,0.0,41000
42000,0,59.15118420718619,0.0006647109985351562,0.0001308917999267578,0.016839027404785156,41988.0,0.022466142177581788,9.226166877746582,0.0017731151729822158,9.418846168518066,0.06557290131847064,-9.389311075210571,-1.9725119074185689,0.016280109528452158,29.51943525552007,1000.0,42.0,76.47117058926197,35.47927431451556,1000.0,1000.0,0.0,42000
43000,0,64.9759076758343,0.0010001659393310547,0.00017452239990234375,0.01861572265625,42988.0,0.023077429533004762,9.540345001220704,0.001870660837739706,9.74811622619629,0.056032405234873295,-9.709666093190512,-2.423201064268748,0.015664315937707823,47.41780508383725,1000.0,43.0,36.68141241986366,32.13710418662079,1000.0,1000.0,0.0,43000
44000,0,63.95218418845773,0.0007047653198242188,0.0001468658447265625,0.01723790168762207,43988.0,0.02729485385119915,9.89993869781494,0.0019957712572067974,10.114323768615723,0.04822685103863478,-10.06969944636027,-2.8060696721076965,0.015098285938923558,71.29768192052835,1000.0,44.0,44.60629156584104,20.91659137462144,1000.0,1000.0,0.0,44000
45000,0,65.65919306098067,0.0007135868072509766,0.00014448165893554688,0.016923904418945312,44988.0,0.02788607120513916,10.220208625793457,0.0018847651919350029,10.408697814941407,0.04775765134642521,-10.359011252721151,-2.715235193570455,0.014537970069795847,56.39664745787533,1000.0,45.0,64.37688630787076,44.860651350054376,1000.0,1000.0,0.0,45000
46000,0,65.54833127982202,0.0006186962127685547,0.00013589859008789062,0.01710057258605957,45988.0,0.02676423765718937,10.473173484802246,0.0019274453911930322,10.639822425842285,0.04679924932618936,-10.58843469619751,-2.645234684149424,0.01394892887522777,78.23203328669621,1000.0,46.0,41.111483749849754,9.168596528948024,1000.0,1000.0,0.0,46000
47000,0,59.041208733974585,0.0006844997406005859,0.00018405914306640625,0.016777992248535156,46988.0,0.024867268055677415,10.708508377075196,0.0018709027161821724,10.883995666503907,0.04186783513675133,-10.83159907658895,-2.869031528631846,0.013371048883224526,30.85774939218102,1000.0,47.0,40.27184600120957,11.028116843501582,1000.0,1000.0,0.0,47000
48000,0,65.39527753714975,0.0006999969482421875,0.00014066696166992188,0.016560792922973633,47988.0,0.030641842186450958,11.04553394317627,0.002477165530435741,11.314844970703126,0.022691705419371527,-11.248770395914713,-4.246577103932698,0.012940654453511039,16.221830830483743,1000.0,48.0,69.16425389487611,28.16717467874591,1000.0,1000.0,0.0,48000
49000,0,65.42645158512715,0.0009427070617675781,0.00017690658569335938,0.018366098403930664,48988.0,0.038836706280708316,11.709493446350098,0.0025453301426023246,12.096186141967774,0.009986356133595109,-11.999322175979614,-5.213532408078511,0.012697392298529545,117.53261977672562,1000.0,49.0,95.20247828234777,50.87476505404957,1000.0,1000.0,0.0,49000
50000,0,65.73666115818536,0.0006608963012695312,0.0001430511474609375,0.017346858978271484,49988.0,0.0478433145582676,12.524028854370117,0.0026802216004580257,12.885445709228515,0.014830761278669039,-12.851887861887613,-4.814051628112793,0.012504402780905366,96.28458799171582,1000.0,50.0,49.81865630708433,22.790855933268613,1000.0,1000.0,0.0,50000
51000,0,65.77711423436534,0.0006208419799804688,0.00017213821411132812,0.016930818557739258,50988.0,0.04829879999160767,13.055335083007812,0.00277537452057004,13.30719051361084,0.027059171504030626,-13.267278671264648,-3.7508443792661033,0.012029417945692936,106.74784492304096,1000.0,51.0,91.3307898040494,44.405372890153075,1000.0,1000.0,0.0,51000
52000,0,65.66211229442548,0.0006532669067382812,0.00013828277587890625,0.017344951629638672,51988.0,0.041298024207353595,13.422545509338379,0.0028920385148376226,13.627836570739746,0.030658270542820294,-13.592378934224447,-3.3091570337613425,0.011392409292360147,50.94995714062067,1000.0,52.0,73.12307378253067,33.39084003054557,1000.0,1000.0,0.0,52000
53000,0,61.79187576755446,0.0006566047668457031,0.0001373291015625,0.016367197036743164,52988.0,0.039578158557415005,13.779777946472167,0.00271507540717721,14.006999855041505,0.022287709172815084,-13.968027750651041,-3.9554619590441384,0.010900249627108375,86.51363632909211,1000.0,53.0,82.53722622495334,37.91509832492444,1000.0,1000.0,0.0,53000
54000,0,61.82780038703697,0.0006749629974365234,0.00014328956604003906,0.016846895217895508,53988.0,0.041351145803928374,14.248908233642577,0.00264976192265749,14.522090835571289,0.010956825378040472,-14.437807083129883,-4.96255608399709,0.010560983947167793,131.9361261356144,1000.0,54.0,125.37609736378867,24.610005099970415,1000.0,1000.0,0.0,54000
55000,0,64.61710438988558,0.0009882450103759766,0.0002048015594482422,0.017022371292114258,54988.0,0.043229518085718156,14.804865646362305,0.0025461431685835124,15.11714859008789,0.005199059455965956,-15.073739051818848,-5.499438802401225,0.010386264262100061,73.20279558060385,1000.0,55.0,1.9352692838802081,0.3484093481685618,1000.0,1000.0,0.0,55000
56000,0,65.89202283588514,0.0006659030914306641,0.00014281272888183594,0.01700305938720703,55988.0,0.03855489656329155,15.328771553039552,0.002420926336199045,15.613363456726074,0.010450554235527912,-15.549081563949585,-4.971370339393616,0.010159296837324897,3.899529569560709,1000.0,56.0,5.09984175380183,0.6030461604010215,1000.0,1000.0,0.0,56000
57000,0,65.71976890379725,0.0006365776062011719,0.0001690387725830078,0.017162561416625977,56988.0,0.033514105230569836,15.707295074462891,0.002131148776970804,15.92719757080078,0.013674315996468067,-15.848846435546875,-4.59992253780365,0.009765544285376867,6.019325285878224,1000.0,57.0,1.4712209967020153,0.2531247132104771,1000.0,1000.0,0.0,57000
58000,0,65.03781037254629,0.0006580352783203125,0.0002105236053466797,0.016658306121826172,57988.0,0.030509481355547905,15.916030807495117,0.002319450592622161,16.079160957336427,0.016081983068337042,-16.050067742665608,-4.268782019615173,0.009287938242778182,21.98763793977079,1000.0,58.0,95.15797836705349,7.829339159906204,1000.0,1000.0,0.0,58000
59000,0,60.8539715002362,0.0007038116455078125,0.00014257431030273438,0.01679372787475586,58988.0,0.034543623849749565,16.07194076538086,0.0027641827054321767,16.2173486328125,0.014381231584896645,-16.182695229848225,-4.3660093148549395,0.008800337944800654,97.94165551126673,1000.0,59.0,90.69728756511199,33.332634578140805,1000.0,1000.0,0.0,59000
60000,0,63.35090838678651,0.0006818771362304688,0.0003108978271484375,0.016811370849609375,59988.0,0.036766812205314636,16.252857208251953,0.0027335997857153415,16.464104461669923,0.006676103764524062,-16.434077262878418,-5.213916659355164,0.00849248367982606,165.03635403646598,1000.0,60.0,117.94411373425285,43.75339503588465,1000.0,1000.0,0.0,60000
61000,0,65.68411768538053,0.0008599758148193359,0.0001742839813232422,0.0179746150970459,60988.0,0.04318293169140816,16.506193618774414,0.0027617925871163606,16.73120429992676,0.001956656497592727,-16.646731853485107,-5.766137560208638,0.008366338675841689,70.90469113360083,1000.0,61.0,79.71890080771429,31.99268102512055,1000.0,1000.0,0.0,61000
62000,0,64.60810645116172,0.0007154941558837891,0.00014543533325195312,0.017293214797973633,61988.0,0.043646898865699765,16.8290926361084,0.0025753846019506456,17.035680236816408,0.0014307695867804189,-16.98459529876709,-5.826683044433594,0.008254956842089692,164.49251768094416,1000.0,62.0,86.48654216215662,47.50654727960233,1000.0,1000.0,0.0,62000
63000,0,66.0829187563573,0.0007283687591552734,0.00014543533325195312,0.01707911491394043,62988.0,0.041391827166080475,16.915572357177734,0.002638340005651116,17.0969522857666,0.006657960242591798,-17.052005132039387,-5.172090609868367,0.008041087926054994,34.79126049035764,1000.0,63.0,97.80806484026643,63.395721034411665,1000.0,1000.0,0.0,63000
64000,0,65.92591055725205,0.0006422996520996094,0.00014710426330566406,0.017707347869873047,63988.0,0.04238825216889382,17.022616806030275,0.0028614392969757317,17.196425857543947,0.006523085370038946,-17.1358159383138,-5.156435449918111,0.007731853906686108,98.53760121190247,1000.0,64.0,80.19064970954423,34.817904774538846,1000.0,1000.0,0.0,64000
65000,0,65.19896211521565,0.0006692409515380859,0.0001537799835205078,0.016707897186279297,64988.0,0.04232655331492424,17.111799697875977,0.0028264817502349614,17.298494567871092,0.0028501891162401685,-17.248452186584473,-5.617429137229919,0.0074498776424055295,104.53369593512113,1000.0,65.0,80.18408782158545,47.48226285871557,1000.0,1000.0,0.0,65000
66000,0,59.37361273430634,0.0007171630859375,0.00016188621520996094,0.017174243927001953,65988.0,0.045183962285518645,17.395436782836914,0.0028533477801829577,17.58480842590332,0.0011277490581657428,-17.528610706329346,-5.84561272462209,0.007304220227524638,241.0846981394544,1000.0,66.0,135.14896705156715,53.220979947318924,1000.0,1000.0,0.0,66000
67000,0,64.38025373252542,0.0006992816925048828,0.0001361370086669922,0.016438961029052734,66988.0,0.04749804869294166,17.63177230834961,0.0027224601805210112,17.826722717285158,0.0015418418867435928,-17.784186363220215,-5.787230650583903,0.007246654985162119,137.70812577906182,1000.0,67.0,127.92576116483376,83.29916434153748,1000.0,1000.0,0.0,67000
68000,0,66.05473609943084,0.000629425048828125,0.0001366138458251953,0.016662120819091797,67988.0,0.04703578740358352,17.738876953125,0.002666791323572397,17.95386734008789,-0.0009923831748892553,-17.896684010823567,-6.136743625005086,0.007257304736413062,58.1679473154486,1000.0,68.0,106.56227124296404,52.78801326474721,1000.0,1000.0,0.0,68000
69000,0,65.03704392861019,0.0007016658782958984,0.0002155303955078125,0.0175936222076416,68988.0,0.04516321241855621,17.874824676513672,0.00300847084261477,18.078654098510743,-0.0011041793623007834,-17.965621789296467,-6.149584770202637,0.007382406232257684,68.92078084280094,1000.0,69.0,96.70802477388523,24.818028027712824,1000.0,1000.0,0.0,69000
70000,0,65.63399976590046,0.0007359981536865234,0.00014281272888183594,0.01662445068359375,69988.0,0.047040769159793855,17.98518020629883,0.0028488465398550035,18.157503356933592,0.0026359643476704755,-18.117900371551514,-5.635133941968282,0.007224514537180464,114.75018099276882,1000.0,70.0,142.42075995670092,43.771402921976645,1000.0,1000.0,0.0,70000
71000,0,65.65010809413111,0.0007147789001464844,0.00013756752014160156,0.017151355743408203,70988.0,0.048044979423284534,18.192558898925782,0.00293087225407362,18.3612638092041,0.0013196902024598482,-18.3113218943278,-5.808740456899007,0.006900146370753646,158.47598885888772,1000.0,71.0,119.62978403987321,40.91481535819617,1000.0,1000.0,0.0,71000
72000,0,58.265843020913614,0.0006356239318847656,0.000141143798828125,0.0173947811126709,71988.0,0.04611565575003624,18.28339645385742,0.0028521834127604962,18.48300567626953,-0.0008085534548930203,-18.45948362350464,-6.114622155825297,0.0070584681040296955,66.63549664171535,1000.0,72.0,137.73854748458126,43.42320001870468,1000.0,1000.0,0.0,72000
73000,0,66.34176216509645,0.00072479248046875,0.00014448165893554688,0.016890525817871094,72988.0,0.04640849724411964,18.39993064880371,0.0027099932078272103,18.58787872314453,0.0005951564695957737,-18.51143503189087,-5.916844924290975,0.00715712842065841,124.76897385020588,1000.0,73.0,153.55504815740915,21.157530531576263,1000.0,1000.0,0.0,73000
74000,0,66.78172969020873,0.0009894371032714844,0.0001735687255859375,0.018435239791870117,73988.0,0.04151979446411133,18.551701049804688,0.0026453453581780197,18.72811233520508,0.0011166978462521608,-18.689479033152264,-5.842336297035217,0.007083213422447443,59.172424910637574,1000.0,74.0,107.16336416836604,45.54814355525117,1000.0,1000.0,0.0,74000
75000,0,67.46937717120151,0.0011925697326660156,0.0002503395080566406,0.017629146575927734,74988.0,0.04305457606911659,18.595946426391603,0.002837084550410509,18.750356979370117,0.0027044740272685885,-18.745566685994465,-5.602352261543274,0.0067997991961116595,90.30820328446177,1000.0,75.0,8.466025568250753,13.113514776447287,1000.0,1000.0,0.0,75000
76000,0,66.35544831452924,0.0006780624389648438,0.00013494491577148438,0.01639413833618164,75988.0,0.04308994472026825,18.709580764770507,0.002909883949905634,18.86321144104004,0.0018300681743615617,-18.83321412404378,-5.721095522244771,0.006559149983028571,129.1622068364186,1000.0,76.0,107.73066074289211,48.00416978678656,1000.0,1000.0,0.0,76000
77000,0,66.77773192514813,0.000720977783203125,0.0001480579376220703,0.01677989959716797,76988.0,0.04258129373192787,18.637579879760743,0.002821493102237582,18.80291328430176,-0.0003207519075658638,-18.7107416788737,-6.049208442370097,0.006517633136051397,75.91196820932181,1000.0,77.0,114.88149589703832,56.29907803976684,1000.0,1000.0,0.0,77000
78000,0,61.741774984175585,0.0006525516510009766,0.00015306472778320312,0.016619443893432617,77988.0,0.04654100522398949,18.713992080688477,0.003188552614301443,18.90819091796875,-0.0038213534183645,-18.81518809000651,-6.549229423205058,0.006958994936818878,65.89020452221108,1000.0,78.0,126.6187989230103,48.38011039804997,1000.0,1000.0,0.0,78000
79000,0,61.890020227155624,0.0006387233734130859,0.00017309188842773438,0.016025304794311523,78988.0,0.04754133641719818,18.891895599365235,0.002965764682739973,19.068695678710938,-0.00012190704728709534,-18.961523214975994,-6.016611019770305,0.007337906747125089,223.30361525597,1000.0,79.0,192.04700476933985,57.2680719245975,1000.0,1000.0,0.0,79000
80000,0,67.26491861117793,0.0006351470947265625,0.00013828277587890625,0.016507863998413086,79988.0,0.05161687836050987,19.112250442504884,0.003272379608824849,19.248425064086913,0.0019686968735186383,-19.14425532023112,-5.723458925882976,0.007119186455383897,203.38358942544048,1000.0,80.0,177.49492817220454,58.97212671208666,1000.0,1000.0,0.0,80000
81000,0,67.38435279722796,0.0009417533874511719,0.00016117095947265625,0.017400503158569336,80988.0,0.04321082517504692,19.120507583618163,0.0028911145869642495,19.217165451049805,0.005533669842407107,-19.215539296468098,-5.161600351333618,0.006599408768427868,223.78284370009357,1000.0,81.0,207.00212799628457,64.741043669117,1000.0,1000.0,0.0,81000
82000,0,66.81219646778018,0.0007085800170898438,0.000148773193359375,0.016254901885986328,81988.0,0.03917220011353493,19.164405746459963,0.0028061660658568145,19.27308349609375,0.0031265259021893144,-19.195181369781494,-5.49794336160024,0.00622680220597734,282.1422707099275,1000.0,82.0,125.16440316098333,60.54020041159449,1000.0,1000.0,0.0,82000
83000,0,67.70396560874916,0.0006937980651855469,0.00015497207641601562,0.017094135284423828,82988.0,0.04473571911454201,19.13889060974121,0.002984210196882486,19.26105941772461,0.00141837403983421,-19.177123705546062,-5.76432192325592,0.006018259989408155,128.25338546909143,1000.0,83.0,130.03940931145013,87.27276284905446,1000.0,1000.0,0.0,83000
84000,0,64.94660951861853,0.0006563663482666016,0.00019025802612304688,0.01650691032409668,83988.0,0.04364581897854805,19.24643341064453,0.0026655099261552097,19.382898101806642,0.00046025405026739463,-19.406468709309895,-5.923518856366475,0.006017822655849159,207.8493506244732,1000.0,84.0,100.41748014569963,45.71956962340932,1000.0,1000.0,0.0,84000
85000,0,64.74725700852922,0.0007276535034179688,0.0001926422119140625,0.017024755477905273,84988.0,0.046960928589105604,19.10190757751465,0.003221361357718706,19.224535064697264,0.0007692619207470367,-19.212449709574383,-5.871657768885295,0.00599416671320796,76.16710115159756,1000.0,85.0,101.42597295294158,55.41234680457656,1000.0,1000.0,0.0,85000
86000,0,60.69117521085544,0.00067901611328125,0.0001423358917236328,0.016977548599243164,85988.0,0.03944373190402985,19.05039840698242,0.0025041622761636973,19.17306282043457,0.00027428020500034717,-19.113479773203533,-5.954232891400655,0.005992792740774651,118.12229670494982,1000.0,86.0,67.27953311276536,12.40032665144334,1000.0,1000.0,0.0,86000
87000,0,65.74164809294074,0.0006353855133056641,0.00014352798461914062,0.016942977905273438,86988.0,0.03881428822875023,19.04532829284668,0.0025561492796987296,19.177505569458006,-0.001751108449146462,-19.188409964243572,-6.284446756045024,0.006156382306168477,54.38107229665781,1000.0,87.0,130.93140758982685,58.3452503843484,1000.0,1000.0,0.0,87000
88000,0,65.42681899580076,0.0009362697601318359,0.00016832351684570312,0.018300771713256836,87988.0,0.04323421224951744,19.114330673217772,0.0026571491546928884,19.247083740234373,-0.0010218585812253878,-19.184088548024494,-6.1618350346883135,0.006314342259429395,182.15176237015788,1000.0,88.0,158.91246002587968,38.174139618604364,1000.0,1000.0,0.0,88000
89000,0,65.81080122687297,0.000652313232421875,0.00013589859008789062,0.01681828498840332,88988.0,0.04036865368485451,19.055842666625978,0.0025060923118144273,19.194423446655275,-0.0006412181367826028,-19.19407908121745,-6.0988404750823975,0.006487389754814406,70.1328622507994,1000.0,89.0,147.12073908849908,52.36329008325825,1000.0,1000.0,0.0,89000
90000,0,66.20149048308117,0.0006909370422363281,0.0001590251922607422,0.01670384407043457,89988.0,0.05047484159469604,19.08376876831055,0.003583619510754943,19.2014933013916,0.0010499534801056143,-19.09025780359904,-5.83630096912384,0.006414665258489549,191.96839896387107,1000.0,90.0,151.67659656420426,62.02195478521559,1000.0,1000.0,0.0,90000
91000,0,65.074419011648,0.0007028579711914062,0.00015997886657714844,0.016660690307617188,90988.0,0.04123672008514404,19.03166404724121,0.0025300268363207578,19.134527969360352,0.000676466971829844,-19.127322514851887,-5.888575116793315,0.0060711319868763285,90.68550489593498,1000.0,91.0,118.32301767789195,33.87774418082717,1000.0,1000.0,0.0,91000
92000,0,62.05274663365317,0.0006551742553710938,0.00017404556274414062,0.017098426818847656,91988.0,0.0451524917781353,19.071514205932615,0.0033664062712341547,19.183802642822265,-0.0007784806366544217,-19.182741006215412,-6.128608226776123,0.006053431813294689,221.86502839932035,1000.0,92.0,209.1125852391845,36.37344924620287,1000.0,1000.0,0.0,92000
93000,0,67.92060763324365,0.0007236003875732422,0.00016164779663085938,0.017133235931396484,92988.0,0.04117804199457169,19.054926986694337,0.002743006506934762,19.154091720581054,0.0016433338047742534,-19.104031562805176,-5.726240436236064,0.006002334606212874,235.6095088948261,1000.0,93.0,181.2686047542979,59.86609668406852,1000.0,1000.0,0.0,93000
94000,0,67.48170853747457,0.0009884834289550781,0.00019812583923339844,0.018489360809326172,93988.0,0.045177330672740934,19.1655615234375,0.0028780183382332326,19.264859237670898,0.0009237542617483996,-19.215385913848877,-5.842442870140076,0.005862131831236184,185.0539506609506,1000.0,94.0,168.488843839479,39.51623853317522,1000.0,1000.0,0.0,94000
95000,0,67.60762437515031,0.0010983943939208984,0.00025916099548339844,0.01866769790649414,94988.0,0.0471025288105011,19.06097381591797,0.0031513860169798138,19.1718123626709,0.0003391434784134617,-19.074245770772297,-5.941993832588196,0.005845703301019967,44.70095106293336,1000.0,95.0,124.8036854314975,42.36208676047587,1000.0,1000.0,0.0,95000
96000,0,66.21428255694268,0.0006949901580810547,0.00014281272888183594,0.016906023025512695,95988.0,0.045377267152071,19.16172950744629,0.0026391955371946095,19.28526023864746,-0.002179456981442248,-19.24446137746175,-6.362494111061096,0.006012945513551434,201.7940988534039,1000.0,96.0,159.54314243836924,40.08028704567921,1000.0,1000.0,0.0,96000
97000,0,65.28908484226217,0.0007042884826660156,0.00014901161193847656,0.016644954681396484,96988.0,0.04307192206382751,19.03183609008789,0.0025327478256076574,19.13627471923828,0.000697300192162705,-19.184868176778156,-5.884998718897502,0.006062072973387937,73.98136066784947,1000.0,97.0,169.34334680333444,40.12958082016655,1000.0,1000.0,0.0,97000
98000,0,67.53160101731221,0.00069427490234375,0.00014281272888183594,0.016584396362304688,97988.0,0.04350695580244064,18.955629653930664,0.0024849658785387873,19.051365127563475,0.001589125193277141,-19.016338507334392,-5.732703526814778,0.005944195436313748,172.49548282517532,1000.0,98.0,184.4883084317492,44.846819314152384,1000.0,1000.0,0.0,98000
99000,0,60.34615521851379,0.0006799697875976562,0.00013899803161621094,0.0163118839263916,98988.0,0.04218324929475784,18.91721939086914,0.0025098111713305117,19.007432250976564,0.0007954607644933276,-19.035627683003742,-5.862864414850871,0.005799694840485851,171.9269730877387,1000.0,99.0,200.0106137358053,44.40463446617437,1000.0,1000.0,0.0,99000
100000,0,63.19540035919627,0.0007252693176269531,0.0002002716064453125,0.016459226608276367,99988.0,0.044565356820821765,18.814700622558593,0.002718579452484846,18.903266372680665,-0.0004500354455861573,-18.860245068868,-6.078895886739095,0.005706097465008497,138.00799547309924,1000.0,100.0,188.98500213293676,56.89025483024679,1000.0,1000.0,0.0,100000
101000,0,66.75915285369122,0.0007557868957519531,0.0001494884490966797,0.016729116439819336,100988.0,0.04273080304265022,18.749129791259765,0.002661213343963027,18.843884048461913,-0.0006392660082686538,-18.793935934702557,-6.111148754755656,0.005752051831223071,101.19752298283699,1000.0,101.0,218.9962922408452,59.17900154349799,1000.0,1000.0,0.0,101000
102000,0,66.08550094031875,0.0009810924530029297,0.00017571449279785156,0.017902851104736328,101988.0,0.04335931360721588,18.70845199584961,0.0025413940846920014,18.79660369873047,-0.001003170584832939,-18.752493222554524,-6.171602368354797,0.005846277150946359,144.0658539231929,1000.0,102.0,175.54883918617253,65.2627611810726,1000.0,1000.0,0.0,102000
103000,0,64.9018280130277,0.0008029937744140625,0.00017261505126953125,0.017197370529174805,102988.0,0.0445053020119667,18.816048202514647,0.0024716760404407978,18.903401947021486,-0.0002819019282469526,-18.82655652364095,-6.047695914904277,0.005910734063945711,219.12478889074976,1000.0,103.0,122.97929741297006,58.116864506361786,1000.0,1000.0,0.0,103000
104000,0,64.5461445322575,0.0008790493011474609,0.00017023086547851562,0.016871213912963867,103988.0,0.04511876121163368,18.80232521057129,0.002776340851560235,18.89251693725586,-0.0002991706520939867,-18.865153789520264,-6.050620198249817,0.005910329171456397,227.60547828004485,1000.0,104.0,174.32061602635395,46.11519585017038,1000.0,1000.0,0.0,104000
105000,0,61.2270327682481,0.0008285045623779297,0.0001595020294189453,0.017864465713500977,104988.0,0.0437198930978775,18.697847213745117,0.0025787183130159975,18.783595962524416,0.0011787629191530868,-18.775341828664143,-5.802105704943339,0.00595641628994296,73.13342193866242,1000.0,105.0,206.30223578339513,58.64695636601809,1000.0,1000.0,0.0,105000
106000,0,65.69374711024848,0.0007770061492919922,0.00015425682067871094,0.017107725143432617,105988.0,0.050486778914928435,18.741904678344728,0.0033819908648729325,18.835389099121095,-0.001014957398486634,-18.800596555074055,-6.168945113817851,0.006007624596046905,256.7727755544707,1000.0,106.0,203.5861625951818,53.49043331199425,1000.0,1000.0,0.0,106000
107000,0,64.80495955314085,0.0011284351348876953,0.0001842975616455078,0.018331050872802734,106988.0,0.044325964003801344,18.747038650512696,0.0027382534835487604,18.8459854888916,0.0003548126866614136,-18.873612880706787,-5.941784898440043,0.006094067279870312,181.70198685244736,1000.0,107.0,161.858943391055,67.0262776280383,1000.0,1000.0,0.0,107000
108000,0,64.17634393334222,0.0006511211395263672,0.0001373291015625,0.016330480575561523,107988.0,0.04368774130940437,18.555244522094725,0.002492881054058671,18.651585540771485,0.00019317516853334382,-18.58029381434123,-5.968600074450175,0.006152422827047606,97.1837331074276,1000.0,108.0,169.82410360983815,61.07228124241796,1000.0,1000.0,0.0,108000
109000,0,62.52055545949427,0.0008704662322998047,0.00016117095947265625,0.0172879695892334,108988.0,0.05043953076004982,18.555222549438476,0.0033633385039865973,18.649534606933592,0.0006209996111768609,-18.66257317860921,-5.898671388626099,0.006128038008076449,104.9655817702024,1000.0,109.0,152.51141885066662,53.93406674831138,1000.0,1000.0,0.0,109000
110000,0,53.98080203943582,0.0008692741394042969,0.00015974044799804688,0.01788330078125,109988.0,0.04491987600922585,18.476990966796876,0.002523273788392544,18.5721794128418,-0.000406461680540815,-18.56146462758382,-6.0667481025060015,0.0060893358119453,169.19731908686975,1000.0,110.0,202.31807052208055,76.67055091003022,1000.0,1000.0,0.0,110000
111000,0,64.14831164826883,0.0011408329010009766,0.00019741058349609375,0.019473791122436523,110988.0,0.044908705055713656,18.419186782836913,0.002552641062065959,18.515582275390624,0.0003903127156566673,-18.48996130625407,-5.936242739359538,0.006121861321541171,138.62382476403084,1000.0,111.0,160.00451562734605,45.916313399903515,1000.0,1000.0,0.0,111000
112000,0,62.4590709789787,0.001191854476928711,0.0001666545867919922,0.01701068878173828,111988.0,0.047702629566192624,18.506492843627928,0.002793251071125269,18.598804550170897,0.0005654171667022941,-18.61711851755778,-5.907638788223267,0.006121385260485113,283.7315165886199,1000.0,112.0,153.26092681023357,67.17563384497718,1000.0,1000.0,0.0,112000
113000,0,62.25079225237141,0.0008537769317626953,0.00016570091247558594,0.016992568969726562,112988.0,0.04994710594415665,18.580018615722658,0.0026684536039829256,18.67093704223633,1.862637388209502e-05,-18.638279914855957,-5.997017343839009,0.006166279354753594,200.65579577643356,1000.0,113.0,168.7656413004076,56.86008936240516,1000.0,1000.0,0.0,113000
114000,0,61.98492252889612,0.0009248256683349609,0.0001652240753173828,0.018085956573486328,113988.0,0.05003148436546326,18.616465911865234,0.0026966588012874125,18.706969680786134,-0.0005482549337709012,-18.65308729807536,-6.088474313418071,0.006198573353079458,204.77372380131322,1000.0,114.0,212.7764050584918,59.249076014700286,1000.0,1000.0,0.0,114000
115000,0,61.98763411206859,0.0009601116180419922,0.00016546249389648438,0.018054723739624023,114988.0,0.04472536996006966,18.57678665161133,0.0023681908426806332,18.667118759155272,-0.001001485043767995,-18.6157709757487,-6.161127169926961,0.006216278881765902,142.11312583082278,1000.0,115.0,171.85864390651142,59.42937868871644,1000.0,1000.0,0.0,115000
116000,0,61.52412703386017,0.0009200572967529297,0.0001685619354248047,0.0180206298828125,115988.0,0.04673506036400795,18.683344268798827,0.002559455446898937,18.773022689819335,-0.000522982053856443,-18.754963397979736,-6.084745367368062,0.006171989409873883,212.96133673676204,1000.0,116.0,246.75935280298904,60.48746472584309,1000.0,1000.0,0.0,116000
117000,0,53.59535653023714,0.0012407302856445312,0.00019311904907226562,0.019967317581176758,116988.0,0.05054798662662506,18.689061279296876,0.002254527607001364,18.78222343444824,-0.0005794166985045498,-18.67227379480998,-6.09401003519694,0.006163466488942504,323.1603839517021,1000.0,117.0,240.2412306582326,55.36997790153642,1000.0,1000.0,0.0,117000
118000,0,62.613962886972224,0.0011546611785888672,0.00017952919006347656,0.019145727157592773,117988.0,0.04853604808449745,18.70157569885254,0.0027706657722592356,18.79209602355957,-0.0007804421038599685,-18.78281370798747,-6.12591290473938,0.006198829466787477,199.01477805477376,1000.0,118.0,210.4816702638434,68.99310417957405,1000.0,1000.0,0.0,118000
119000,0,61.64380984630434,0.0009315013885498047,0.0001678466796875,0.01771378517150879,118988.0,0.04936078757047653,18.771924667358398,0.0025735330767929555,18.865773162841798,0.0009465333666109169,-18.86310561498006,-5.849331418673198,0.006281990674324334,234.34989753101513,1000.0,119.0,230.1762448224202,81.60074153726319,1000.0,1000.0,0.0,119000
120000,0,63.36434546988342,0.0008265972137451172,0.0002090930938720703,0.017270565032958984,119988.0,0.053772450536489484,18.85949836730957,0.0030138986650854347,18.95374038696289,-0.0002844848349923268,-18.92206605275472,-6.045269012451172,0.006286461798784633,194.01904212490186,1000.0,120.0,213.98414543861,81.26348762500307,1000.0,1000.0,0.0,120000
121000,0,63.24811792430922,0.0008652210235595703,0.0001614093780517578,0.017500877380371094,120988.0,0.052053312510252,18.793190002441406,0.0026019897405058145,18.880323333740236,0.0010517042270900372,-18.786095937093098,-5.833385626475017,0.0063117162402098375,276.8137779225433,1000.0,121.0,304.24638624931134,27.147671757698344,1000.0,1000.0,0.0,121000
122000,0,60.57211516243819,0.0008840560913085938,0.0001773834228515625,0.017313480377197266,121988.0,0.05196882039308548,18.979327545166015,0.0027325102500617504,19.067518844604493,0.0003142657539380404,-19.067998091379803,-5.950459241867065,0.006338407634757459,305.38253350981273,1000.0,122.0,242.7057989490401,79.55063278185393,1000.0,1000.0,0.0,122000
123000,0,62.513771706833154,0.0012235641479492188,0.00021004676818847656,0.020290613174438477,122988.0,0.04961765021085739,18.91388298034668,0.0026364676747471093,19.005450973510744,-6.85657966338719e-05,-18.929537137349445,-6.010709325472514,0.006399137084372342,119.28160814847588,1000.0,123.0,203.07656173295715,90.4326686044749,1000.0,1000.0,0.0,123000
124000,0,56.210321257433186,0.0008890628814697266,0.00016260147094726562,0.01714920997619629,123988.0,0.05233145162463188,18.815089797973634,0.0024527739034965633,18.90449447631836,-0.0014796061392795916,-18.88772185643514,-6.229776700337728,0.006439847173169255,112.75015537822227,1000.0,124.0,243.6193163510401,75.0477823307553,1000.0,1000.0,0.0,124000
125000,0,62.60824291073494,0.0011937618255615234,0.00018668174743652344,0.02686142921447754,124988.0,0.049797985255718234,18.87253616333008,0.002553119990043342,18.95920349121094,0.0013586683004784088,-18.947107632954914,-5.788613557815552,0.0064271437004208565,268.4285398403435,1000.0,125.0,209.71874643247483,85.47402903584731,1000.0,1000.0,0.0,125000
126000,0,63.454839888748765,0.0007929801940917969,0.00015974044799804688,0.01743936538696289,125988.0,0.05054536059498787,18.97915382385254,0.0024617780838161706,19.068743591308593,0.0010694085867726244,-19.084829489390057,-5.833495140075684,0.006422288405398528,299.03733771054397,1000.0,126.0,158.03769503464875,88.45474984843452,1000.0,1000.0,0.0,126000
127000,0,60.55035911815963,0.0008950233459472656,0.00020456314086914062,0.017954587936401367,126988.0,0.057019529789686205,18.98823616027832,0.0027087070979177953,19.078417129516602,6.800733778315286e-05,-19.027080535888672,-5.989492813746135,0.006472291463675599,278.6796977538047,1000.0,127.0,203.87920964012443,62.926019165875715,1000.0,1000.0,0.0,127000
128000,0,62.68002388662104,0.0009112358093261719,0.0001633167266845703,0.017600297927856445,127988.0,0.054861319810152055,18.924730529785155,0.0026700320187956093,19.012098541259764,-0.0007372066659930473,-19.051394780476887,-6.114428122838338,0.006443139320860307,130.70524221856076,1000.0,128.0,271.2579199684109,56.41676209002177,1000.0,1000.0,0.0,128000
129000,0,61.20934120523169,0.0009233951568603516,0.0001659393310546875,0.017818927764892578,128988.0,0.05193909153342247,18.914941177368163,0.0024596464913338423,19.001703491210936,0.0002160454484207245,-18.946763515472412,-5.966290553410848,0.006408484458612899,189.68609937873717,1000.0,129.0,247.42718099110144,77.56151424271837,1000.0,1000.0,0.0,129000
130000,0,62.67564045857193,0.0009212493896484375,0.000164031982421875,0.017708539962768555,129988.0,0.05707448080182075,18.98242370605469,0.0030948978755623103,19.071324005126954,0.0003862832163576968,-19.136531352996826,-5.939202427864075,0.006348861342606445,274.78733801695284,1000.0,130.0,246.6215309181235,89.74121492502407,1000.0,1000.0,0.0,130000
131000,0,60.86774806235749,0.0009140968322753906,0.00018548965454101562,0.017842769622802734,130988.0,0.06759664982557297,19.106580963134764,0.0033346232492476703,19.182623825073243,0.00016939306563775366,-19.1413091023763,-5.973371068636577,0.006360106558228533,314.277990115607,1000.0,131.0,237.31152466662996,76.76735334628015,1000.0,1000.0,0.0,131000
132000,0,61.57655081209385,0.001047372817993164,0.0001811981201171875,0.01780104637145996,131988.0,0.06300553247332573,19.211276092529296,0.0032648070063441992,19.293550109863283,-0.00016073021712751748,-19.244733333587646,-6.025401035944621,0.006333678727969527,285.7675857285113,1000.0,132.0,171.04722832790017,60.909428078682105,1000.0,1000.0,0.0,132000
133000,0,62.40788288047004,0.0009176731109619141,0.00016355514526367188,0.01785588264465332,132988.0,0.05522210702300072,19.23382453918457,0.0023699416778981686,19.317745513916016,-0.0008584064489696175,-19.315170923868816,-6.134740352630615,0.006370795231002073,241.95201047074642,1000.0,133.0,250.47303570745447,105.66217920255487,1000.0,1000.0,0.0,133000
134000,0,53.608179959100205,0.0009274482727050781,0.0001876354217529297,0.017126798629760742,133988.0,0.05579893052577972,19.180434036254884,0.002669408889487386,19.26223846435547,0.00036966163922140066,-19.27110195159912,-5.942317366600037,0.00640676935048153,157.72161661965794,1000.0,134.0,234.7408819440177,75.7220499316291,1000.0,1000.0,0.0,134000
135000,0,62.20116242788213,0.001399993896484375,0.0002288818359375,0.020388126373291016,134988.0,0.059524523317813875,19.234508209228515,0.002873646756634116,19.32027542114258,-0.00040195916274872917,-19.385780175526936,-6.062678694725037,0.006412546654852728,317.18427552675433,1000.0,135.0,168.98985355085185,62.72073442597829,1000.0,1000.0,0.0,135000
136000,0,61.617257928129575,0.0008642673492431641,0.0002071857452392578,0.017848730087280273,135988.0,0.06239239528775215,19.407463607788085,0.002930297553539276,19.488782577514648,-0.00023846549690157795,-19.37280209859212,-6.03668491045634,0.006501432857476175,335.9072430474896,1000.0,136.0,151.80041903688812,46.19450129525806,1000.0,1000.0,0.0,136000
137000,0,62.70206270947758,0.0013136863708496094,0.00021123886108398438,0.020909547805786133,136988.0,0.06389961034059524,19.1889737701416,0.0030040622549131514,19.272455596923827,0.0003455571471325432,-19.31509017944336,-5.947489698727925,0.006580580336352189,104.71098289636168,1000.0,137.0,181.10574238161854,71.67461767979383,1000.0,1000.0,0.0,137000
138000,0,62.16948360676635,0.0009205341339111328,0.00017189979553222656,0.018542051315307617,137988.0,0.06090529605746269,19.307496871948242,0.003485368564724922,19.397025375366212,0.0001369761642611896,-19.289363225301106,-5.979307413101196,0.006617464784843226,125.82828350755166,1000.0,138.0,187.17195681643872,63.60845298082936,1000.0,1000.0,0.0,138000
139000,0,62.36378797016271,0.0009877681732177734,0.0001609325408935547,0.017384767532348633,138988.0,0.05918493404984474,19.192274017333986,0.0026425994746387006,19.27818183898926,0.0004629781651601661,-19.33236296971639,-5.930070877075195,0.006620587703461449,70.4801593449497,1000.0,139.0,186.0741657092648,80.14817929155589,1000.0,1000.0,0.0,139000
140000,0,61.307183733988786,0.0008552074432373047,0.00015401840209960938,0.016933202743530273,139988.0,0.05571985363960266,19.166040954589842,0.002546395780518651,19.2559415435791,-0.001323559343290981,-19.158087730407715,-6.2012128829956055,0.006578915286809206,168.0853747886344,1000.0,140.0,162.0793197167492,52.17172938357051,1000.0,1000.0,0.0,140000
141000,0,52.3042374584926,0.00095367431640625,0.0001690387725830078,0.01753711700439453,140988.0,0.062294562458992,19.114515762329102,0.003186353649944067,19.199235305786132,-0.00021439966561350351,-19.19568141301473,-6.032573223114014,0.0065856851094091935,91.72328641056536,1000.0,141.0,188.15681098742388,62.91454621017287,1000.0,1000.0,0.0,141000
142000,0,61.90003087398161,0.0011587142944335938,0.00020360946655273438,0.01914691925048828,141988.0,0.059933259189128875,19.2029386138916,0.0025190427713096143,19.291805572509766,-0.00016823000866376484,-19.259185791015625,-6.025708119074504,0.006543642414423327,258.748429833968,1000.0,142.0,170.78661128754612,66.36257561032282,1000.0,1000.0,0.0,142000
143000,0,61.1889817630953,0.0009388923645019531,0.0001671314239501953,0.017255067825317383,142988.0,0.058955358266830446,19.154025268554687,0.0028920764196664096,19.237890396118164,0.0004168697099278991,-19.187010129292805,-5.936260620752971,0.006540383173463245,201.64582089860494,1000.0,143.0,206.7117118852312,97.11601087266945,1000.0,1000.0,0.0,143000
144000,0,53.686211605109065,0.0008831024169921875,0.0002129077911376953,0.01721930503845215,143988.0,0.060913159102201464,19.366215591430663,0.002870027394965291,19.4496492767334,-0.00039158154201383394,-19.549941221872967,-6.059553424517314,0.006575315181786816,172.00067368942516,1000.0,144.0,155.90131004959048,64.06048621591395,1000.0,1000.0,0.0,144000
145000,0,61.15504377357302,0.0013401508331298828,0.0002143383026123047,0.020977020263671875,144988.0,0.06317525550723076,19.28717071533203,0.0028705445770174265,19.36767837524414,0.0011731232625606935,-19.34398953119914,-5.821272412935893,0.006563348734440903,226.760834981541,1000.0,145.0,234.48804415193067,69.45886878951812,1000.0,1000.0,0.0,145000
146000,0,60.81232652199582,0.0009136199951171875,0.00017333030700683594,0.01710367202758789,145988.0,0.0571584615111351,19.076240844726563,0.0026568624190986155,19.157018356323242,-0.00023709746164968237,-19.21767807006836,-6.036325573921204,0.006528020409556727,89.86184537620977,1000.0,146.0,223.72106403973794,91.16609306532654,1000.0,1000.0,0.0,146000
147000,0,60.98584602786127,0.0009357929229736328,0.0002105236053466797,0.017859935760498047,146988.0,0.05823331877589226,19.280256729125977,0.0024833060055971146,19.360915451049806,-0.000834997620889529,-19.23044443130493,-6.127808332443237,0.006534527676800887,262.77954399234653,1000.0,147.0,198.3227608504626,79.38877218674234,1000.0,1000.0,0.0,147000
148000,0,62.96672163220011,0.0009114742279052734,0.00017404556274414062,0.017673969268798828,147988.0,0.0677891132235527,19.251634521484377,0.003118502991273999,19.333994903564452,-0.0005159487094109257,-19.336299896240234,-6.07832670211792,0.006587554390231769,221.43448748753372,1000.0,148.0,260.16912397712167,77.74897824107032,1000.0,1000.0,0.0,148000
149000,0,62.66092112347639,0.0013115406036376953,0.000202178955078125,0.020499229431152344,148988.0,0.06283430352807046,19.344039306640624,0.002852037129923701,19.42580307006836,0.000140914591611363,-19.30539306004842,-5.9787536064783735,0.006634142793094118,297.9398088672035,1000.0,149.0,194.62140893896924,107.60402567207755,1000.0,1000.0,0.0,149000
150000,0,62.14825953033901,0.0008671283721923828,0.0001595020294189453,0.016747713088989258,149988.0,0.06293611481785774,19.343676147460936,0.002976294243708253,19.422305221557618,0.0003836978491259894,-19.451223373413086,-5.941849708557129,0.006598175542118649,85.19518571449885,1000.0,150.0,216.4815882912707,80.3943517381945,1000.0,1000.0,0.0,150000
151000,0,56.21963367936597,0.0008876323699951172,0.0001850128173828125,0.017450332641601562,150988.0,0.0617638872563839,19.321557769775392,0.00325606744736433,19.402289428710937,0.0006557185018512731,-19.35159397125244,-5.899491310119629,0.006521574299161633,158.05727052206691,1000.0,151.0,214.32920434776958,94.73269754113832,1000.0,1000.0,0.0,151000
152000,0,61.5632828787805,0.0013053417205810547,0.0002117156982421875,0.019510984420776367,151988.0,0.06328756377100944,19.221000366210937,0.0028204121347516777,19.303221969604493,0.0002455742748376603,-19.26238759358724,-5.962404767672221,0.006528715059782068,136.8557607769034,1000.0,152.0,183.74501666044398,91.43134612585378,1000.0,1000.0,0.0,152000
153000,0,61.33059914804315,0.0009009838104248047,0.0001747608184814453,0.01683640480041504,152988.0,0.05858814790844917,19.321324996948242,0.002468061652034521,19.396986770629884,0.0005134498690798258,-19.368082682291668,-5.921448469161987,0.0065352834450701875,141.66577388427024,1000.0,153.0,249.1071387530003,92.837592715433,1000.0,1000.0,0.0,153000
154000,0,61.49280935209398,0.0009367465972900391,0.00016498565673828125,0.01754617691040039,153988.0,0.05982298895716667,19.259471130371093,0.0028721335902810096,19.334490814208984,0.0001529895028700897,-19.34294589360555,-5.976653615633647,0.006549415411427617,217.68187521112242,1000.0,154.0,273.83325416110006,70.52425797593759,1000.0,1000.0,0.0,154000
155000,0,61.546407969403354,0.0009334087371826172,0.00016379356384277344,0.017993688583374023,154988.0,0.06174884751439094,19.35727294921875,0.0030214680079370736,19.439228286743162,-0.0008191746407343695,-19.46631320317586,-6.125185489654541,0.0065455396349231405,318.2809419244032,1000.0,155.0,226.71738822090865,92.86975472093204,1000.0,1000.0,0.0,155000
156000,0,61.791802940569845,0.0009174346923828125,0.00016450881958007812,0.01751852035522461,155988.0,0.06166457891464233,19.379921875,0.002867682268843055,19.457330627441408,-0.00030318258844393614,-19.528655529022217,-6.0460277398427325,0.006589826196432114,303.6034175564969,1000.0,156.0,277.87296187716964,58.953312830933186,1000.0,1000.0,0.0,156000
157000,0,60.984994765615916,0.0009255409240722656,0.0001628398895263672,0.01717400550842285,156988.0,0.07600432142615318,19.385412979125977,0.003698351290076971,19.466196823120118,0.0006521787521099517,-19.492918014526367,-5.901442726453145,0.006616405327804387,308.9664335561224,1000.0,157.0,284.12134825125275,83.96737414990605,1000.0,1000.0,0.0,157000
158000,0,55.972981181950516,0.0009284019470214844,0.00017571449279785156,0.018233060836791992,157988.0,0.06060195550322533,19.581927719116212,0.0027769718691706656,19.65968605041504,-0.0007084095050231554,-19.70662530263265,-6.107430140177409,0.006594205624423921,285.6612151173068,1000.0,158.0,242.25294448848155,77.64261868760295,1000.0,1000.0,0.0,158000
159000,0,62.58526138867734,0.00133514404296875,0.00025010108947753906,0.02498936653137207,158988.0,0.060121656358242036,19.661189193725587,0.003087216503918171,19.73940475463867,0.0002122553626880593,-19.780327637990315,-5.968069871266683,0.006645750603638589,269.8305529113216,1000.0,159.0,295.22969993748967,63.83654705167602,1000.0,1000.0,0.0,159000
160000,0,60.924899017835145,0.0009584426879882812,0.00016880035400390625,0.017620563507080078,159988.0,0.061069610863924026,19.648716659545897,0.002705006911419332,19.729862213134766,0.00027581447769383277,-19.646456718444824,-5.958732048670451,0.006681747695741554,101.52064285647216,1000.0,160.0,259.303180117417,95.95755440018029,1000.0,1000.0,0.0,160000
161000,0,54.474904656344634,0.0012974739074707031,0.0001952648162841797,0.01754593849182129,160988.0,0.07461376994848251,19.535760192871095,0.0034495509788393976,19.60586051940918,0.0005524768348550424,-19.64184824625651,-5.916712403297424,0.006632180030768116,116.51761164517309,1000.0,161.0,275.0004288818639,70.03419237469588,1000.0,1000.0,0.0,161000
162000,0,62.58104060221456,0.0013093948364257812,0.00020766258239746094,0.021506547927856445,161988.0,0.06665133699774742,19.713554153442384,0.0030861105397343635,19.791375732421876,8.712211759605755e-05,-19.76237440109253,-5.986823836962382,0.006611563886205356,393.61264885298164,1000.0,162.0,280.4455163166053,97.19907948332694,1000.0,1000.0,0.0,162000
163000,0,59.85753967665,0.0009179115295410156,0.00018787384033203125,0.018774032592773438,162988.0,0.06136729881167412,19.79257293701172,0.0030381093360483647,19.870862121582032,-0.0008744187628811536,-19.792628288269043,-6.130537509918213,0.006698556283178429,295.3895407395989,1000.0,163.0,300.81510900180973,68.43669423706791,1000.0,1000.0,0.0,163000
164000,0,60.92019132840546,0.0008652210235595703,0.00016117095947265625,0.017469406127929688,163988.0,0.0655880819261074,19.828123245239258,0.002810902837663889,19.908339004516602,-7.610206860893716e-05,-19.75684102376302,-6.011139790217082,0.006846396213707824,349.9614749300665,1000.0,164.0,286.52254812447666,60.45639950814643,1000.0,1000.0,0.0,164000
165000,0,62.49838326583282,0.0009038448333740234,0.0001647472381591797,0.017344951629638672,164988.0,0.06537260353565216,20.005183486938478,0.003206325965002179,20.082837524414064,-0.00048339928859301534,-19.978099664052326,-6.0703632434209185,0.006870767334476113,196.5245321710592,1000.0,165.0,291.17826240794886,84.50215848864315,1000.0,1000.0,0.0,165000
166000,0,60.7681323368507,0.001354217529296875,0.0002243518829345703,0.020733356475830078,165988.0,0.0798404312133789,19.905410079956056,0.0039844708703458305,19.982448959350585,0.00013127173345613605,-20.01343536376953,-5.98082423210144,0.006845354607018332,311.8462414499408,1000.0,166.0,292.639528717709,63.369753531543914,1000.0,1000.0,0.0,166000
167000,0,61.22503078546284,0.00089263916015625,0.0001709461212158203,0.017138957977294922,166988.0,0.06852123200893402,20.042986221313477,0.0031573885306715966,20.128065795898436,-0.0003475883155867147,-20.054383595784504,-6.0502223173777265,0.006922037379505734,364.0885475140126,1000.0,167.0,290.76959687423323,69.66768691501733,1000.0,1000.0,0.0,167000
168000,0,60.40887246096608,0.0009489059448242188,0.0001659393310546875,0.017659425735473633,167988.0,0.06948255226016045,20.01570114135742,0.0027528411615639924,20.09161262512207,-0.0003337368495219077,-20.03253698348999,-6.047960480054219,0.0069590559384475155,289.77468155198073,1000.0,168.0,278.13711993569336,105.6075737512696,1000.0,1000.0,0.0,168000
169000,0,61.1081065960502,0.0009357929229736328,0.00017070770263671875,0.017317533493041992,168988.0,0.07311012357473373,20.035512619018554,0.0036855443101376294,20.114887237548828,-0.0009725946923329806,-20.0252423286438,-6.140372157096863,0.006929020048119128,136.74990614743996,1000.0,169.0,313.27310587801065,104.72372934988014,1000.0,1000.0,0.0,169000
170000,0,59.78900600640668,0.0008823871612548828,0.00018930435180664062,0.01726531982421875,169988.0,0.06877194494009017,20.02436996459961,0.003040751377120614,20.09873077392578,0.0003021652798148959,-20.001039028167725,-5.95683221022288,0.006999696527297298,235.5004884387282,1000.0,170.0,271.03503277276036,74.62207537128609,1000.0,1000.0,0.0,170000
171000,0,53.70422155777561,0.000835418701171875,0.00020933151245117188,0.017857074737548828,170988.0,0.07590005397796631,20.20956039428711,0.003535604691132903,20.28406799316406,-0.00031112746485935833,-20.235623518625896,-6.04429566860199,0.007025504213136931,302.6072457430318,1000.0,171.0,250.44549526711617,82.11271647568135,1000.0,1000.0,0.0,171000
172000,0,61.74511978038349,0.0012404918670654297,0.00019621849060058594,0.01896190643310547,171988.0,0.06657362192869186,20.31459487915039,0.003129101125523448,20.394504928588866,0.00019158711317383373,-20.440367698669434,-5.972797711690267,0.007042817150553067,402.2005127208584,1000.0,172.0,258.29077295282593,107.72764857842805,1000.0,1000.0,0.0,172000
173000,0,62.28477373881732,0.0009303092956542969,0.00016736984252929688,0.018762588500976562,172988.0,0.07302283763885498,20.428734970092773,0.0034053140971809625,20.507888870239256,-0.00014702490079798736,-20.48516543706258,-6.020692586898804,0.007105695044932266,370.36091585006653,1000.0,173.0,260.11059245837725,87.78794750503538,1000.0,1000.0,0.0,173000
174000,0,61.24999342858862,0.0009551048278808594,0.0001823902130126953,0.017743587493896484,173988.0,0.07166866987943649,20.42761665344238,0.003461012504994869,20.507164611816407,0.0007669058892740092,-20.491302490234375,-5.89298673470815,0.007166235591284931,305.724494679745,1000.0,174.0,324.5083963895969,52.73198829506755,1000.0,1000.0,0.0,174000
175000,0,62.822010613963506,0.0008730888366699219,0.00017690658569335938,0.017303466796875,174988.0,0.06832253485918045,20.512913589477538,0.0029090225975960493,20.593235397338866,0.0007152158080619605,-20.58130407333374,-5.90024737517039,0.007169369142502546,284.9743014151524,1000.0,175.0,231.97191492773123,95.07820779333495,1000.0,1000.0,0.0,175000
176000,0,62.106333024551695,0.00092315673828125,0.00018095970153808594,0.017547130584716797,175988.0,0.07496799230575561,20.61622787475586,0.0033476938959211113,20.693887023925782,-0.0004759965110376167,-20.622722307840984,-6.066559950510661,0.007151592251223822,234.12607558070897,1000.0,176.0,243.32406242140055,74.00034938059183,1000.0,1000.0,0.0,176000
177000,0,63.012885306231844,0.00089263916015625,0.00017023086547851562,0.017549514770507812,176988.0,0.07109393626451492,20.63261245727539,0.003190251858904958,20.708091812133787,0.0004898286303311276,-20.632995128631592,-5.931193232536316,0.007118493900634348,282.8460347462726,1000.0,177.0,310.97223403889836,83.56877176353849,1000.0,1000.0,0.0,177000
178000,0,50.418149410580746,0.0008707046508789062,0.00016927719116210938,0.017397642135620117,177988.0,0.07605202987790108,20.697613143920897,0.003463423391804099,20.778022384643556,0.00016888268388962993,-20.68606154123942,-5.976214051246643,0.0071006941531474395,220.76393257638617,1000.0,178.0,288.5519623939229,71.54978178664483,1000.0,1000.0,0.0,178000
179000,0,60.94260360944696,0.001308441162109375,0.00025177001953125,0.02033710479736328,178988.0,0.07179605975747108,20.731690063476563,0.003032261459156871,20.80976448059082,-0.00043786922105937265,-20.753636837005615,-6.061130245526631,0.007163557961272697,234.5868908614025,1000.0,179.0,303.4062396804327,93.5469734647565,1000.0,1000.0,0.0,179000
180000,0,62.30705376438648,0.0008959770202636719,0.00016117095947265625,0.017271757125854492,179988.0,0.07637823402881622,20.807650451660155,0.003169533172622323,20.88407646179199,0.0013353458731823291,-20.83496602376302,-5.811884164810181,0.007097791492318113,324.89318493020863,1000.0,180.0,277.3117879852724,79.97707510247369,1000.0,1000.0,0.0,180000
181000,0,61.8259047389939,0.0009112358093261719,0.0001938343048095703,0.017309904098510742,180988.0,0.0775194725394249,20.94221061706543,0.0035298375971615312,21.016129608154298,0.0005695042879475901,-21.019884904225666,-5.919575174649556,0.007081055354016523,355.0854805474641,1000.0,181.0,352.46433146039453,75.00122341741388,1000.0,1000.0,0.0,181000
182000,0,62.77762943467708,0.0011970996856689453,0.00018906593322753906,0.018248796463012695,181988.0,0.0745338799059391,20.952243423461915,0.0031267021782696246,21.032300186157226,-0.0007110524287175698,-21.01797072092692,-6.10021694501241,0.00709505930232505,250.99745383478478,1000.0,182.0,321.06906563841653,91.18533632661024,1000.0,1000.0,0.0,182000
183000,0,60.87887984012977,0.0008668899536132812,0.00020575523376464844,0.019930124282836914,182988.0,0.0757496117055416,21.017652740478514,0.003317509051412344,21.099895248413088,-7.556203248289724e-05,-21.11514186859131,-6.010477860768636,0.0072152068217595415,357.8053971299796,1000.0,183.0,344.676359340339,76.45632725761118,1000.0,1000.0,0.0,183000
184000,0,61.325434028031616,0.000934600830078125,0.00016641616821289062,0.017351150512695312,183988.0,0.08515449106693268,21.123480377197264,0.004056360861286521,21.196792907714844,0.0004276161525922362,-21.284765402475994,-5.940982540448506,0.007245336736862858,341.21436154051025,1000.0,184.0,281.33684798840557,97.88801293077778,1000.0,1000.0,0.0,184000
185000,0,54.05844591041538,0.0009012222290039062,0.00016427040100097656,0.01728534698486328,184988.0,0.07820743441581726,21.319474029541016,0.0029786543920636175,21.3937890625,-8.265120171320935e-05,-21.349926789601643,-6.0114526351292925,0.007220753623793523,327.2625056697809,1000.0,185.0,348.2516036498691,60.95469932665295,1000.0,1000.0,0.0,185000
186000,0,62.952243212787174,0.0014157295227050781,0.00018477439880371094,0.018481016159057617,185988.0,0.07431644216179847,21.201669006347657,0.003280020961537957,21.27721420288086,-0.0009051235198664168,-21.14491621653239,-6.125595251719157,0.007207726749281089,150.9351705677155,1000.0,186.0,327.49443014819724,60.29944209360588,1000.0,1000.0,0.0,186000
187000,0,62.179879847648095,0.0008957386016845703,0.00016307830810546875,0.017986297607421875,186988.0,0.07672763347625733,21.246508026123045,0.0033799816481769086,21.31825508117676,-0.0009584769480473673,-21.37091048558553,-6.132525285085042,0.007233441574499011,295.1205706281662,1000.0,187.0,334.9744034551924,57.81226565788167,1000.0,1000.0,0.0,187000
188000,0,62.165134438292604,0.0008916854858398438,0.00016307830810546875,0.01749396324157715,187988.0,0.086158027946949,21.27200843811035,0.004435811443254351,21.35287712097168,-0.00023237930872710422,-21.336833635965984,-6.032063364982605,0.007247694457570712,363.64823462216964,1000.0,188.0,358.47008234202207,47.58193350132948,1000.0,1000.0,0.0,188000
189000,0,61.56342745758831,0.0008969306945800781,0.00018286705017089844,0.017870664596557617,188988.0,0.07792666986584663,21.616740112304687,0.0031668055336922405,21.688636016845702,-0.00015722394285451932,-21.640570481618244,-6.021515528361003,0.007308063912205398,372.1342476594103,1000.0,189.0,340.3093720611106,85.97687276477953,1000.0,1000.0,0.0,189000
190000,0,60.92249198798023,0.0009446144104003906,0.000179290771484375,0.0178220272064209,189988.0,0.08694727808237075,21.490585250854494,0.004192368197254837,21.564536895751953,-6.3148984433307e-05,-21.574214776357014,-6.008605718612671,0.0073374923861895995,249.45131315823707,1000.0,190.0,349.8952555165575,79.71219049855308,1000.0,1000.0,0.0,190000
191000,0,61.299227282346514,0.0009014606475830078,0.00017261505126953125,0.017775535583496094,190988.0,0.07709303721785546,21.498626098632812,0.0031349231023341416,21.573717575073243,0.0006752824992872775,-21.50091298421224,-5.9081976016362505,0.007353946178530653,131.97295783217797,1000.0,191.0,357.79545572306876,60.29151096030772,1000.0,1000.0,0.0,191000
192000,0,54.613048890370365,0.0009846687316894531,0.00017452239990234375,0.017856597900390625,191988.0,0.07362240433692932,21.605659942626954,0.003011863213032484,21.685393142700196,-0.00021534783081733622,-21.677105744679768,-6.029536485671997,0.007292644353583455,351.77701697441137,1000.0,192.0,348.85669504175377,68.63432790340886,1000.0,1000.0,0.0,192000
193000,0,62.10636980966681,0.0012636184692382812,0.0001957416534423828,0.019074678421020508,192988.0,0.08360376730561256,21.72691955566406,0.003345882100984454,21.79964096069336,0.0003382736952820172,-21.798832098642986,-5.9533794323603315,0.007255863592339058,361.52370990844213,1000.0,193.0,386.3744402658093,19.854999710754996,1000.0,1000.0,0.0,193000
194000,0,61.344269392101,0.001016378402709961,0.00017881393432617188,0.01738572120666504,193988.0,0.0769811064004898,21.76852508544922,0.0033387554716318847,21.838604583740235,1.1755083202539632e-05,-21.73913065592448,-5.998383482297261,0.007196059256481628,198.8221788945469,1000.0,194.0,370.66301632903543,44.2638150201413,1000.0,1000.0,0.0,194000
195000,0,61.741447795309995,0.0009036064147949219,0.00017189979553222656,0.01755213737487793,194988.0,0.07722858399152756,21.813659896850584,0.0034929048921912907,21.88685691833496,0.0008055730286287144,-21.78557523091634,-5.887392441431682,0.007153535649801294,376.84585151850376,1000.0,195.0,371.5291070682646,40.68211668933476,1000.0,1000.0,0.0,195000
196000,0,61.525607114273846,0.0009088516235351562,0.00016760826110839844,0.017960548400878906,195988.0,0.08080651953816415,21.861157150268554,0.0034263431280851363,21.930188598632814,0.001955313258804381,-21.841590404510498,-5.725415587425232,0.007120280177332461,212.0799231437851,1000.0,196.0,374.6007740517948,42.680287863007074,1000.0,1000.0,0.0,196000
197000,0,61.328375170271144,0.0009090900421142578,0.00016045570373535156,0.017210721969604492,196988.0,0.07817418083548545,21.998757553100585,0.002921101488173008,22.071966247558592,0.00016985336454429975,-21.985164960225422,-5.976178010304769,0.007130115292966366,376.75738460972855,1000.0,197.0,361.4412697059921,58.16452219544482,1000.0,1000.0,0.0,197000
198000,0,60.98276031528448,0.0009088516235351562,0.00017881393432617188,0.01786947250366211,197988.0,0.07422577798366546,21.97793014526367,0.0032073410507291555,22.05544677734375,9.007399906598342e-05,-22.052759647369385,-5.987325509389241,0.007102031959220767,381.0024063171298,1000.0,198.0,331.9470598407235,80.68767660213764,1000.0,1000.0,0.0,198000
199000,0,51.825063917888556,0.0008947849273681641,0.00019240379333496094,0.017428159713745117,198988.0,0.07770620971918106,22.106356201171874,0.0032483761850744487,22.17957000732422,-0.0007312491943594068,-22.134934107462566,-6.1024201313654585,0.007140665043455859,379.3997806072842,1000.0,199.0,312.87669661548273,95.06665299281894,1000.0,1000.0,0.0,199000
200000,0,62.44679602966023,0.0011224746704101562,0.00017786026000976562,0.018459081649780273,199988.0,0.07722230225801469,22.212462844848634,0.003214888088405132,22.286603775024414,-0.00014679367935362583,-22.271579265594482,-6.020449082056682,0.007181411958299577,377.8394379819633,1000.0,200.0,385.43628811284776,13.509378225234851,1000.0,1000.0,0.0,200000
