niicovila/Q-Reps/main/exact_xql/results/XTD3_TEST/td3_1/log.csv
time/steps,time/epochs,time/steps_per_second,time/dataset,time/preprocess,time/train_step,train/env_steps,train/reward,train/length,train/num_ep,eval/reward,eval/stddev,eval/length,eval/discount,eval/early_termination,step,train/q_loss,train/target_q,train/actor_loss
3000,0,153.36426235454488,0.0004980564117431641,0.00014400482177734375,0.00774383544921875,2975.5,2.2490842160480087,1000.0,3.0,1.007629233388769,0.13330099736901999,1000.0,1000.0,0.0,3000,3.513136878609657e-05,0.18668257117271422,-0.35679407954216
4000,0,146.35084531201804,0.00044083595275878906,0.00012946128845214844,0.0070569515228271484,3975.5,3.4425882792810225,1000.0,4.0,1.3985765093719713,0.026922245256409887,1000.0,1000.0,0.0,4000,1.775109674781561e-05,0.30038677513599393,-0.3522480261325836
5000,0,151.0962147269586,0.0005567073822021484,0.00016570091247558594,0.009130716323852539,4975.5,24.59620542568286,1000.0,5.0,16.629413441901583,0.2676550467327028,1000.0,1000.0,0.0,5000,1.9025178626179696e-05,0.3204538089036941,-0.37020389437675477
6000,0,150.649895479394,0.0004496574401855469,0.0001342296600341797,0.007469654083251953,5975.5,4.674509891822521,1000.0,6.0,3.3955857985308286,2.5977993133357344,1000.0,1000.0,0.0,6000,2.1048388443887234e-05,0.5495457553863525,-0.6047097396850586
7000,0,152.56219714379455,0.00045371055603027344,0.0001392364501953125,0.007854461669921875,6975.5,13.597400305131062,1000.0,7.0,24.936741816040364,2.7072196269206765,1000.0,1000.0,0.0,7000,1.5221494249999523e-05,0.702760443687439,-0.789228515625
8000,0,152.904129424657,0.00042510032653808594,0.00014281272888183594,0.0074672698974609375,7975.5,12.227361110766322,1000.0,8.0,9.409119276050385,1.482414069659434,1000.0,1000.0,0.0,8000,2.7688308618962766e-05,0.8459754967689515,-0.9263775968551635
9000,0,143.15108887966625,0.00047135353088378906,0.00012803077697753906,0.007093906402587891,8975.5,15.612050129973888,1000.0,9.0,15.86404724860015,1.3807725070600334,1000.0,1000.0,0.0,9000,2.93806754052639e-05,0.9562663125991822,-1.0072370839118958
10000,0,151.84517982611112,0.0006127357482910156,0.0001709461212158203,0.010121345520019531,9975.5,11.721277316666562,1000.0,10.0,15.809659274831663,1.8577466782702414,1000.0,1000.0,0.0,10000,3.4656752832233905e-05,0.9977939939498901,-1.0334675478935242
11000,0,144.03170253462315,0.00046324729919433594,0.0001761913299560547,0.007470846176147461,10975.5,13.731814950470888,1000.0,11.0,19.918864078436762,6.7286232742153,1000.0,1000.0,0.0,11000,4.20916173607111e-05,1.030667634010315,-1.0834431314468385
12000,0,151.88422003292396,0.0005049705505371094,0.00014019012451171875,0.007853269577026367,11975.5,14.54916098198017,1000.0,12.0,2.3922937012229846,2.560853690139476,1000.0,1000.0,0.0,12000,4.198181442916393e-05,1.0634581804275514,-1.1120033597946166
13000,0,154.80323992910718,0.00040793418884277344,0.0001888275146484375,0.007199764251708984,12975.5,13.61167814341227,1000.0,13.0,61.742890542065616,13.341196003301642,1000.0,1000.0,0.0,13000,5.532365292310715e-05,1.107420551776886,-1.2044894742965697
14000,0,152.55287498045035,0.0004904270172119141,0.00015306472778320312,0.007555723190307617,13975.5,58.56495433676763,1000.0,14.0,34.81488549282301,9.860436732767877,1000.0,1000.0,0.0,14000,0.00010963973123580217,1.2944086146354676,-1.3952673864364624
15000,0,111.57556475382798,0.00041937828063964844,0.00015354156494140625,0.007031917572021484,14975.5,51.87151309821594,1000.0,15.0,45.459480071598236,11.981365412244319,1000.0,1000.0,0.0,15000,9.588252287358045e-05,1.4252732300758362,-1.5226630115509032
16000,0,151.1351974632459,0.0004889965057373047,0.00018715858459472656,0.007790327072143555,15975.5,23.206244871816033,1000.0,16.0,33.584164968179394,15.945057221634867,1000.0,1000.0,0.0,16000,0.00013802198227494956,1.574959774017334,-1.695747833251953
17000,0,147.49045284796995,0.0006270408630371094,0.00018024444580078125,0.00835418701171875,16975.5,39.76961541772068,1000.0,17.0,49.313536499876804,14.532217419233836,1000.0,1000.0,0.0,17000,0.00014072645455598832,1.7150244307518006,-1.8728572607040406
18000,0,151.63997191573853,0.0005850791931152344,0.00015544891357421875,0.008085012435913086,17975.5,40.225046023355105,1000.0,18.0,33.47888475328443,14.14906666438752,1000.0,1000.0,0.0,18000,0.00017337824683636427,1.845384271144867,-1.9999838972091675
19000,0,148.08126155808043,0.00043511390686035156,0.00013875961303710938,0.00731205940246582,18975.5,48.71680238652154,1000.0,19.0,33.19543008642281,3.4161205209855066,1000.0,1000.0,0.0,19000,0.00021308708935976027,1.9542992115020752,-2.1086848545074464
20000,0,120.0484738577188,0.000469207763671875,0.00013828277587890625,0.0076367855072021484,19975.5,39.87671275595595,1000.0,20.0,33.97597917192758,3.8086022068119547,1000.0,1000.0,0.0,20000,0.00024390926118940116,2.0395892810821534,-2.2116349029541014
21000,0,149.68163731420518,0.0009853839874267578,0.00019288063049316406,0.011458635330200195,20975.5,40.627605471849826,1000.0,21.0,43.68252025200631,6.19707740978331,1000.0,1000.0,0.0,21000,0.00029685989022254944,2.143436975479126,-2.368183469772339
22000,0,142.17526627965074,0.0004749298095703125,0.0001494884490966797,0.00766754150390625,21975.5,47.01820120504115,1000.0,22.0,69.51757736417099,20.654966440581653,1000.0,1000.0,0.0,22000,0.00036991126835346223,2.288457269668579,-2.49504469871521
23000,0,139.3111208982757,0.0006222724914550781,0.00016260147094726562,0.009627819061279297,22975.5,47.70185923919228,1000.0,23.0,47.65789810440002,17.945424893312772,1000.0,1000.0,0.0,23000,0.00036719200666993854,2.4235606002807617,-2.647795009613037
24000,0,143.95162148341106,0.0004239082336425781,0.00017571449279785156,0.007332324981689453,23975.5,33.729885651493824,1000.0,24.0,95.08165645026472,22.401406776862036,1000.0,1000.0,0.0,24000,0.00045551239512860777,2.522376341819763,-2.7501448345184327
25000,0,103.62042394826963,0.0004687309265136719,0.0001513957977294922,0.00765538215637207,24975.5,96.63750344082445,1000.0,25.0,75.81920285946411,23.00379633823218,1000.0,1000.0,0.0,25000,0.0005118908453732729,2.665994987487793,-2.9085586261749268
26000,0,152.55220915523336,0.0005359649658203125,0.00013637542724609375,0.007971763610839844,25975.5,67.25731754874774,1000.0,26.0,51.6723659289169,15.14715148637441,1000.0,1000.0,0.0,26000,0.000543906637467444,2.752290196418762,-3.0038715553283692
27000,0,146.32552103320518,0.00048232078552246094,0.0001304149627685547,0.0074481964111328125,26975.5,24.402056686691985,1000.0,27.0,88.74635569804877,29.989791456176565,1000.0,1000.0,0.0,27000,0.0005265356274321675,2.843371396064758,-3.0993826389312744
28000,0,146.21727693023146,0.0005068778991699219,0.00013828277587890625,0.008055448532104492,27975.5,162.37739091828888,1000.0,28.0,63.934471089919136,35.43403634782851,1000.0,1000.0,0.0,28000,0.0006184220826253295,3.0755552005767823,-3.3094787311553957
29000,0,145.96275539890812,0.00048613548278808594,0.0001609325408935547,0.007851362228393555,28975.5,103.32295111278115,1000.0,29.0,69.02023931193074,34.21820893176419,1000.0,1000.0,0.0,29000,0.0007140340143814683,3.231454710960388,-3.4864208030700685
30000,0,100.0312903053476,0.000720977783203125,0.00017762184143066406,0.008713960647583008,29975.5,42.29554321908784,1000.0,30.0,89.01198071973403,36.169605162169724,1000.0,1000.0,0.0,30000,0.000679759830236435,3.3592370843887327,-3.6134242534637453
31000,0,146.59001946003983,0.0005016326904296875,0.0001392364501953125,0.007604122161865234,30975.5,99.6752300127671,1000.0,31.0,90.42229848838643,34.52435697474732,1000.0,1000.0,0.0,31000,0.0007593908393755555,3.472553277015686,-3.720984239578247
32000,0,145.03597281516065,0.00048732757568359375,0.00017642974853515625,0.007596492767333984,31975.5,89.6936386938837,1000.0,32.0,102.92800363853166,41.06888706592267,1000.0,1000.0,0.0,32000,0.000843223468400538,3.635071153640747,-3.85676718711853
33000,0,150.41758115648892,0.0005345344543457031,0.00014209747314453125,0.008135795593261719,32975.5,190.65345153251928,1000.0,33.0,108.14412102932131,40.7071862611654,1000.0,1000.0,0.0,33000,0.0010238709719851613,3.8912841987609865,-4.113442125320435
34000,0,148.46746943257256,0.0004589557647705078,0.00013685226440429688,0.007531642913818359,33975.5,110.19018177666273,1000.0,34.0,96.90346214654551,27.962963835924594,1000.0,1000.0,0.0,34000,0.0010099280066788196,4.038873157501221,-4.290201053619385
35000,0,105.29044903598694,0.0006268024444580078,0.00018215179443359375,0.009339570999145508,34975.5,138.52017661231457,1000.0,35.0,158.05171651453043,70.5563060169195,1000.0,1000.0,0.0,35000,0.0011740043107420206,4.254582509994507,-4.549458198547363
36000,0,143.00788498007785,0.0004968643188476562,0.00013589859008789062,0.007572650909423828,35975.5,148.25480614987598,1000.0,36.0,133.72987488936417,38.03794302610046,1000.0,1000.0,0.0,36000,0.001254630107432604,4.503140115737915,-4.74290699005127
37000,0,148.58380915201423,0.0005116462707519531,0.00013518333435058594,0.007691383361816406,36975.5,132.66672486066201,1000.0,37.0,89.2752842615011,47.92303137154493,1000.0,1000.0,0.0,37000,0.001336509408429265,4.681047010421753,-4.866169090270996
38000,0,148.11315957488884,0.00046563148498535156,0.00013136863708496094,0.0077092647552490234,37975.5,193.32467871264254,1000.0,38.0,72.32553224612542,42.701829304624376,1000.0,1000.0,0.0,38000,0.0014200970716774465,4.90707766532898,-5.206158905029297
39000,0,149.56303942558262,0.0004940032958984375,0.00015234947204589844,0.0074574947357177734,38975.5,99.50703469048999,1000.0,39.0,162.40270365321044,52.17842465249357,1000.0,1000.0,0.0,39000,0.0014692306751385332,5.073128309249878,-5.329451026916504
40000,0,108.79370173180587,0.0004203319549560547,0.0001385211944580078,0.007112026214599609,39975.5,48.88172268544096,1000.0,40.0,75.79304825189612,29.238833236403448,1000.0,1000.0,0.0,40000,0.0015083386655896903,5.014973554611206,-5.249922847747802
41000,0,139.2054249672755,0.0004439353942871094,0.00014781951904296875,0.007406473159790039,40975.5,55.62694374301815,1000.0,41.0,117.15847682970188,45.65665330268348,1000.0,1000.0,0.0,41000,0.0016520777484402061,5.120522155761718,-5.354731960296631
42000,0,145.10561774740722,0.0005218982696533203,0.0001392364501953125,0.00745391845703125,41975.5,120.49281480589806,1000.0,42.0,125.16338169097075,42.28184057164266,1000.0,1000.0,0.0,42000,0.0018226688960567116,5.275229797363282,-5.558005084991455
43000,0,146.79852610122416,0.0006530284881591797,0.00019931793212890625,0.009078741073608398,42975.5,81.95425682866056,1000.0,43.0,146.23027668108358,53.2730922586152,1000.0,1000.0,0.0,43000,0.0017196010472252964,5.364728479385376,-5.578897819519043
44000,0,146.1675445144446,0.0004546642303466797,0.00018072128295898438,0.007416248321533203,43975.5,64.83861676613434,1000.0,44.0,123.03744423817996,44.82429204451148,1000.0,1000.0,0.0,44000,0.0017418099893257023,5.359114685058594,-5.59184383392334
45000,0,108.87232128348931,0.0005013942718505859,0.00013899803161621094,0.007506608963012695,44975.5,157.54678915826912,1000.0,45.0,151.43599405955683,55.898213094730416,1000.0,1000.0,0.0,45000,0.001898706266656518,5.551866521835327,-5.819778289794922
46000,0,144.12554025979202,0.0004532337188720703,0.0001537799835205078,0.007790088653564453,45975.5,69.73373819090668,1000.0,46.0,123.14713643263444,32.45106019640226,1000.0,1000.0,0.0,46000,0.0018306434014812112,5.56682785987854,-5.815669708251953
47000,0,144.2205913097059,0.0004875659942626953,0.0001316070556640625,0.007769107818603516,46975.5,54.83454595006985,1000.0,47.0,188.71706763176672,79.19642169099026,1000.0,1000.0,0.0,47000,0.0018261787854135037,5.55324652671814,-5.843277130126953
48000,0,151.62374586896811,0.0005338191986083984,0.0001327991485595703,0.008295059204101562,47975.5,245.12906254752096,1000.0,48.0,179.41970884622614,43.9663159041691,1000.0,1000.0,0.0,48000,0.002098338403739035,5.805205221176148,-6.109915161132813
49000,0,146.02058344119877,0.0004284381866455078,0.00012874603271484375,0.007380485534667969,48975.5,188.58247738667035,1000.0,49.0,145.4850584822202,79.89744147409009,1000.0,1000.0,0.0,49000,0.0022323903441429137,6.000793294906616,-6.208964309692383
50000,0,103.48926493897685,0.0004677772521972656,0.0001323223114013672,0.00841069221496582,49975.5,73.9347029653021,1000.0,50.0,116.33794242766832,38.2131918081275,1000.0,1000.0,0.0,50000,0.0022227209573611618,6.047616710662842,-6.320287494659424
51000,0,145.13715054898285,0.0005216598510742188,0.00014066696166992188,0.007639169692993164,50975.5,192.0674170944028,1000.0,51.0,132.98493847902415,73.43793915413713,1000.0,1000.0,0.0,51000,0.0025170871522277594,6.308907375335694,-6.570915489196778
52000,0,148.5448687027951,0.00046539306640625,0.0001316070556640625,0.007909059524536133,51975.5,147.40303840734617,1000.0,52.0,132.7644035460391,57.64122844947326,1000.0,1000.0,0.0,52000,0.0024412555992603304,6.364483451843261,-6.534211254119873
53000,0,146.69973991888378,0.0005712509155273438,0.00017118453979492188,0.008171558380126953,52975.5,88.12829076300538,1000.0,53.0,119.3200803026194,58.22174959817656,1000.0,1000.0,0.0,53000,0.0024699698155745864,6.386930341720581,-6.659511432647705
54000,0,151.04332619824783,0.00046515464782714844,0.0001819133758544922,0.007700204849243164,53975.5,179.18101766107617,1000.0,54.0,77.82729983240685,49.31231821989807,1000.0,1000.0,0.0,54000,0.002670196224935353,6.670067405700683,-6.991838264465332
55000,0,113.16974825468417,0.0004918575286865234,0.0001385211944580078,0.008414983749389648,54975.5,95.40816548984083,1000.0,55.0,94.85558172756393,48.6901800184858,1000.0,1000.0,0.0,55000,0.002679692367091775,6.8239755439758305,-7.046176586151123
56000,0,149.1740892646542,0.00043487548828125,0.00012135505676269531,0.00712132453918457,55975.5,102.40829408306024,1000.0,56.0,96.1096892918429,52.79396047887146,1000.0,1000.0,0.0,56000,0.0026366986241191624,6.808727540969849,-7.060874156951904
57000,0,147.83105199864093,0.00044798851013183594,0.00018262863159179688,0.0076885223388671875,56975.5,72.96259269798601,1000.0,57.0,109.06037561065375,55.13950299586783,1000.0,1000.0,0.0,57000,0.0025068022683262824,6.818050909042358,-6.99931604385376
58000,0,146.5909416579583,0.0005936622619628906,0.00018548965454101562,0.008685111999511719,57975.5,201.32524691764007,1000.0,58.0,115.26989756110375,45.71683167622927,1000.0,1000.0,0.0,58000,0.0026974219968542456,7.0616700649261475,-7.319316635131836
59000,0,150.5194950605623,0.0004982948303222656,0.00012993812561035156,0.007264375686645508,58975.5,42.44936254944255,1000.0,59.0,81.90446021992922,57.861797120363875,1000.0,1000.0,0.0,59000,0.002910035355016589,7.104486408233643,-7.407588996887207
60000,0,120.92384425768692,0.0004782676696777344,0.0001392364501953125,0.007665872573852539,59975.5,96.94166908961047,1000.0,60.0,118.39657490129568,53.98632721067921,1000.0,1000.0,0.0,60000,0.0027549994131550195,7.046530904769898,-7.281948471069336
61000,0,141.08497718719684,0.0006890296936035156,0.00018525123596191406,0.011427164077758789,60975.5,61.64855912632831,1000.0,61.0,124.72589237893769,59.60451064554312,1000.0,1000.0,0.0,61000,0.0028761027939617633,7.129181423187256,-7.376571540832519
62000,0,138.7219062196754,0.0004856586456298828,0.00013589859008789062,0.007475376129150391,61975.5,101.27675686457559,1000.0,62.0,120.6934580226994,56.064726078012384,1000.0,1000.0,0.0,62000,0.002983806999400258,7.228528900146484,-7.453364543914795
63000,0,152.22267467138764,0.0005490779876708984,0.00012564659118652344,0.0077362060546875,62975.5,194.67500040072238,1000.0,63.0,185.3810893794722,61.467738746552506,1000.0,1000.0,0.0,63000,0.0031067304546013473,7.419962759017944,-7.742373752593994
64000,0,152.95163592418174,0.0004923343658447266,0.00018548965454101562,0.0077092647552490234,63975.5,53.1272266815789,1000.0,64.0,216.949255317662,48.24017447993525,1000.0,1000.0,0.0,64000,0.0031406058091670275,7.332775993347168,-7.563116970062256
65000,0,119.09742394530889,0.00045871734619140625,0.00015163421630859375,0.007901668548583984,64975.5,63.72247946622953,1000.0,65.0,133.56426133103705,74.60532485054573,1000.0,1000.0,0.0,65000,0.0030076485965400933,7.335812330245972,-7.579196968078613
66000,0,144.50550245613988,0.0007276535034179688,0.0001862049102783203,0.011065483093261719,65975.5,203.86557162755304,1000.0,66.0,146.36292684777595,91.96812806852856,1000.0,1000.0,0.0,66000,0.0033156408136710523,7.5296750736236575,-7.779707546234131
67000,0,138.80095783589448,0.0005304813385009766,0.000148773193359375,0.008153200149536133,66975.5,171.57012440261641,1000.0,67.0,108.46228761851008,53.31023240565504,1000.0,1000.0,0.0,67000,0.0034927370212972163,7.580836791992187,-7.793988742828369
68000,0,150.74388909734174,0.00063323974609375,0.00013709068298339844,0.008190155029296875,67975.5,231.90847064867305,1000.0,68.0,155.0749135749019,62.17454872309554,1000.0,1000.0,0.0,68000,0.0034998029191046953,7.700278024673462,-7.88782922744751
69000,0,141.8953325435043,0.0005087852478027344,0.00013899803161621094,0.007758140563964844,68975.5,193.91601370401037,1000.0,69.0,160.57001671077077,63.15205898299073,1000.0,1000.0,0.0,69000,0.0038235578406602146,7.882824430465698,-8.160980892181396
70000,0,104.18658629099286,0.00047588348388671875,0.0001742839813232422,0.007555961608886719,69975.5,131.35186623740697,1000.0,70.0,186.728883101684,87.01799887846768,1000.0,1000.0,0.0,70000,0.0037611483037471773,8.009964342117309,-8.193757057189941
71000,0,145.65335763259955,0.0004894733428955078,0.0001747608184814453,0.007664680480957031,70975.5,166.06876050232532,1000.0,71.0,230.93746120171144,36.76606408791162,1000.0,1000.0,0.0,71000,0.0036696841567754744,7.964493274688721,-8.277150001525879
72000,0,137.44200754336123,0.0004754066467285156,0.00018286705017089844,0.008405208587646484,71975.5,221.29241859187044,1000.0,72.0,157.5323361051995,87.31483596401073,1000.0,1000.0,0.0,72000,0.0038528823433443904,8.179612560272217,-8.488393993377686
73000,0,141.93662789241753,0.0004630088806152344,0.0001735687255859375,0.007756710052490234,72975.5,138.18845145456652,1000.0,73.0,190.04061638171194,93.71387546856256,1000.0,1000.0,0.0,73000,0.0034540372574701906,8.19658793449402,-8.56755615234375
74000,0,145.34395923733564,0.0004971027374267578,0.00014472007751464844,0.009980201721191406,73975.5,179.2143296659437,1000.0,74.0,151.06303088907922,102.52930057134165,1000.0,1000.0,0.0,74000,0.0036841869074851273,8.40398494720459,-8.66296844482422
75000,0,136.7315763154,0.0007252693176269531,0.0001773834228515625,0.013122797012329102,74975.5,159.07625952576495,1000.0,75.0,213.52760131652116,66.4003226939955,1000.0,1000.0,0.0,75000,0.0038668441772460936,8.450663471221924,-8.721430320739746
76000,0,149.1293242236166,0.0005004405975341797,0.000152587890625,0.007468700408935547,75975.5,281.65262986616045,1000.0,76.0,155.99238629453603,67.90364134739487,1000.0,1000.0,0.0,76000,0.0038703351421281694,8.638456211090087,-8.893986701965332
77000,0,145.62493707056083,0.0004832744598388672,0.00013828277587890625,0.0077702999114990234,76975.5,243.1013929146269,1000.0,77.0,178.4201391917989,93.18320797204007,1000.0,1000.0,0.0,77000,0.003983324444852769,8.804778203964233,-9.047826042175293
78000,0,148.65627164202593,0.0006036758422851562,0.00015544891357421875,0.008061647415161133,77975.5,316.41552202027805,1000.0,78.0,137.1156462463502,74.73651968014546,1000.0,1000.0,0.0,78000,0.003753168731927872,9.019571771621704,-9.282047424316406
79000,0,151.1206038044755,0.0004813671112060547,0.0001850128173828125,0.008559465408325195,78975.5,171.39160379261773,1000.0,79.0,297.9496255450903,35.28207280358964,1000.0,1000.0,0.0,79000,0.0038604830112308262,9.076449279785157,-9.369944267272949
80000,0,119.28398394418574,0.0005257129669189453,0.00013875961303710938,0.007487297058105469,79975.5,323.4108797014934,1000.0,80.0,290.27386462682864,40.96798052157811,1000.0,1000.0,0.0,80000,0.0038839963637292384,9.167048797607421,-9.461400413513184
81000,0,152.5732964429063,0.0006477832794189453,0.00020384788513183594,0.011212825775146484,80975.5,86.6123662202513,1000.0,81.0,278.110206627504,59.22176752410581,1000.0,1000.0,0.0,81000,0.0038131366111338136,9.297803955078125,-9.558005027770996
82000,0,145.3011610779082,0.00045037269592285156,0.00017380714416503906,0.007756233215332031,81975.5,306.03350597618174,1000.0,82.0,168.14350002142842,86.40075238624979,1000.0,1000.0,0.0,82000,0.0038413121877238156,9.338840007781982,-9.625450859069824
83000,0,153.21792775534837,0.0005526542663574219,0.0001678466796875,0.008466958999633789,82975.5,266.54725852574813,1000.0,83.0,269.8598887541399,43.54642216577326,1000.0,1000.0,0.0,83000,0.003880195310339332,9.561113719940186,-9.83052791595459
84000,0,146.54146676188492,0.0004303455352783203,0.00012135505676269531,0.0070307254791259766,83975.5,312.70452088422445,1000.0,84.0,191.31050284944973,102.87401620095966,1000.0,1000.0,0.0,84000,0.003988987640477717,9.928201007843018,-10.173719902038574
85000,0,152.02096388948289,0.00045943260192871094,0.0001785755157470703,0.007382392883300781,84975.5,322.53739064473723,1000.0,85.0,280.70294983841217,44.43863859577971,1000.0,1000.0,0.0,85000,0.0038599709048867227,10.045512084960938,-10.271304512023926
86000,0,152.25295535906804,0.0006334781646728516,0.00016188621520996094,0.00980067253112793,85975.5,150.37393811875765,1000.0,86.0,135.8226853401522,55.1343559260871,1000.0,1000.0,0.0,86000,0.003851442453451455,10.117760677337646,-10.545118560791016
87000,0,150.70662414321913,0.0004451274871826172,0.00018835067749023438,0.007631778717041016,86975.5,127.8201115132037,1000.0,87.0,217.192529205464,81.79229663838879,1000.0,1000.0,0.0,87000,0.004000986535102129,10.165788345336914,-10.464401016235351
88000,0,153.35529048373982,0.00043010711669921875,0.00014972686767578125,0.007213115692138672,87975.5,290.1286872370438,1000.0,88.0,142.75511798344195,86.97018514029868,1000.0,1000.0,0.0,88000,0.0040478866407647725,10.45985725402832,-10.746352996826172
89000,0,150.01570150684393,0.0006563663482666016,0.00017309188842773438,0.008285284042358398,88975.5,352.9054182369181,1000.0,89.0,230.65943104868643,93.22993276833539,1000.0,1000.0,0.0,89000,0.004064407953992486,10.648886337280274,-10.780214805603027
90000,0,150.4419674690135,0.0005900859832763672,0.00017333030700683594,0.010193109512329102,89975.5,138.51801534861423,1000.0,90.0,220.5752983370513,100.42046858033291,1000.0,1000.0,0.0,90000,0.003924595625139773,10.636660099029541,-10.951358489990234
91000,0,121.47663641266162,0.0004487037658691406,0.0001289844512939453,0.007646799087524414,90975.5,366.80584814840256,1000.0,91.0,259.4988848235025,105.12949310877568,1000.0,1000.0,0.0,91000,0.004013700033538043,10.906782722473144,-11.16152130126953
92000,0,147.8293846880441,0.0006916522979736328,0.0002741813659667969,0.011212825775146484,91975.5,138.94959640703937,1000.0,92.0,287.99433141402767,94.34903307656293,1000.0,1000.0,0.0,92000,0.004080087495967746,10.812258586883544,-11.115503311157227
93000,0,156.4603285801788,0.0004127025604248047,0.00016760826110839844,0.007425546646118164,92975.5,262.12069835693376,1000.0,93.0,276.8743088369252,93.17256794791248,1000.0,1000.0,0.0,93000,0.004312829007394612,11.02345739364624,-11.31001091003418
94000,0,149.20242605339453,0.0004601478576660156,0.00013375282287597656,0.00753331184387207,93975.5,117.03343177492633,1000.0,94.0,242.14455163145468,88.85977348515041,1000.0,1000.0,0.0,94000,0.004306761566549539,11.25748025894165,-11.566920242309571
95000,0,155.9901607616112,0.0005326271057128906,0.00014257431030273438,0.008543014526367188,94975.5,305.6912237435203,1000.0,95.0,248.39827895778564,113.30316757617878,1000.0,1000.0,0.0,95000,0.004508921927772462,11.296251258850099,-11.693914756774902
96000,0,151.78374591346275,0.0005128383636474609,0.00013589859008789062,0.00744175910949707,95975.5,352.5507215939492,1000.0,96.0,200.55671723661675,105.59729744218876,1000.0,1000.0,0.0,96000,0.004483313541859388,11.58926456451416,-11.90717212677002
97000,0,144.65122406623263,0.0005729198455810547,0.00016117095947265625,0.01234126091003418,96975.5,126.68923431057557,1000.0,97.0,186.80190603751208,100.13965094861778,1000.0,1000.0,0.0,97000,0.0045333652198314665,11.468977870941162,-11.75952724456787
98000,0,149.18035002557295,0.00046896934509277344,0.00013637542724609375,0.007457733154296875,97975.5,400.1625719096766,1000.0,98.0,205.51263014407874,121.36055591020815,1000.0,1000.0,0.0,98000,0.004482802092097699,11.821599731445312,-12.071149940490722
99000,0,148.30913672234396,0.0004379749298095703,0.00013017654418945312,0.007411003112792969,98975.5,242.97025598635472,1000.0,99.0,370.3237010440958,18.7719487782484,1000.0,1000.0,0.0,99000,0.00462998281698674,11.7736572265625,-11.865127449035645
100000,0,144.0632650874209,0.0005688667297363281,0.00015687942504882812,0.008775949478149414,99975.5,254.37683494135078,1000.0,100.0,342.50503071848476,82.47325623470797,1000.0,1000.0,0.0,100000,0.00452099546790123,12.110837097167968,-12.369961090087891
101000,0,150.5690984529913,0.0005018711090087891,0.00014472007751464844,0.0074269771575927734,100975.5,420.4784430439105,1000.0,101.0,282.4649812741311,102.60801320485932,1000.0,1000.0,0.0,101000,0.004581392011605203,12.368425788879394,-12.666886024475097
102000,0,123.99168718756744,0.0004749298095703125,0.00013709068298339844,0.007433176040649414,101975.5,427.4662203568413,1000.0,102.0,256.77540278382475,103.4321114640025,1000.0,1000.0,0.0,102000,0.005058025750331581,12.577037773132325,-12.971150360107423
103000,0,150.1397479954181,0.0007538795471191406,0.0002522468566894531,0.011415481567382812,102975.5,118.49528312166917,1000.0,103.0,189.5052876293499,104.92139443611111,1000.0,1000.0,0.0,103000,0.004818751201964915,12.720964603424072,-13.028698844909668
104000,0,153.4108207871592,0.00043392181396484375,0.00013065338134765625,0.007307291030883789,103975.5,393.8349944777497,1000.0,104.0,229.79641742088853,141.90345788571642,1000.0,1000.0,0.0,104000,0.0053028575237840415,12.822502994537354,-13.066343002319336
105000,0,155.6642231307544,0.0005772113800048828,0.00016927719116210938,0.007930994033813477,104975.5,284.8002527687598,1000.0,105.0,293.87789852836966,106.03689594714308,1000.0,1000.0,0.0,105000,0.005216465909034014,12.909226360321044,-13.157780380249024
106000,0,156.35137966177766,0.0006585121154785156,0.0001270771026611328,0.007291555404663086,105975.5,424.55351242270336,1000.0,106.0,384.20996285145515,95.59144179052754,1000.0,1000.0,0.0,106000,0.005086994180455804,13.243420009613038,-13.372350273132325
107000,0,146.64321850493496,0.0005168914794921875,0.00015234947204589844,0.007186174392700195,106975.5,230.59252180781473,1000.0,107.0,188.40414172715174,111.5054029450477,1000.0,1000.0,0.0,107000,0.004949953812174499,13.180102043151855,-13.404293212890625
108000,0,132.2159989307483,0.0005984306335449219,0.00018787384033203125,0.010136842727661133,107975.5,387.63688241187725,1000.0,108.0,227.7041162589922,67.60926887846614,1000.0,1000.0,0.0,108000,0.0050691267475485805,13.539940586090088,-13.817255172729492
109000,0,145.55378263184087,0.0004963874816894531,0.00015306472778320312,0.008189678192138672,108975.5,250.15972180870057,1000.0,109.0,313.9383987164574,138.06853814389692,1000.0,1000.0,0.0,109000,0.005162574192509055,13.594647426605224,-13.854414482116699
110000,0,149.36203459506734,0.00046515464782714844,0.00013756752014160156,0.007108926773071289,109975.5,72.04940617931933,1000.0,110.0,319.8975183551552,128.35590415476463,1000.0,1000.0,0.0,110000,0.004895883235149085,13.512011470794677,-13.804778785705567
111000,0,147.5393251391743,0.0005044937133789062,0.00012493133544921875,0.00801396369934082,110975.5,311.11920974756714,1000.0,111.0,271.7631040393981,101.23752374102213,1000.0,1000.0,0.0,111000,0.00494074875023216,13.775233879089356,-13.963181266784668
112000,0,148.64931723377788,0.00041484832763671875,0.00017762184143066406,0.007136344909667969,111975.5,271.28525272642554,1000.0,112.0,326.26431613979037,101.64122750306365,1000.0,1000.0,0.0,112000,0.005275228968821466,13.783728485107423,-14.053920097351075
113000,0,124.01962407686885,0.0004513263702392578,0.0001361370086669922,0.007570743560791016,112975.5,237.65988698492947,1000.0,113.0,353.3119899368054,102.81806612692225,1000.0,1000.0,0.0,113000,0.0051070048334077,14.177677307128906,-14.304983940124512
114000,0,144.97100444421093,0.0005881786346435547,0.0001773834228515625,0.010212898254394531,113975.5,357.8406221878288,1000.0,114.0,343.8780054144386,111.71916001617068,1000.0,1000.0,0.0,114000,0.0052796565927565094,14.079520626068115,-14.335719795227051
115000,0,152.48898225162714,0.0004856586456298828,0.00013399124145507812,0.007318019866943359,114975.5,61.68092148717098,1000.0,115.0,314.52445733135795,144.4475335381906,1000.0,1000.0,0.0,115000,0.005628746673464775,13.996362438201905,-14.147492141723633
116000,0,150.27767466990753,0.0004966259002685547,0.00013446807861328125,0.007433414459228516,115975.5,256.8686672345271,1000.0,116.0,367.5593160959655,126.92114629492288,1000.0,1000.0,0.0,116000,0.005421241596341133,14.296960620880126,-14.658214874267578
117000,0,146.99567386007755,0.0008075237274169922,0.00016951560974121094,0.008551836013793945,116975.5,497.32114283986857,1000.0,117.0,348.64146165367697,89.76503565166858,1000.0,1000.0,0.0,117000,0.006282173553481698,14.47254295349121,-14.661294937133789
118000,0,152.2378135094915,0.0004177093505859375,0.00012826919555664062,0.0072174072265625,117975.5,411.2324773002394,1000.0,118.0,216.90318315945532,112.15523456764853,1000.0,1000.0,0.0,118000,0.005381247391924262,14.744643383026123,-15.134390296936035
119000,0,118.85517382088571,0.00046372413635253906,0.00012636184692382812,0.007339000701904297,118975.5,439.9385125840313,1000.0,119.0,249.06381922703267,110.50170585032346,1000.0,1000.0,0.0,119000,0.00547210234683007,14.864882259368896,-15.165881729125976
120000,0,147.9553725002152,0.0005550384521484375,0.0001590251922607422,0.012531518936157227,119975.5,302.87151425785584,1000.0,120.0,318.7426382465757,134.35442805699157,1000.0,1000.0,0.0,120000,0.005498935794457793,15.13197006225586,-15.279726219177245
121000,0,149.743305595581,0.0004901885986328125,0.00012826919555664062,0.007401227951049805,120975.5,296.7680273626475,1000.0,121.0,157.1457020350353,83.87704950466096,1000.0,1000.0,0.0,121000,0.005714239263907075,15.28715560913086,-15.60780963897705
122000,0,150.8880307769127,0.00044846534729003906,0.00017976760864257812,0.007591962814331055,121975.5,354.4041354618638,1000.0,122.0,175.86192284287958,81.568106415366,1000.0,1000.0,0.0,122000,0.005832597170956433,15.285736389160157,-15.644877014160157
123000,0,150.48860402335885,0.000469207763671875,0.0001437664031982422,0.007699251174926758,122975.5,490.04439265444415,1000.0,123.0,307.00296100683914,100.09013756231299,1000.0,1000.0,0.0,123000,0.006085986820980906,15.40891107559204,-15.612384414672851
124000,0,151.18498957930078,0.0006740093231201172,0.00020551681518554688,0.008509397506713867,123975.5,398.7665969632682,1000.0,124.0,433.5628818442313,112.94080363689807,1000.0,1000.0,0.0,124000,0.005899289418011904,15.823030815124511,-16.034983673095702
125000,0,140.90581696606142,0.0006351470947265625,0.00016045570373535156,0.012143373489379883,124975.5,388.5715227802772,1000.0,125.0,230.07616407155805,113.71596307315413,1000.0,1000.0,0.0,125000,0.005796688739210367,15.964293022155761,-16.328809204101564
126000,0,147.56714803704884,0.0004968643188476562,0.00015163421630859375,0.007394552230834961,125975.5,92.35269136240173,1000.0,126.0,410.88370983325547,78.08074929463861,1000.0,1000.0,0.0,126000,0.006016658302396536,15.806343727111816,-16.273762016296388
127000,0,152.00542743988356,0.00049591064453125,0.00013494491577148438,0.007201194763183594,126975.5,278.15233408289043,1000.0,127.0,411.67669117656095,107.49824566293356,1000.0,1000.0,0.0,127000,0.0060126476734876635,16.246522617340087,-16.460944175720215
128000,0,150.59667002259147,0.0005419254302978516,0.00013780593872070312,0.0077555179595947266,127975.5,114.20424462136876,1000.0,128.0,308.8747695341593,120.42060607534347,1000.0,1000.0,0.0,128000,0.0063077094033360485,16.02865640640259,-16.237720375061034
129000,0,148.47798090245698,0.0005125999450683594,0.00014281272888183594,0.0074005126953125,128975.5,435.81019342224084,1000.0,129.0,381.77298891295777,72.04411133976336,1000.0,1000.0,0.0,129000,0.006300620464608073,16.486546573638915,-16.671915130615233
130000,0,114.3183587319377,0.0005154609680175781,0.0001327991485595703,0.006810665130615234,129975.5,450.98873856754983,1000.0,130.0,370.37214724479907,96.84515332782058,1000.0,1000.0,0.0,130000,0.005835798429325223,16.522264785766602,-16.562826385498045
131000,0,154.10467777041316,0.0005941390991210938,0.0001678466796875,0.010341882705688477,130975.5,154.75611188801219,1000.0,131.0,396.1580699662891,130.09495618014776,1000.0,1000.0,0.0,131000,0.005961308917030692,16.40675651550293,-16.897654037475586
132000,0,150.06669147322324,0.0005500316619873047,0.0001373291015625,0.007373332977294922,131975.5,419.58161259765967,1000.0,132.0,160.0615240228823,111.98112516140284,1000.0,1000.0,0.0,132000,0.005895316824316979,16.53883903503418,-16.61674877166748
133000,0,152.1257249386137,0.0004925727844238281,0.00014734268188476562,0.007553577423095703,132975.5,459.6910191884416,1000.0,133.0,202.21193711469792,140.68165942608567,1000.0,1000.0,0.0,133000,0.006072533261030913,16.927365837097167,-17.42700584411621
134000,0,151.50993232035418,0.0005192756652832031,0.00014281272888183594,0.0075266361236572266,133975.5,203.54121070774673,1000.0,134.0,462.8386646166106,113.14783227724172,1000.0,1000.0,0.0,134000,0.0062954571470618245,16.898957748413086,-17.112816085815428
135000,0,155.36576837139285,0.0004703998565673828,0.00018453598022460938,0.0073664188385009766,134975.5,312.5735393999657,1000.0,135.0,351.9742861238916,141.07369296670313,1000.0,1000.0,0.0,135000,0.006494695488363504,17.157501068115234,-17.644159049987792
136000,0,125.78351089894804,0.0005011558532714844,0.0001404285430908203,0.0076525211334228516,135975.5,215.26889193791413,1000.0,136.0,463.45047246877175,84.53180310718882,1000.0,1000.0,0.0,136000,0.005992315383628011,17.151392192840575,-17.42906074523926
137000,0,155.57726703863037,0.0006613731384277344,0.0001823902130126953,0.01231837272644043,136975.5,115.96374962105587,1000.0,137.0,439.6329656450731,92.35841799787399,1000.0,1000.0,0.0,137000,0.0059237289195880295,17.07085304260254,-17.28983383178711
138000,0,155.75891129664166,0.00047135353088378906,0.00013780593872070312,0.0071146488189697266,137975.5,462.8653059298505,1000.0,138.0,502.59823260730445,9.640919210415921,1000.0,1000.0,0.0,138000,0.006020973576232791,17.54437166213989,-17.83981430053711
139000,0,147.2187707526918,0.0004324913024902344,0.00017309188842773438,0.0072939395904541016,138975.5,422.4758728067777,1000.0,139.0,395.32380543832664,108.78436863649135,1000.0,1000.0,0.0,139000,0.006135256383568048,17.537823104858397,-17.6658878326416
140000,0,148.9898975546683,0.0006239414215087891,0.0001544952392578125,0.007941007614135742,139975.5,484.5757038010889,1000.0,140.0,475.63916985600935,50.5769094992149,1000.0,1000.0,0.0,140000,0.005934974271804094,17.72605297088623,-17.978813095092775
141000,0,148.58601989788906,0.0004143714904785156,0.00013256072998046875,0.0072460174560546875,140975.5,510.8066572893306,1000.0,141.0,516.6424924253356,16.213827916364462,1000.0,1000.0,0.0,141000,0.0065103028155863284,17.91332763671875,-18.131204147338867
142000,0,123.488639809687,0.0004725456237792969,0.0001201629638671875,0.007019758224487305,141975.5,493.6282171057997,1000.0,142.0,349.0828338995003,110.9800663548715,1000.0,1000.0,0.0,142000,0.006133039705455303,18.172641220092775,-18.32515007019043
143000,0,155.8080928153678,0.0006265640258789062,0.0001537799835205078,0.00983738899230957,142975.5,522.957667626493,1000.0,143.0,425.3823877070163,140.44850210705718,1000.0,1000.0,0.0,143000,0.006376551212742925,18.287795372009278,-18.686977310180666
144000,0,153.8169058711699,0.0004413127899169922,0.0001404285430908203,0.0073168277740478516,143975.5,143.9944542637599,1000.0,144.0,327.41851835668115,141.50776379743834,1000.0,1000.0,0.0,144000,0.006851393179968,18.564665184020996,-18.867929611206055
145000,0,148.24099396970786,0.0005192756652832031,0.0001373291015625,0.007149219512939453,144975.5,459.33591509778375,1000.0,145.0,509.3333900554254,23.887318911884666,1000.0,1000.0,0.0,145000,0.0070881893672049045,18.58650775909424,-19.050337142944336
146000,0,156.74168346453985,0.0006201267242431641,0.00015735626220703125,0.008091211318969727,145975.5,316.97155529591765,1000.0,146.0,501.6126682495669,19.335742696154657,1000.0,1000.0,0.0,146000,0.0062732946779578925,18.57748634338379,-18.803991394042967
147000,0,155.11353088103573,0.0004870891571044922,0.0001366138458251953,0.007124662399291992,146975.5,502.1944813532476,1000.0,147.0,513.1223288786975,20.45221092492143,1000.0,1000.0,0.0,147000,0.00694785326719284,18.86429012298584,-19.07279281616211
148000,0,149.1501122278581,0.0004258155822753906,0.00018715858459472656,0.006883382797241211,147975.5,492.939675201664,1000.0,148.0,505.6557236514792,20.114047208819443,1000.0,1000.0,0.0,148000,0.006468274490907788,19.25717540740967,-19.59525016784668
149000,0,145.3485930208623,0.000652313232421875,0.0001728534698486328,0.01024484634399414,148975.5,449.18495528138214,1000.0,149.0,368.0040701868253,200.27653001503657,1000.0,1000.0,0.0,149000,0.006527805617079139,19.467984313964845,-19.862119522094726
150000,0,150.83127396799185,0.0004723072052001953,0.00015974044799804688,0.007498264312744141,149975.5,128.38736517535492,1000.0,150.0,485.04305797229955,61.02611065524537,1000.0,1000.0,0.0,150000,0.006584985833615065,19.52525276184082,-19.806913757324217
151000,0,150.93059926692052,0.00045752525329589844,0.00013446807861328125,0.0073184967041015625,150975.5,85.39035717050291,1000.0,151.0,471.5984736140193,67.55150183139199,1000.0,1000.0,0.0,151000,0.006494319057092071,19.291695861816407,-19.46461326599121
152000,0,146.79379940894754,0.0005822181701660156,0.00016951560974121094,0.007941722869873047,151975.5,500.69513839390254,1000.0,152.0,511.12658389597107,17.46588535910951,1000.0,1000.0,0.0,152000,0.0063587961811572315,19.496207466125487,-19.626949768066407
153000,0,151.45686319966086,0.00038504600524902344,0.0001163482666015625,0.0069179534912109375,152975.5,461.2124133570693,1000.0,153.0,509.30114780722334,22.701877711233728,1000.0,1000.0,0.0,153000,0.006965432912111282,19.681306533813476,-19.939373626708985
154000,0,147.18983937327081,0.0004596710205078125,0.00012969970703125,0.0072209835052490234,153975.5,489.6279921891424,1000.0,154.0,515.6068173639867,7.799605092101942,1000.0,1000.0,0.0,154000,0.006854181485250592,20.02266658782959,-20.136814346313475
155000,0,150.91941185275593,0.0005664825439453125,0.00016188621520996094,0.008890151977539062,154975.5,497.6875458957851,1000.0,155.0,525.3627802697664,10.733954712830364,1000.0,1000.0,0.0,155000,0.007044717175886035,20.25228633880615,-20.684000854492187
156000,0,153.35686048535354,0.0005185604095458984,0.0001442432403564453,0.007095813751220703,155975.5,508.89723815717576,1000.0,156.0,514.5658256168028,12.391756997163323,1000.0,1000.0,0.0,156000,0.007122636744752526,20.10259998321533,-20.334561004638672
157000,0,155.8869637546337,0.0004794597625732422,0.00015115737915039062,0.007369279861450195,156975.5,491.8612490648067,1000.0,157.0,471.9133487860366,72.87527989637937,1000.0,1000.0,0.0,157000,0.0066291428450495,20.52103183746338,-20.585875701904296
158000,0,149.27602460562525,0.0006055831909179688,0.00019168853759765625,0.008067846298217773,157975.5,499.5617454632201,1000.0,158.0,530.1142538410749,10.387004860391976,1000.0,1000.0,0.0,158000,0.007394232442602515,20.755009536743163,-21.024347229003908
159000,0,151.23775924722662,0.00054168701171875,0.0001399517059326172,0.0075151920318603516,158975.5,472.7585522929039,1000.0,159.0,504.5637860347666,23.867695863255513,1000.0,1000.0,0.0,159000,0.006448535053059459,20.91716018676758,-21.003747329711913
160000,0,156.34053973460564,0.0004782676696777344,0.0001735687255859375,0.006967782974243164,159975.5,171.79339754196647,1000.0,160.0,510.87190584146464,9.694249841840152,1000.0,1000.0,0.0,160000,0.006354526383802295,20.71034770965576,-20.824263076782227
161000,0,111.41468867243906,0.0004279613494873047,0.00012350082397460938,0.007132053375244141,160975.5,477.77306660366946,1000.0,161.0,473.26923798230507,14.329898153520755,1000.0,1000.0,0.0,161000,0.006445107636973262,21.10061840057373,-21.385324172973633
162000,0,153.78757879483862,0.0004432201385498047,0.00012350082397460938,0.007082700729370117,161975.5,462.240905384156,1000.0,162.0,483.4681091152267,38.13335479646069,1000.0,1000.0,0.0,162000,0.006557446420192719,21.09235466003418,-21.33999435424805
163000,0,151.8585941969167,0.00043201446533203125,0.00012874603271484375,0.007149457931518555,162975.5,532.3661362950534,1000.0,163.0,529.8810687207394,9.360443084631338,1000.0,1000.0,0.0,163000,0.006926673762500286,21.428747024536133,-21.86406852722168
164000,0,154.62689472419126,0.0005645751953125,0.00016689300537109375,0.008351325988769531,163975.5,499.7009486710013,1000.0,164.0,538.5086700960235,11.22796289179855,1000.0,1000.0,0.0,164000,0.006954219974577427,21.66828872680664,-21.82451332092285
165000,0,158.0558951254181,0.0004520416259765625,0.000148773193359375,0.007666826248168945,164975.5,485.21546381174574,1000.0,165.0,524.4895676414455,24.455733561410952,1000.0,1000.0,0.0,165000,0.006847468251362443,21.789861145019533,-22.221248321533203
166000,0,150.15350776703477,0.0004639625549316406,0.00016570091247558594,0.0077228546142578125,165975.5,488.87119600053865,1000.0,166.0,511.70431917653633,22.107017306594837,1000.0,1000.0,0.0,166000,0.0064366500731557605,21.844827346801758,-22.195757751464843
167000,0,119.46976813607058,0.0005002021789550781,0.0001285076141357422,0.0071642398834228516,166975.5,446.39899355638045,1000.0,167.0,532.3514212179355,18.14639816485529,1000.0,1000.0,0.0,167000,0.006545788999646902,22.232589302062987,-22.53823776245117
168000,0,154.1929426365891,0.0006699562072753906,0.00018978118896484375,0.010215282440185547,167975.5,511.12631178053545,1000.0,168.0,481.2714776574022,66.92958629350603,1000.0,1000.0,0.0,168000,0.006595114758238196,22.304867782592773,-22.551272201538087
169000,0,145.11284698796766,0.0004630088806152344,0.00013947486877441406,0.007621288299560547,168975.5,509.54474395593616,1000.0,169.0,436.1826503929906,122.8157797613237,1000.0,1000.0,0.0,169000,0.006385907027870417,22.374837379455567,-22.695765228271483
170000,0,149.9969244633904,0.0004837512969970703,0.00014853477478027344,0.007866859436035156,169975.5,298.05555200263467,1000.0,170.0,253.1792251214878,113.40649521071295,1000.0,1000.0,0.0,170000,0.006733181169256568,22.496303176879884,-22.56599380493164
171000,0,152.14437650718662,0.0004620552062988281,0.00013589859008789062,0.00753474235534668,170975.5,122.99001325158925,1000.0,171.0,336.482619223903,107.3659779438471,1000.0,1000.0,0.0,171000,0.006859617158770561,22.862536582946777,-23.07889045715332
172000,0,111.67484686425168,0.0004773139953613281,0.00013518333435058594,0.007286787033081055,171975.5,449.73845991050166,1000.0,172.0,451.44832929005463,25.360364334914124,1000.0,1000.0,0.0,172000,0.006211349852383137,23.03141128540039,-23.441387710571288
173000,0,146.79832058653474,0.0006043910980224609,0.0001926422119140625,0.00985574722290039,172975.5,423.13308218540976,1000.0,173.0,491.04529145947055,11.7060817170774,1000.0,1000.0,0.0,173000,0.006550758425146341,22.942306518554688,-23.19395294189453
174000,0,146.8984743839397,0.00045990943908691406,0.0001392364501953125,0.007631540298461914,173975.5,435.0678450069601,1000.0,174.0,381.4683172080287,112.91277175093242,1000.0,1000.0,0.0,174000,0.007050902890041471,22.910788269042968,-23.397073211669923
175000,0,152.2211278063963,0.00042557716369628906,0.0001728534698486328,0.006827116012573242,174975.5,483.94155608680035,1000.0,175.0,473.42379130692586,39.86012521533361,1000.0,1000.0,0.0,175000,0.0063005369156599045,22.970766677856446,-23.148809204101564
176000,0,155.38119349594942,0.0005550384521484375,0.0001513957977294922,0.007794618606567383,175975.5,486.7535934386369,1000.0,176.0,542.5716448122176,9.237905558424762,1000.0,1000.0,0.0,176000,0.0068552296608686445,23.23917594909668,-23.51315055847168
177000,0,146.55314105538565,0.0005102157592773438,0.00027823448181152344,0.007621288299560547,176975.5,473.89792298083717,1000.0,177.0,512.0769897921199,21.27448040814837,1000.0,1000.0,0.0,177000,0.0066760999243706464,23.68103141784668,-24.074683990478515
178000,0,123.48434977277465,0.0005056858062744141,0.0001461505889892578,0.007757425308227539,177975.5,493.72391450950994,1000.0,178.0,520.0844710587962,27.259691201059177,1000.0,1000.0,0.0,178000,0.00670888370834291,23.51601490020752,-23.959047775268555
179000,0,158.01504688494822,0.0005788803100585938,0.00015616416931152344,0.009008646011352539,178975.5,500.1873685408928,1000.0,179.0,476.3388317206367,103.67627328387164,1000.0,1000.0,0.0,179000,0.007307225400581956,23.77210262298584,-24.135993347167968
180000,0,148.86742602243993,0.0004830360412597656,0.0001347064971923828,0.0074079036712646484,179975.5,507.00607241631076,1000.0,180.0,536.5572719385935,14.08701203029051,1000.0,1000.0,0.0,180000,0.006996931666508317,23.898877716064455,-24.50668098449707
181000,0,153.8048352970081,0.0004343986511230469,0.0001423358917236328,0.007237434387207031,180975.5,502.7623042244437,1000.0,181.0,532.6930030111076,8.545818472131288,1000.0,1000.0,0.0,181000,0.007459820173680782,23.907245864868162,-24.06978416442871
182000,0,150.12803267786234,0.0004317760467529297,0.0001304149627685547,0.007371187210083008,181975.5,502.2839186034553,1000.0,182.0,528.3685857975506,20.609395202770845,1000.0,1000.0,0.0,182000,0.006818602168932557,24.337667503356933,-24.507779006958007
183000,0,151.21344137424813,0.00046324729919433594,0.00018215179443359375,0.007703542709350586,182975.5,522.5362139052888,1000.0,183.0,517.9174670313885,16.347782747899767,1000.0,1000.0,0.0,183000,0.006453198483213783,24.294157791137696,-24.528102645874025
184000,0,144.15218948349553,0.00047206878662109375,0.0001392364501953125,0.007226467132568359,183975.5,493.98310979153524,1000.0,184.0,511.73482603873737,14.826972978570225,1000.0,1000.0,0.0,184000,0.006571464063599705,24.723453788757325,-24.858006896972658
185000,0,151.98020124865477,0.0005886554718017578,0.000152587890625,0.008835315704345703,184975.5,498.083409513582,1000.0,185.0,542.4416183270217,18.76221616840145,1000.0,1000.0,0.0,185000,0.006798540847375989,25.073932456970216,-25.559164962768556
186000,0,150.93548749276684,0.0004889965057373047,0.00017213821411132812,0.0076291561126708984,185975.5,504.8118474021263,1000.0,186.0,543.9147879814403,24.368639090818537,1000.0,1000.0,0.0,186000,0.006773105142638087,24.65074020385742,-24.93870834350586
187000,0,153.958961935176,0.0004673004150390625,0.0001399517059326172,0.007271766662597656,186975.5,542.3845537035787,1000.0,187.0,532.6639934932986,14.809050701696254,1000.0,1000.0,0.0,187000,0.006715341554954648,24.896642761230467,-24.98665397644043
188000,0,153.6462889454489,0.0005173683166503906,0.00012922286987304688,0.007650613784790039,187975.5,515.4202731033946,1000.0,188.0,565.1749661447273,18.59423568823202,1000.0,1000.0,0.0,188000,0.0066370345186442135,24.814467849731447,-25.08997039794922
189000,0,152.44951974975956,0.0004963874816894531,0.0001621246337890625,0.0074710845947265625,188975.5,510.49206858532614,1000.0,189.0,548.1493827368947,13.373607397175803,1000.0,1000.0,0.0,189000,0.006631993325427175,25.305997734069823,-25.4954061126709
190000,0,149.10408943606194,0.00047016143798828125,0.00013899803161621094,0.007552146911621094,189975.5,510.616745502425,1000.0,190.0,549.1193461327221,13.439923719641355,1000.0,1000.0,0.0,190000,0.006736724134534597,25.299536018371583,-25.65558868408203
191000,0,139.11253036439933,0.0005707740783691406,0.000152587890625,0.00973963737487793,190975.5,507.1809093117513,1000.0,191.0,539.0780274669194,27.25069856670453,1000.0,1000.0,0.0,191000,0.006789641389623284,25.702560691833497,-26.18549789428711
192000,0,148.9715880555751,0.0004277229309082031,0.00013637542724609375,0.006975650787353516,191975.5,520.2096862711819,1000.0,192.0,553.3014581210091,23.714811507024866,1000.0,1000.0,0.0,192000,0.006674183877184987,25.896255111694337,-26.135950393676758
193000,0,152.9108186953285,0.0004553794860839844,0.00013566017150878906,0.007586956024169922,192975.5,527.7140552400139,1000.0,193.0,537.6016606610789,13.148049765614667,1000.0,1000.0,0.0,193000,0.006895536864176393,26.029380493164062,-26.350193557739257
194000,0,150.77943796490553,0.0006086826324462891,0.00014972686767578125,0.008692741394042969,193975.5,496.6540387817801,1000.0,194.0,550.6506388664177,8.626598098754593,1000.0,1000.0,0.0,194000,0.0065424479451030495,26.19412483215332,-26.586954956054687
195000,0,157.60002404785524,0.000438690185546875,0.00018715858459472656,0.0073413848876953125,194975.5,551.0589402604874,1000.0,195.0,560.6947892734217,14.720496612663666,1000.0,1000.0,0.0,195000,0.0069768852740526195,26.037984161376954,-26.406337890625
196000,0,149.50674193028658,0.000461578369140625,0.00013446807861328125,0.0073773860931396484,195975.5,535.3438703092168,1000.0,196.0,549.003090226329,20.707439259682545,1000.0,1000.0,0.0,196000,0.006929705282673239,26.208179931640625,-26.30088363647461
197000,0,107.55011718369377,0.0004830360412597656,0.00013899803161621094,0.007456302642822266,196975.5,536.7413828502242,1000.0,197.0,558.1644509684986,9.689880805393795,1000.0,1000.0,0.0,197000,0.006853522462770343,26.314593696594237,-26.514798126220704
198000,0,148.53939762680002,0.0006487369537353516,0.0001735687255859375,0.009215831756591797,197975.5,557.4988153693525,1000.0,198.0,560.4725961638411,9.452975598813905,1000.0,1000.0,0.0,198000,0.0069650849048048255,27.155406494140625,-27.431717529296876
199000,0,148.43741484224094,0.000469207763671875,0.0001373291015625,0.007391214370727539,198975.5,530.1132475306433,1000.0,199.0,565.2973264152644,8.355681805019174,1000.0,1000.0,0.0,199000,0.0067907791957259175,26.890313034057616,-26.965033645629884
200000,0,149.43004088542818,0.00047969818115234375,0.00012302398681640625,0.007969141006469727,199975.5,540.1775379562943,1000.0,200.0,573.032792172133,12.43049710482054,1000.0,1000.0,0.0,200000,0.006956316120922565,26.84179359436035,-27.097660064697266
