niicovila/Q-Reps/lightning_research_framework/results/XSAC_TEST/sac_1_v1/log copy 2.csv
time/steps,time/epochs,time/steps_per_second,time/dataset,time/preprocess,time/train_step,train/env_steps,train/q_loss,train/target_q,train/value_loss,train/target_v,train/alpha_loss,train/actor_loss,train/entropy,train/alpha,train/reward,train/length,train/num_ep,eval/reward,eval/stddev,eval/length,eval/discount,eval/early_termination,step
1000,0,73.0734333034603,0.0007452964782714844,0.00020551681518554688,0.01732921600341797,988.0,41.263303146362304,67.31779159545898,-10.972910270690917,80.54482147216797,-1.3167653282483418,-78.45660781860352,-19.135597070058186,0.1002583069105943,3.495752602011217,1000.0,1.0,1.2933545825775006,0.5067211784499496,1000.0,1000.0,0.0,1000
2000,0,71.70618256021413,0.0005059242248535156,0.00014019012451171875,0.015664100646972656,1988.0,79366.6475,2626.22201171875,-10.32309268951416,2859.33029296875,-4.68684720993042,-2852.4486694335938,-49.09087562561035,0.1087841559201479,0.24700646062129783,1000.0,2.0,1.25672190986167,1.4030750849661346,1000.0,1000.0,0.0,2000
3000,0,70.9688423001849,0.0004706382751464844,0.00012969970703125,0.015364885330200195,2988.0,596640.19625,8255.38248046875,11.259437637329102,8752.533984375,-7.363985538482666,-8769.488444010416,-68.49916903177898,0.11784219741821289,1.0296723412379771,1000.0,3.0,0.5380881205037819,0.5788767968214525,1000.0,1000.0,0.0,3000
4000,0,70.22976226755031,0.0005085468292236328,0.00013875961303710938,0.0157623291015625,3988.0,154817.825,4714.6090625,9.127977600097656,4995.4805859375,-7.649256189664205,-4987.323974609375,-66.92610422770183,0.12556435788671175,18.479175608324773,1000.0,4.0,5.246810727728663,4.191371300083286,1000.0,1000.0,0.0,4000
5000,0,69.33192277175351,0.0007355213165283203,0.00014543533325195312,0.016412019729614258,4988.0,29380.474765625,2114.415927734375,9.016222114562987,2263.315244140625,-6.615920742352803,-2257.8619791666665,-55.93904558817545,0.13249311099449793,0.04943027954364587,1000.0,5.0,5.15847360766791,8.731638081202957,1000.0,1000.0,0.0,5000
6000,0,68.8509132836846,0.0005648136138916016,0.00014019012451171875,0.016834735870361328,5988.0,12218.0009765625,686.0151953125,9.000390663146973,784.780595703125,-5.329360286394755,-778.2069651285807,-44.53129927317301,0.13832368950049082,0.6603490593725161,1000.0,6.0,0.5447226242931673,1.4188077692859797,1000.0,1000.0,0.0,6000
7000,0,62.94241831434593,0.0006668567657470703,0.00020170211791992188,0.016353607177734375,6988.0,11846.948046875,-82.54206878662109,9.000044860839843,39.19941123962403,-4.136520822842916,-35.49099604288737,-34.728489557902016,0.14399693037072817,7.006691733162986,1000.0,7.0,22.745149658197327,14.08840842223775,1000.0,1000.0,0.0,7000
8000,0,60.01891159857957,0.0006666183471679688,0.00014591217041015625,0.016811847686767578,7988.0,19278.747890625,-889.3569750976562,8.999978675842286,-661.6841528320313,-3.067118684450785,662.8098754882812,-26.61888837814331,0.14876241981983185,10.446714896771873,1000.0,8.0,1.5904859383158887,2.902509576792955,1000.0,1000.0,0.0,8000
9000,0,68.05386541952475,0.0007200241088867188,0.00015115737915039062,0.01608872413635254,8988.0,44012.2196875,-1953.1539697265625,8.99998348236084,-1441.38599609375,-3.242984890937805,1441.9281311035156,-27.051457087198894,0.15406227484345436,10.64782706734721,1000.0,9.0,17.152925142914874,0.11904683909437944,1000.0,1000.0,0.0,9000
10000,0,67.86337442593752,0.0008802413940429688,0.0001666545867919922,0.017270326614379883,9988.0,101291.2696875,-3378.795810546875,9.000201301574707,-2422.2641015625,-3.5600877602895102,2419.0237833658853,-28.17194716135661,0.16058155770103136,6.533979145754433,1000.0,10.0,1.6156580844188349,0.10125579414571961,1000.0,1000.0,0.0,10000
11000,0,68.4476786919575,0.000728607177734375,0.00016260147094726562,0.016826152801513672,10988.0,178997.6734375,-4686.9810546875,9.001398162841797,-3322.2980859375,-3.9809469978014627,3335.524658203125,-29.639437993367512,0.168418750166893,1.9463901278015738,1000.0,11.0,1.4087023335475035,0.08372027086910974,1000.0,1000.0,0.0,11000
12000,0,67.65621904960386,0.0006897449493408203,0.00014400482177734375,0.016057252883911133,11988.0,256598.11125,-5994.7708984375,9.001408424377441,-4203.975068359375,-4.312134742736816,4189.60693359375,-30.2759264310201,0.17764752730727196,1.9869717676495078,1000.0,12.0,1.5608644957782125,0.1843925746451783,1000.0,1000.0,0.0,12000
13000,0,69.27526216655644,0.0006396770477294922,0.00014138221740722656,0.016721725463867188,12988.0,358344.40375,-7092.84462890625,9.001489028930663,-4934.3284375,-4.920660575230916,4936.1178792317705,-32.188088734944664,0.18791798874735832,1.5009364457461218,1000.0,13.0,1.2837116835762052,0.15569140384023006,1000.0,1000.0,0.0,13000
14000,0,69.39166089823426,0.0006535053253173828,0.0001480579376220703,0.016113758087158203,13988.0,439491.66625,-8083.27453125,9.00492172241211,-5639.12283203125,-5.1333169142405195,5664.5218505859375,-31.862226804097492,0.19850930199027061,1.277363675210009,1000.0,14.0,1.1541162025802205,0.026522314817284544,1000.0,1000.0,0.0,14000
15000,0,62.29694805696327,0.0006697177886962891,0.00015115737915039062,0.01636672019958496,14988.0,557396.995,-9109.2161328125,9.002901039123536,-6359.131328125,-5.039339303970337,6354.3204345703125,-30.0575426419576,0.20949327449003854,1.1083551211190064,1000.0,15.0,1.2097727242166116,0.04843636291501198,1000.0,1000.0,0.0,15000
16000,0,62.32890514150935,0.0006916522979736328,0.0001456737518310547,0.015967845916748047,15988.0,689558.335,-10175.8855078125,9.002098197937011,-7116.2830078125,-5.364518006642659,7225.4950764973955,-30.263228098551433,0.22111954043308893,1.380063032564522,1000.0,16.0,1.3962270475207499,0.19747601029633646,1000.0,1000.0,0.0,16000
17000,0,68.59970573284494,0.0006766319274902344,0.00014781951904296875,0.016333341598510742,16988.0,838230.825,-11355.472265625,9.002109222412109,-8022.02462890625,-5.388125896453857,8026.8403727213545,-29.123549302419026,0.2330389233926932,1.410632704650963,1000.0,17.0,1.6155342901717185,0.20361631732986427,1000.0,1000.0,0.0,17000
18000,0,69.29920680133817,0.001233816146850586,0.0001735687255859375,0.016991853713989258,17988.0,1119057.4725,-12859.974453125,9.0028125,-9070.5073046875,-5.938565214474996,9020.189290364584,-30.117990175882976,0.2462565004825592,1.722998247199364,1000.0,18.0,1.4987503257766759,0.3662251595768786,1000.0,1000.0,0.0,18000
19000,0,68.97573361575046,0.0007264614105224609,0.00014662742614746094,0.016318559646606445,18988.0,1399141.515,-14183.0471875,9.004480667114258,-10025.658984375,-6.108914653460185,10117.389404296875,-29.53682820002238,0.25957616915305454,1.8870485124387524,1000.0,19.0,1.258791166755684,0.335294065873188,1000.0,1000.0,0.0,19000
20000,0,67.4415179384008,0.0006434917449951172,0.00014638900756835938,0.016148805618286133,19988.0,2009482.285,-15893.8175,9.00140625,-11311.051484375,-6.315467874209086,11269.145100911459,-29.034091313680012,0.27421052505572635,1.6288863049821745,1000.0,20.0,1.01400805315874,0.4281080919678809,1000.0,1000.0,0.0,20000
21000,0,66.86246778272452,0.0006999969482421875,0.00014090538024902344,0.01687335968017578,20988.0,2660885.03,-17989.6928125,9.004738235473633,-12953.0485546875,-6.828036228815715,13028.776123046875,-29.58153422673543,0.28958284854888916,0.8300649745072253,1000.0,21.0,2.411719105960565,0.23266005278763183,1000.0,1000.0,0.0,21000
22000,0,68.69984243095298,0.0006296634674072266,0.00013184547424316406,0.016052722930908203,21988.0,3236779.28,-19836.0378125,9.009843139648437,-14383.4884375,-7.660368641217549,14301.50146484375,-31.008009910583496,0.3063508893052737,2.209638446229777,1000.0,22.0,2.1621044694072067,0.20888547905151222,1000.0,1000.0,0.0,22000
23000,0,65.29245912745459,0.0006661415100097656,0.00014472007751464844,0.016280651092529297,22988.0,4526456.85,-22176.73265625,9.008437194824218,-16206.1901171875,-8.239339351654053,16335.951822916666,-31.421703815460205,0.3241436133782069,2.27299474688175,1000.0,23.0,1.195503159549424,0.1557516819031908,1000.0,1000.0,0.0,23000
24000,0,61.50860852798893,0.0006120204925537109,0.00013303756713867188,0.016691207885742188,23988.0,5177594.63,-24403.789296875,9.007734069824219,-18009.71078125,-8.898235400517782,18010.859212239582,-31.92088508605957,0.3433237473169963,1.3121036186654105,1000.0,24.0,0.718940903561063,0.19774880239239337,1000.0,1000.0,0.0,24000
25000,0,68.16889578293632,0.0006551742553710938,0.0001430511474609375,0.016743183135986328,24988.0,5889728.06,-25939.856640625,9.013358764648437,-19370.6209375,-9.432714939117432,19513.99267578125,-31.948296229044598,0.3635590597987175,0.5251794895259941,1000.0,25.0,0.6688836276220659,0.22890922316657342,1000.0,1000.0,0.0,25000
26000,0,67.24710252371595,0.0009255409240722656,0.00017118453979492188,0.016984224319458008,25988.0,6170736.83,-28165.578046875,9.013358764648437,-21348.700546875,-10.017593701680502,21376.579264322918,-32.05765120188395,0.38448311885197956,0.4913927036786827,1000.0,26.0,0.6342849354293831,0.12152353272099704,1000.0,1000.0,0.0,26000
27000,0,68.62111976838696,0.0006673336029052734,0.0001480579376220703,0.016781091690063477,26988.0,7144018.62,-30880.601484375,9.013358764648437,-23669.532421875,-10.880183855692545,23748.277180989582,-32.72757832209269,0.40712376435597736,0.746367144244842,1000.0,27.0,0.8256077521973598,0.15994282304589205,1000.0,1000.0,0.0,27000
28000,0,67.29435955622955,0.0006303787231445312,0.0001430511474609375,0.016909122467041016,27988.0,6655461.54,-32894.391796875,9.017576599121094,-25676.052421875,-11.21545179684957,25595.74267578125,-32.06781562169393,0.43028957148392993,1.129089594130603,1000.0,28.0,0.9078939154085937,0.109462009083206,1000.0,1000.0,0.0,28000
29000,0,67.63666809219077,0.0006024837493896484,0.0001392364501953125,0.016716718673706055,28988.0,8037205.94,-35730.55875,9.00703109741211,-28259.264765625,-11.814168055852255,28295.221354166668,-31.981499671936035,0.4547639340162277,0.8583675747103297,1000.0,29.0,0.8946793409769311,0.048340045855503014,1000.0,1000.0,0.0,29000
30000,0,67.9280436003594,0.0006568431854248047,0.00014853477478027344,0.016280174255371094,29988.0,8984353.76,-38821.02828125,9.009843292236328,-31061.98109375,-13.146779537200928,31369.717936197918,-33.33018239339193,0.4810900191466014,0.8965003059950986,1000.0,30.0,0.8030948251136654,0.06461721862447546,1000.0,1000.0,0.0,30000
31000,0,63.97828861787626,0.0006442070007324219,0.00019121170043945312,0.01664257049560547,30988.0,9922651.92,-41741.2809375,9.017576293945313,-33870.968046875,-13.30317481358846,33898.988932291664,-32.165774504343666,0.5084731529156367,0.7039341309254191,1000.0,31.0,0.8095554020481309,0.1332900474505881,1000.0,1000.0,0.0,31000
32000,0,61.97221056613141,0.0008289813995361328,0.0001900196075439453,0.01655721664428711,31988.0,11189751.62,-45572.498125,9.008485107421874,-37300.78265625,-13.997522751490274,37451.8818359375,-32.07362222671509,0.536904995640119,0.7529184567140194,1000.0,32.0,0.6979247527750856,0.10932039937170597,1000.0,1000.0,0.0,32000
33000,0,66.85368615409726,0.001131296157836914,0.00020313262939453125,0.01716446876525879,32988.0,11611651.28,-49762.54578125,9.006656646728516,-41035.19109375,-14.655738989512125,40871.941731770836,-31.859378178914387,0.5668093462785085,0.5095223767723246,1000.0,33.0,0.5240111286553656,0.065501514767805,1000.0,1000.0,0.0,33000
34000,0,68.08621160972449,0.0010974407196044922,0.00019216537475585938,0.0195767879486084,33988.0,11841546.9,-53802.74234375,9.006328125,-44877.23109375,-16.224226872126263,45083.152018229164,-33.076297760009766,0.5992704431215922,0.3351723507484071,1000.0,34.0,0.5294041579767538,0.036817544187305665,1000.0,1000.0,0.0,34000
35000,0,67.38062894310364,0.0006482601165771484,0.0001857280731201172,0.01616382598876953,34988.0,12773908.48,-57901.675625,9.00317237854004,-48771.599375,-16.905900637308758,48625.5595703125,-32.707808335622154,0.6330602616071701,0.5742564185560526,1000.0,35.0,0.8073296971348622,0.06326020943864034,1000.0,1000.0,0.0,35000
36000,0,67.18665001592244,0.0009868144989013672,0.0002002716064453125,0.01929616928100586,35988.0,12621765.64,-61494.1221875,9.007665252685547,-51984.926875,-17.219624042510986,51932.285481770836,-31.739670753479004,0.6690629422664642,0.7369752634040682,1000.0,36.0,0.7490084673748792,0.03432523153810594,1000.0,1000.0,0.0,36000
37000,0,68.13337188638114,0.0006761550903320312,0.00013971328735351562,0.016455650329589844,36988.0,14862063.6,-64542.79203125,9.003515625,-54817.57796875,-18.090502103169758,54853.1748046875,-31.604740778605144,0.7066076298554739,0.730277586577498,1000.0,37.0,0.8502475629692599,0.07143278255204534,1000.0,1000.0,0.0,37000
38000,0,68.14687723402872,0.0006766319274902344,0.0001971721649169922,0.016901731491088867,37988.0,16930191.24,-68875.275,9.00140625,-58830.924375,-19.720476309458416,59256.501302083336,-32.42197036743164,0.7464512685934702,0.8719564500788124,1000.0,38.0,0.7955911113335465,0.041891746712528606,1000.0,1000.0,0.0,38000
39000,0,63.15630972235523,0.0006823539733886719,0.0001392364501953125,0.0159299373626709,38988.0,17966545.32,-72827.740625,9.00492172241211,-62615.6840625,-20.114630540211994,62582.810872395836,-31.5101531346639,0.788579468925794,0.8301948475275965,1000.0,39.0,0.775012617285529,0.0767331298171035,1000.0,1000.0,0.0,39000
40000,0,68.04940476499509,0.0007054805755615234,0.0001461505889892578,0.0162656307220459,39988.0,18064897.68,-75846.0,9.00402847290039,-65495.96578125,-20.946710109710693,65452.6630859375,-31.139187812805176,0.8333229869604111,0.9643282417076143,1000.0,40.0,0.8309621801103446,0.06239797861532352,1000.0,1000.0,0.0,40000
41000,0,67.83751488791286,0.0011038780212402344,0.00020194053649902344,0.017948389053344727,40988.0,17128241.6,-79323.203125,9.00703094482422,-69084.201875,-21.811514218648274,68890.423828125,-30.811945756276447,0.879168172677358,0.8334794427740249,1000.0,41.0,1.5834855054102124,0.24958165125976361,1000.0,1000.0,0.0,41000
42000,0,66.98248680249999,0.0010387897491455078,0.0002200603485107422,0.01813054084777832,41988.0,17621304.6,-82839.7059375,9.006328125,-72200.3615625,-23.882970968882244,72369.57291666667,-31.742302417755127,0.9278739541769028,1.0186200828941492,1000.0,42.0,1.0108424927164954,0.12883719450775286,1000.0,1000.0,0.0,42000
43000,0,68.69547671270928,0.0007390975952148438,0.00014472007751464844,0.016495704650878906,42988.0,19014390.36,-86296.81,9.007030792236328,-75533.7540625,-24.56503677368164,75637.9609375,-31.05510934193929,0.9805479695399603,0.7170475201223538,1000.0,43.0,0.8146187307349871,0.05505256560751441,1000.0,1000.0,0.0,43000
44000,0,67.07370664592447,0.0010030269622802734,0.0002033710479736328,0.016396522521972656,43988.0,21004256.64,-90610.3571875,9.00773422241211,-79538.4528125,-24.824451446533203,79048.01627604167,-29.990729331970215,1.0348612268765767,0.8858929612583633,1000.0,44.0,0.8366721567594647,0.09819268803491712,1000.0,1000.0,0.0,44000
45000,0,67.2516742753572,0.0006580352783203125,0.00014400482177734375,0.016622066497802734,44988.0,20336096.04,-95263.645625,9.0028125,-83665.2340625,-26.488646348317463,83748.16471354167,-30.262487411499023,1.0918640593687694,1.0696362802822381,1000.0,45.0,1.199794749459054,0.024619976249207576,1000.0,1000.0,0.0,45000
46000,0,68.34110329805837,0.0006563663482666016,0.00014829635620117188,0.01590704917907715,45988.0,20864225.56,-98410.075625,9.013448638916016,-86345.9353125,-28.125868797302246,86438.72200520833,-30.383889357248943,1.1535902122656505,1.1141387684993187,1000.0,46.0,0.7742676900311016,0.0889648606474215,1000.0,1000.0,0.0,46000
47000,0,64.9075729917406,0.0006661415100097656,0.00017690658569335938,0.015877723693847656,46988.0,23688508.92,-102869.7378125,9.006328125,-90751.13875,-28.578373432159424,91008.94661458333,-29.46638838450114,1.2179707288742065,0.7490606237303644,1000.0,47.0,0.7094283759046588,0.021124101418379004,1000.0,1000.0,0.0,47000
48000,0,66.55846278550305,0.0006699562072753906,0.00013971328735351562,0.016321182250976562,47988.0,24219740.08,-107295.43875,9.008436889648438,-94836.1153125,-30.236364523569744,94730.16145833333,-29.519601821899414,1.285721222559611,0.5838157019810273,1000.0,48.0,0.64287910156864,0.02928231444133945,1000.0,1000.0,0.0,48000
49000,0,68.25480206240191,0.0006794929504394531,0.00013875961303710938,0.01668548583984375,48988.0,26341519.2,-110999.4390625,9.004921875,-98794.1134375,-30.187684535980225,98901.73828125,-28.278447945912678,1.3551611403624217,0.7099345014795886,1000.0,49.0,0.8156631448861462,0.07055586738922855,1000.0,1000.0,0.0,49000
50000,0,66.7565177587479,0.0009033679962158203,0.00015735626220703125,0.016657352447509766,49988.0,26438647.6,-115398.3059375,9.009096984863282,-103153.0665625,-31.85790268580119,103361.236328125,-28.300525029500324,1.4287343323230743,1.14176398604633,1000.0,50.0,0.8222025645261247,0.07917351858293707,1000.0,1000.0,0.0,50000
51000,0,67.9962311354126,0.0006613731384277344,0.00014734268188476562,0.016530513763427734,50988.0,28541246.64,-119009.0625,9.00351547241211,-106888.7465625,-31.86750364303589,106572.47786458333,-27.15628973642985,1.5064487258593242,1.3822689157109904,1000.0,51.0,0.9328002953549444,0.10871906771356128,1000.0,1000.0,0.0,51000
52000,0,67.8985293279666,0.00069427490234375,0.00014019012451171875,0.016713380813598633,51988.0,26722077.12,-122474.8809375,9.007030639648438,-110220.4928125,-33.85748418172201,110547.42447916667,-27.305731773376465,1.589292864004771,1.0626127845613564,1000.0,52.0,0.842018455105665,0.05687643082644432,1000.0,1000.0,0.0,52000
53000,0,68.38157085571524,0.000675201416015625,0.00014257431030273438,0.016185760498046875,52988.0,27229627.6,-126695.2303125,9.006327972412109,-114301.2121875,-34.452912012736,114257.15299479167,-26.56210247675578,1.6757288376490276,0.9032399702165773,1000.0,53.0,0.6430670567710074,0.10341631186467723,1000.0,1000.0,0.0,53000
54000,0,68.17425858959405,0.0006277561187744141,0.00017905235290527344,0.01573348045349121,53988.0,30697334.12,-129486.841875,9.003515625,-117097.4875,-35.35033098856608,116861.92513020833,-26.012641588846844,1.766585151354472,0.7900601406714074,1000.0,54.0,0.7493486391147598,0.15014022064416913,1000.0,1000.0,0.0,54000
55000,0,68.1769624732042,0.0012874603271484375,0.0002200603485107422,0.019943714141845703,54988.0,37132681.92,-133708.823125,9.005624694824219,-120978.071875,-37.54390970865885,121216.56901041667,-26.150236129760742,1.8633931676546733,0.5716437558584156,1000.0,55.0,0.5892004688785042,0.12856427027415204,1000.0,1000.0,0.0,55000
56000,0,61.75010128991529,0.0006680488586425781,0.0001327991485595703,0.016588211059570312,55988.0,36739788.72,-136416.074375,9.00281234741211,-123840.2734375,-38.53345012664795,123666.232421875,-25.602072715759277,1.965987612803777,0.5952891522245606,1000.0,56.0,0.4996724505922705,0.10383744460084474,1000.0,1000.0,0.0,56000
57000,0,66.55660392328615,0.00069427490234375,0.00019431114196777344,0.016422748565673828,56988.0,38679166.16,-140867.30875,9.005624542236328,-127868.125,-41.99849923451742,127740.95052083333,-26.22993803024292,2.076278785864512,0.8806695914386478,1000.0,57.0,0.7075624854959873,0.11878453224165549,1000.0,1000.0,0.0,57000
58000,0,68.42449739209648,0.0006806850433349609,0.0001399517059326172,0.016783714294433594,57988.0,40049501.6,-143363.040625,9.0028125,-130456.6475,-42.54877185821533,130411.57747395833,-25.420584042867024,2.1911474068959556,0.9595019231893033,1000.0,58.0,0.9261627301054901,0.08849588312115525,1000.0,1000.0,0.0,58000
59000,0,66.70466574383194,0.0007145404815673828,0.00014162063598632812,0.016909360885620117,58988.0,41059467.28,-146888.330625,9.00562484741211,-133751.7003125,-42.34044806162516,133896.38411458334,-24.333460013071697,2.3097071448961892,1.0049138577639327,1000.0,59.0,1.330474095838158,0.090915267381616,1000.0,1000.0,0.0,59000
60000,0,68.17740575327484,0.0006604194641113281,0.0001404285430908203,0.017587900161743164,59988.0,38156359.2,-149530.47375,9.004921875,-136726.47125,-44.701364517211914,136697.38541666666,-24.352548122406006,2.435957113901774,1.733485125114297,1000.0,60.0,1.1472298656368742,0.08207963813367232,1000.0,1000.0,0.0,60000
61000,0,67.14199454578868,0.0006635189056396484,0.00016617774963378906,0.016461849212646484,60988.0,42775242.32,-154212.375625,9.00351547241211,-141186.716875,-46.87829144795736,141398.75130208334,-24.23770809173584,2.5706806580225625,1.0417569438061984,1000.0,61.0,1.146372738358553,0.0886343644826339,1000.0,1000.0,0.0,61000
62000,0,68.1265990885926,0.0006551742553710938,0.0001380443572998047,0.01660895347595215,61988.0,46066025.04,-157889.828125,9.012655181884766,-144566.059375,-47.938527743021645,144908.88932291666,-23.68684196472168,2.7106937964757285,1.0035533458061479,1000.0,62.0,1.0020687891421944,0.08852815736717325,1000.0,1000.0,0.0,62000
63000,0,67.20236668491071,0.0006368160247802734,0.0001399517059326172,0.015967845916748047,62988.0,41800527.04,-161375.686875,9.002202529907226,-148219.654375,-50.871554692586265,148184.39453125,-23.79181496302287,2.8595985571543374,1.0012199874662713,1000.0,63.0,0.8346885551341714,0.09128643519351251,1000.0,1000.0,0.0,63000
64000,0,63.519417299290765,0.0006661415100097656,0.00014162063598632812,0.016626596450805664,63988.0,35003814.08,-164215.96875,9.005625,-150696.383125,-54.736800829569496,150981.2734375,-24.116459846496582,3.02171383301417,0.733397726181133,1000.0,64.0,0.8285177386336553,0.05786168896992638,1000.0,1000.0,0.0,64000
65000,0,67.52794784657165,0.0006842613220214844,0.00014019012451171875,0.0164029598236084,64988.0,38367572.88,-166076.0825,9.00421875,-152909.06875,-58.6247501373291,153112.76822916666,-24.374731063842773,3.1908710996309915,0.9166813103732883,1000.0,65.0,1.0565185556986743,0.08330897177168772,1000.0,1000.0,0.0,65000
66000,0,66.83233851615556,0.0007164478302001953,0.0001392364501953125,0.01592230796813965,65988.0,43023864.48,-169991.335625,9.003515625,-156477.16875,-59.44628938039144,156771.35677083334,-23.65635331471761,3.367240051428477,1.3037822032304107,1000.0,66.0,1.4825954477507461,0.12818520855802387,1000.0,1000.0,0.0,66000
67000,0,67.90367378551247,0.0009434223175048828,0.00016689300537109375,0.017357826232910156,66988.0,39475913.2,-172547.094375,9.005625,-158947.054375,-59.73011589050293,158522.82161458334,-22.81689469019572,3.552173932393392,1.631018137735251,1000.0,67.0,1.0276609311040068,0.05027432026587415,1000.0,1000.0,0.0,67000
68000,0,67.31120687275606,0.0006575584411621094,0.00013971328735351562,0.016232013702392578,67988.0,41339912.0,-176908.12375,9.002109375,-162914.855625,-63.98783620198568,163260.47265625,-23.072034517923992,3.7485199769337973,1.3348310440112694,1000.0,68.0,1.3426568170646822,0.08308360589894374,1000.0,1000.0,0.0,68000
69000,0,67.56084061887302,0.0007500648498535156,0.000141143798828125,0.01637101173400879,68988.0,46663807.52,-180331.216875,9.0028125,-166295.84625,-62.8414634068807,165962.08333333334,-21.89458990097046,3.954053600629171,1.4212290176289089,1000.0,69.0,1.3143479205223059,0.027512567088051436,1000.0,1000.0,0.0,69000
70000,0,67.8032122878838,0.0006878376007080078,0.0001628398895263672,0.01630997657775879,69988.0,41366086.04,-182693.063125,9.00562484741211,-169301.31,-64.32110055287679,169116.80989583334,-21.437973976135254,4.166858712832133,1.4504166748750147,1000.0,70.0,1.318766234730138,0.07862773809271857,1000.0,1000.0,0.0,70000
71000,0,61.71103438088338,0.0006756782531738281,0.0001399517059326172,0.0166778564453125,70988.0,48668568.96,-185173.398125,9.00351547241211,-171232.47,-65.85291862487793,171365.38541666666,-21.01040267944336,4.387600580851237,1.2921869503134942,1000.0,71.0,1.2510736597020993,0.11125793473709722,1000.0,1000.0,0.0,71000
72000,0,65.59097343460988,0.0007214546203613281,0.0001723766326904297,0.016191959381103516,71988.0,45120279.12,-188279.2575,9.00492156982422,-174450.75,-71.29745864868164,173869.0703125,-21.404397010803223,4.6289098262786865,1.3220878636072317,1000.0,72.0,0.9290858480154469,0.07546680024308643,1000.0,1000.0,0.0,72000
73000,0,62.66264364003832,0.000713348388671875,0.0001392364501953125,0.016234159469604492,72988.0,48537389.28,-192910.62375,9.00492156982422,-179000.455625,-78.51321411132812,179069.05208333334,-22.03904660542806,4.895671884218852,0.9241064637626271,1000.0,73.0,1.100923644358604,0.1493473242490763,1000.0,1000.0,0.0,73000
74000,0,67.76933855198052,0.0006728172302246094,0.00013113021850585938,0.016371965408325195,73988.0,58006417.68,-197355.80375,9.00703109741211,-182865.333125,-81.36782201131184,183184.20963541666,-21.720990022023518,5.176301678021749,1.0060848351745242,1000.0,74.0,0.9295696847425091,0.0840551256538875,1000.0,1000.0,0.0,74000
75000,0,68.5593382688992,0.0009644031524658203,0.0001671314239501953,0.016895055770874023,74988.0,56146353.12,-202039.711875,9.00140625,-187078.86,-86.97003555297852,187423.82942708334,-21.908123811086018,5.467583020528157,0.889133902529419,1000.0,75.0,0.9503099143698772,0.10636303494187886,1000.0,1000.0,0.0,75000
76000,0,68.03783628759004,0.0006496906280517578,0.0001392364501953125,0.01655864715576172,75988.0,54645458.08,-203938.7225,9.002109375,-189399.4625,-86.14734649658203,189561.10677083334,-20.92743984858195,5.771714687347412,0.9156072208437757,1000.0,76.0,1.057842858915975,0.07054751947286128,1000.0,1000.0,0.0,76000
77000,0,68.74447658333574,0.0006937980651855469,0.00013947486877441406,0.0160067081451416,76988.0,53092793.52,-207141.770625,9.004218597412109,-192666.95625,-87.95387967427571,193511.37369791666,-20.456453164418537,6.084691762924194,1.2133249167069615,1000.0,77.0,1.4583733052220922,0.15480092624170091,1000.0,1000.0,0.0,77000
78000,0,67.543607076073,0.0006544589996337891,0.00014066696166992188,0.016464948654174805,77988.0,53756921.04,-212938.4425,9.004218597412109,-198500.650625,-89.03316942850749,199072.80729166666,-19.88639036814372,6.4121599197387695,1.77796881626734,1000.0,78.0,1.4651039068338902,0.17782109730507975,1000.0,1000.0,0.0,78000
79000,0,66.97803713961594,0.0007309913635253906,0.00015401840209960938,0.01673722267150879,78988.0,65680388.0,-216814.70625,9.004218597412109,-201666.348125,-93.99703979492188,202128.51171875,-19.912930329640705,6.7567747831344604,1.8582566224449129,1000.0,79.0,1.4300269315158025,0.05330067736364553,1000.0,1000.0,0.0,79000
80000,0,67.28192387330998,0.0006251335144042969,0.00018835067749023438,0.016057252883911133,79988.0,65208798.88,-219501.903125,9.004218597412109,-204387.5825,-94.76917457580566,204834.5703125,-19.314761479695637,7.118335723876953,1.7682376245374987,1000.0,80.0,1.6788125574444568,0.11883827887087725,1000.0,1000.0,0.0,80000
81000,0,63.24205264541904,0.0007007122039794922,0.0001399517059326172,0.016991853713989258,80988.0,57485797.44,-222269.81875,9.004921875,-207197.6625,-99.7723019917806,206881.74739583334,-19.297555287679035,7.503866871198018,1.6783052524287851,1000.0,81.0,1.0782813484626965,0.06090034664167379,1000.0,1000.0,0.0,81000
82000,0,68.27933568402992,0.0006868839263916016,0.0001385211944580078,0.016811609268188477,81988.0,61003280.24,-225481.980625,9.002109375,-210343.98875,-104.0235595703125,210516.60286458334,-19.134257952372234,7.920869628588359,1.1477626739895541,1000.0,82.0,0.913422640358687,0.21062465423143564,1000.0,1000.0,0.0,82000
83000,0,67.41680237989459,0.0007021427154541016,0.000141143798828125,0.01642775535583496,82988.0,62970478.72,-228201.675,9.0028125,-213151.84625,-115.19054349263509,214421.14713541666,-19.784544308980305,8.357426722844442,1.4213773354591392,1000.0,83.0,1.1897782613846586,0.0827165693257129,1000.0,1000.0,0.0,83000
84000,0,68.78921389828463,0.0009377002716064453,0.00016450881958007812,0.017007827758789062,83988.0,60889905.44,-231876.30625,9.003515625,-216346.87,-118.28520838419597,217203.17317708334,-19.387559572855633,8.836445728937784,1.4425258176897453,1000.0,84.0,1.1984716325002118,0.09927908715529851,1000.0,1000.0,0.0,84000
85000,0,67.87708050667523,0.0006968975067138672,0.00014519691467285156,0.016973257064819336,84988.0,64240326.0,-233122.466875,9.003515625,-218336.248125,-114.99451700846355,218629.40494791666,-18.342063268025715,9.318273862202963,0.8080250215409184,1000.0,85.0,0.4206829086637013,0.03344640159067915,1000.0,1000.0,0.0,85000
86000,0,67.92122356867287,0.0006747245788574219,0.0001399517059326172,0.016462087631225586,85988.0,72396180.56,-236056.21375,9.00914047241211,-220590.848125,-117.59599113464355,221231.296875,-17.99070390065511,9.808312575022379,0.7506736698884197,1000.0,86.0,0.29842722339211686,0.052772555125405435,1000.0,1000.0,0.0,86000
87000,0,68.41012305100735,0.0007035732269287109,0.0001926422119140625,0.01623845100402832,86988.0,71666567.28,-239176.675,9.00562484741211,-223482.088125,-122.39253616333008,223188.73828125,-17.83960501352946,10.338647921880087,0.503850168434453,1000.0,87.0,0.321342611865968,0.012380735327560007,1000.0,1000.0,0.0,87000
88000,0,68.45456017297478,0.0006573200225830078,0.00013184547424316406,0.0158388614654541,87988.0,67809948.96,-241798.799375,9.00351547241211,-226247.261875,-131.55526987711588,226690.29296875,-18.06104326248169,10.90865429242452,0.7317874286317829,1000.0,88.0,0.4769573758964813,0.06996832983891317,1000.0,1000.0,0.0,88000
89000,0,67.84418643020514,0.000682830810546875,0.00014448165893554688,0.01652979850769043,88988.0,62404946.0,-244397.705625,9.00562484741211,-228561.641875,-137.22866439819336,228880.09114583334,-17.898467540740967,11.534557422002157,0.7951513043055942,1000.0,89.0,0.5566099412702256,0.10205725959192079,1000.0,1000.0,0.0,89000
90000,0,63.42424995750853,0.0006630420684814453,0.0001404285430908203,0.016095399856567383,89988.0,64717592.8,-246282.958125,9.002109375,-231169.86625,-137.43060175577799,231498.08072916666,-17.30251948038737,12.160529851913452,0.7839141375113107,1000.0,90.0,0.6340145300623344,0.058262129769627746,1000.0,1000.0,0.0,90000
91000,0,68.34297408890787,0.0007150173187255859,0.00014400482177734375,0.01631450653076172,90988.0,65884728.4,-247811.356875,9.00492172241211,-232529.85,-142.00626500447592,232641.4296875,-17.074884096781414,12.82365369796753,0.7803049735048108,1000.0,91.0,0.5316982590422786,0.0882040615893547,1000.0,1000.0,0.0,91000
92000,0,67.29902412256071,0.0010304450988769531,0.00019073486328125,0.01796126365661621,91988.0,73909246.72,-251166.775625,9.003515625,-235485.735,-140.8821538289388,236212.671875,-16.433180809020996,13.504706780115763,0.7154773455456053,1000.0,92.0,0.3188296950422975,0.05917713565450322,1000.0,1000.0,0.0,92000
93000,0,68.37679961083151,0.0011212825775146484,0.00020813941955566406,0.01787567138671875,92988.0,81403267.92,-253131.0725,9.00492156982422,-236937.0475,-154.8722038269043,237048.828125,-16.873847166697185,14.244129339853922,0.5986524767245007,1000.0,93.0,0.2607113520736784,0.027650876661553397,1000.0,1000.0,0.0,93000
94000,0,68.19372247004019,0.0006701946258544922,0.0001480579376220703,0.016580820083618164,93988.0,59518903.84,-253481.34625,9.003515625,-237334.19375,-166.1387087504069,237478.56380208334,-17.04062859217326,15.049607117970785,0.544828996791008,1000.0,94.0,0.2838456532656978,0.022643146993239285,1000.0,1000.0,0.0,94000
95000,0,67.74398827794148,0.0007314682006835938,0.00014090538024902344,0.016394615173339844,94988.0,59047975.84,-255871.075625,9.00281234741211,-238942.34875,-172.7686971028646,238935.18359375,-16.870187759399414,15.8955131371816,0.6070211834319664,1000.0,95.0,0.15457709344646114,0.0491949437392405,1000.0,1000.0,0.0,95000
96000,0,68.74587374360205,0.0007154941558837891,0.00013875961303710938,0.016448974609375,95988.0,69214751.52,-256399.214375,9.004218597412109,-240441.8375,-184.96475474039713,241039.33333333334,-17.019985516866047,16.786412874857586,0.5451531227877475,1000.0,96.0,0.3468910640336072,0.053842019490851795,1000.0,1000.0,0.0,96000
97000,0,68.50907998026872,0.0007009506225585938,0.00013756752014160156,0.016250133514404297,96988.0,63801793.04,-257293.0175,9.00421875,-241678.63625,-191.0476303100586,241859.93098958334,-16.775494416554768,17.731733481089275,0.7076062630386604,1000.0,97.0,0.39225166971332587,0.03893327357616992,1000.0,1000.0,0.0,97000
98000,0,64.73746338909551,0.0006842613220214844,0.0001385211944580078,0.016183853149414062,97988.0,59508713.2,-259048.90375,9.005624694824219,-243290.4475,-196.48939259847006,244145.05208333334,-16.499122142791748,18.716910362243652,0.7773360424596734,1000.0,98.0,0.4485949998838035,0.045727929191123326,1000.0,1000.0,0.0,98000
99000,0,58.06544500878256,0.0006670951843261719,0.00013899803161621094,0.01689624786376953,98988.0,63082539.2,-262038.295625,9.002109222412109,-246404.290625,-198.98384602864584,246847.82291666666,-16.086087544759113,19.73066012064616,0.7612143205318562,1000.0,99.0,0.443285512381735,0.04336193174690161,1000.0,1000.0,0.0,99000
100000,0,68.61478844161819,0.0006721019744873047,0.00014662742614746094,0.01571059226989746,99988.0,70260974.24,-263075.97875,9.005793533325196,-247384.210625,-202.46272786458334,247502.2890625,-15.7394011815389,20.790205160776775,0.8479403625727114,1000.0,100.0,0.37334237922221924,0.030219937369081587,1000.0,1000.0,0.0,100000
101000,0,68.62713785692033,0.0010983943939208984,0.00021147727966308594,0.0191648006439209,100988.0,69502926.48,-266129.47375,9.003515625,-250199.795625,-188.33883158365884,250111.62760416666,-14.60795489947001,21.88182544708252,0.8239297204148459,1000.0,101.0,0.37057260480984056,0.09497337660531659,1000.0,1000.0,0.0,101000
102000,0,67.9037617317345,0.0006427764892578125,0.00013947486877441406,0.016937732696533203,101988.0,62305210.16,-267658.351875,9.00562484741211,-251299.283125,-189.26437377929688,251221.6171875,-14.24070946375529,22.96933190027873,0.5143119129802275,1000.0,102.0,0.3341240333007164,0.030057959528132238,1000.0,1000.0,0.0,102000
103000,0,68.20010939844514,0.000675201416015625,0.00013184547424316406,0.01687335968017578,102988.0,63624713.04,-271334.39875,9.006327972412109,-254669.860625,-195.71516291300455,255162.52734375,-14.107406377792358,24.14269208908081,0.4850961317259864,1000.0,103.0,0.6416964063789363,0.07754199082170363,1000.0,1000.0,0.0,103000
104000,0,68.49901031493543,0.0006821155548095703,0.0001456737518310547,0.01685929298400879,103988.0,55431916.16,-273636.5175,9.0028125,-257646.08375,-207.48271687825522,257516.52213541666,-14.159886280695597,25.429878393809002,0.9141546156182564,1000.0,104.0,0.3875396526000993,0.05118670695079435,1000.0,1000.0,0.0,104000
105000,0,68.20250480504994,0.0006558895111083984,0.00014066696166992188,0.016129255294799805,104988.0,66529192.08,-276021.355,9.00492172241211,-259743.7175,-220.6138572692871,260274.89453125,-14.22326366106669,26.831013679504395,0.5542505800846268,1000.0,105.0,0.3674033483874609,0.1420355151933493,1000.0,1000.0,0.0,105000
106000,0,68.55705220157778,0.0007784366607666016,0.0001556873321533203,0.016643285751342773,105988.0,77638087.04,-277706.05375,9.002109375,-260699.700625,-232.1956558227539,261195.13411458334,-14.197621981302897,28.328139623006184,0.5704143386463576,1000.0,106.0,0.32626809433514425,0.07177767393638827,1000.0,1000.0,0.0,106000
107000,0,62.38278419441315,0.0008587837219238281,0.00019049644470214844,0.016816139221191406,106988.0,70841316.96,-278648.44625,9.00421875,-261907.9425,-230.5726178487142,261510.25911458334,-13.716507911682129,29.88348372777303,0.49371907988838815,1000.0,107.0,0.3866497285927557,0.06974733200096088,1000.0,1000.0,0.0,107000
108000,0,68.1525909431544,0.0006873607635498047,0.00021505355834960938,0.01699233055114746,107988.0,64838834.32,-279874.985,9.004218597412109,-262440.935,-247.6457748413086,263456.7213541667,-13.856520175933838,31.524485905965168,0.49636208219554756,1000.0,108.0,0.38986180809027154,0.048649845818523225,1000.0,1000.0,0.0,108000
109000,0,68.57390992716063,0.0006163120269775391,0.00015687942504882812,0.016170501708984375,108988.0,64914426.4,-279896.93125,9.0028125,-263018.7275,-251.5331713358561,262701.4856770833,-13.560011863708496,33.27524439493815,0.4657500792262371,1000.0,109.0,0.35141601510992226,0.0400609048659519,1000.0,1000.0,0.0,109000
110000,0,68.10084819514984,0.0009009838104248047,0.0001595020294189453,0.01766037940979004,109988.0,65518616.8,-283402.8175,9.0028125,-265786.8975,-263.97200266520184,266306.4114583333,-13.522669553756714,35.09385617574056,0.4681628834457101,1000.0,110.0,0.4302902110812451,0.0908314554837837,1000.0,1000.0,0.0,110000
111000,0,68.4555880453935,0.0006961822509765625,0.00016379356384277344,0.016529560089111328,110988.0,61289879.84,-284622.475,9.000703125,-266947.134375,-272.05539957682294,267743.5598958333,-13.351547956466675,37.01052792867025,0.6174657897637339,1000.0,111.0,0.4202308817304691,0.07634872349630191,1000.0,1000.0,0.0,111000
112000,0,66.71098898791782,0.0006556510925292969,0.00013518333435058594,0.016507863998413086,111988.0,79570000.32,-289157.9875,9.00351547241211,-271496.39375,-298.0575256347656,271532.3489583333,-13.628734985987345,39.07461929321289,0.5555262686583681,1000.0,112.0,0.6284764767324539,0.07821269964007087,1000.0,1000.0,0.0,112000
113000,0,68.46323102135689,0.0006237030029296875,0.0001506805419921875,0.01648688316345215,112988.0,58574822.64,-291254.32375,9.002109375,-274063.2625,-301.6239954630534,275003.2708333333,-13.308676401774088,41.27343559265137,0.7830861344199705,1000.0,113.0,0.4776602502816279,0.07396761496733495,1000.0,1000.0,0.0,113000
114000,0,68.56444885305909,0.0008940696716308594,0.00014543533325195312,0.016152143478393555,113988.0,71616980.48,-292677.17375,9.00140625,-275173.605,-320.9540303548177,275913.9401041667,-13.36729621887207,43.56900533040365,0.52588160928477,1000.0,114.0,0.5037120804357952,0.10384554275781527,1000.0,1000.0,0.0,114000
115000,0,68.45263858124972,0.0006716251373291016,0.0001575946807861328,0.01584339141845703,114988.0,69774956.32,-292635.81,9.003515625,-276415.79625,-332.42919921875,276612.4453125,-13.225736220677694,46.01134427388509,0.6096474208401571,1000.0,115.0,0.4731930981897496,0.02241673887982402,1000.0,1000.0,0.0,115000
116000,0,61.52737608427906,0.0006732940673828125,0.00014901161193847656,0.016530513763427734,115988.0,71480150.72,-295547.60125,9.00140625,-278960.81125,-357.8731053670247,279443.3619791667,-13.362902959187826,48.610297203063965,0.8783563034541803,1000.0,116.0,0.46041052223930273,0.03800601523834932,1000.0,1000.0,0.0,116000
117000,0,68.59109001887181,0.0006225109100341797,0.0001385211944580078,0.01623678207397461,116988.0,72158648.72,-295627.8975,9.004033660888672,-279428.42125,-367.9499003092448,279774.453125,-13.169272104899088,51.32881704966227,0.958374462142991,1000.0,117.0,0.3656909500869923,0.05103747691488358,1000.0,1000.0,0.0,117000
118000,0,68.65656982983441,0.0010683536529541016,0.00019860267639160156,0.016715526580810547,117988.0,68096720.48,-299321.08875,9.003403015136719,-283617.06125,-393.2737859090169,284904.5546875,-13.256219307581583,54.20439497629801,0.9671618166401611,1000.0,118.0,0.7915680396886833,0.22929543453711584,1000.0,1000.0,0.0,118000
119000,0,68.60823383079695,0.0009224414825439453,0.00017976760864257812,0.017015933990478516,118988.0,70769662.08,-302847.55625,9.003515625,-286908.495,-393.2361551920573,287202.453125,-12.875946203867594,57.19607671101888,1.3282589314792665,1000.0,119.0,0.394255585907147,0.02543341976575906,1000.0,1000.0,0.0,119000
120000,0,69.44000381445333,0.0006837844848632812,0.00013971328735351562,0.016589879989624023,119988.0,70269544.48,-307161.2875,9.00421875,-291006.24375,-404.9079844156901,291026.1848958333,-12.714994668960571,60.30521329243978,0.8613052621228777,1000.0,120.0,0.5324574435327699,0.11102818301349543,1000.0,1000.0,0.0,120000
121000,0,65.40514882413372,0.0006520748138427734,0.0001385211944580078,0.016663312911987305,120988.0,68535575.12,-308062.95125,9.001028442382813,-292165.16,-391.89352162679035,293367.234375,-12.173571825027466,63.4862699508667,0.7085339867862975,1000.0,121.0,0.5204348318461094,0.06832276257688058,1000.0,1000.0,0.0,121000
122000,0,68.23583615215522,0.0006346702575683594,0.0001418590545654297,0.016216754913330078,121988.0,79071870.56,-313198.80875,9.000703125,-296675.64625,-382.70174916585285,297073.5338541667,-11.73419706026713,66.74664815266927,0.9573097089023165,1000.0,122.0,0.35319563414815264,0.06546463409331708,1000.0,1000.0,0.0,122000
123000,0,68.59791061394769,0.0007176399230957031,0.00014257431030273438,0.016275644302368164,122988.0,66065264.0,-315256.435,9.006390914916992,-299036.6775,-384.83135986328125,299782.4088541667,-11.491321086883545,70.08743476867676,0.6458649252933409,1000.0,123.0,0.34087845808324985,0.009999243369736009,1000.0,1000.0,0.0,123000
124000,0,68.36043974384133,0.000652313232421875,0.00013113021850585938,0.016543149948120117,123988.0,86475102.08,-318671.325,9.00351547241211,-302261.42875,-413.76805114746094,302886.5807291667,-11.60930609703064,73.77327919006348,0.8430998924470602,1000.0,124.0,0.3993325638459261,0.0199126927532146,1000.0,1000.0,0.0,124000
125000,0,64.09263388491179,0.0006554126739501953,0.00013709068298339844,0.016369342803955078,124988.0,72549000.8,-321956.39,9.003515625,-305891.295,-430.9220886230469,307185.4479166667,-11.540674527486166,77.78324699401855,1.06151938417538,1000.0,125.0,0.2746283295698612,0.03133674293717994,1000.0,1000.0,0.0,125000
126000,0,68.7041186722753,0.0006506443023681641,0.00013828277587890625,0.016285181045532227,125988.0,99854604.8,-326358.01125,9.004921875,-309593.6875,-474.9600830078125,311646.34375,-11.781877279281616,82.15532684326172,1.160414391440502,1000.0,126.0,0.32051041212051407,0.038081008908021005,1000.0,1000.0,0.0,126000
127000,0,68.99229855676072,0.0006337165832519531,0.0001842975616455078,0.016345977783203125,126988.0,101515131.2,-329228.43375,9.00492156982422,-312848.8175,-462.1034189860026,313292.984375,-11.323209603627523,86.81861941019694,1.2033100018069676,1000.0,127.0,0.3339676923609814,0.027381157606614092,1000.0,1000.0,0.0,127000
128000,0,66.68413407849651,0.0010159015655517578,0.0001933574676513672,0.017597198486328125,127988.0,72843085.76,-333197.845,9.007733764648437,-317211.87625,-401.71692657470703,317972.828125,-10.41018565495809,91.09703318277995,1.2297146817215392,1000.0,128.0,1.0565702887331452,0.11650351320315062,1000.0,1000.0,0.0,128000
129000,0,65.83241042795186,0.0008161067962646484,0.00014901161193847656,0.018488168716430664,128988.0,91116573.28,-338539.4475,9.006327972412109,-322009.235,-386.32666269938153,322708.6744791667,-10.052811861038208,95.33178202311198,1.6210303715987104,1000.0,129.0,0.920627015446535,0.04435800197890169,1000.0,1000.0,0.0,129000
130000,0,65.62779688088715,0.0007789134979248047,0.00015616416931152344,0.01751708984375,129988.0,90813471.12,-343084.98625,9.002109375,-326960.37625,-381.791748046875,328424.3489583333,-9.822641611099243,99.88471603393555,1.5266000773571975,1000.0,130.0,0.8921872345878692,0.03089340372692665,1000.0,1000.0,0.0,130000
131000,0,68.29810335877256,0.0007119178771972656,0.0001494884490966797,0.016312837600708008,130988.0,73493595.36,-347174.7725,9.00281234741211,-331431.3275,-387.49581654866535,331737.0416666667,-9.696167945861816,104.84756215413411,1.7261690542884334,1000.0,131.0,1.2887332384977719,0.5307532584984621,1000.0,1000.0,0.0,131000
132000,0,56.711726280423896,0.0007545948028564453,0.0001964569091796875,0.01634049415588379,131988.0,93856654.08,-351879.9325,9.00421875,-335488.64,-390.3819122314453,336666.2578125,-9.546464602152506,110.08783721923828,1.2404474428632812,1000.0,132.0,0.6900875512761429,0.11279823460017406,1000.0,1000.0,0.0,132000
133000,0,66.49974759197673,0.001272439956665039,0.00022792816162109375,0.018584728240966797,132988.0,93234423.36,-357225.41,9.00340576171875,-340498.81,-412.7095692952474,341455.28125,-9.565212726593018,115.77302996317546,3.2167972599565315,1000.0,133.0,0.629690151092124,0.11241375819763384,1000.0,1000.0,0.0,133000
134000,0,65.90221034511148,0.0008192062377929688,0.00016927719116210938,0.017173051834106445,133988.0,95511624.48,-363679.73875,9.005625,-347496.89375,-432.770268758138,348931.6223958333,-9.54843028386434,121.97587013244629,1.5365704660351671,1000.0,134.0,0.33648404630809214,0.02309822343459544,1000.0,1000.0,0.0,134000
135000,0,66.29491099359923,0.0007615089416503906,0.00014781951904296875,0.016892194747924805,134988.0,93376261.28,-370870.6025,9.00703109741211,-354002.09375,-448.10740661621094,355137.1822916667,-9.484683831532797,128.6063486735026,1.2338615294635438,1000.0,135.0,0.28474677908793533,0.05172570195829303,1000.0,1000.0,0.0,135000
136000,0,67.33515320928124,0.0010766983032226562,0.00019598007202148438,0.01780843734741211,135988.0,91585136.48,-373067.76,9.00703109741211,-356665.7125,-435.166508992513,357906.6067708333,-9.209747791290283,135.58951568603516,1.26301350616047,1000.0,136.0,0.2595891077603992,0.02927841486844356,1000.0,1000.0,0.0,136000
137000,0,59.659807281780985,0.0008347034454345703,0.0001609325408935547,0.01678013801574707,136988.0,113447550.32,-378556.7025,9.0028125,-361738.06375,-456.5017445882161,363549.0755208333,-9.195709228515625,142.8637669881185,1.169354027749098,1000.0,137.0,0.268449588625257,0.03883815288787671,1000.0,1000.0,0.0,137000
138000,0,64.82735596510643,0.0007116794586181641,0.00014066696166992188,0.016695499420166016,137988.0,106024423.84,-385138.1175,9.011249389648437,-368042.64625,-470.3073272705078,369219.5026041667,-9.127147754033407,150.4110476175944,1.4215790399451245,1000.0,138.0,0.6162076018389873,0.05227138908555605,1000.0,1000.0,0.0,138000
139000,0,66.90128803558622,0.001089334487915039,0.00018715858459472656,0.01812267303466797,138988.0,90049828.32,-388742.1675,9.00703094482422,-372350.1375,-469.9183044433594,373902.2395833333,-8.963153759638468,158.60594177246094,1.4830959241938972,1000.0,139.0,0.5112398921986201,0.022500129494086203,1000.0,1000.0,0.0,139000
140000,0,68.12819256693102,0.0007352828979492188,0.000141143798828125,0.01660466194152832,139988.0,109603413.44,-395754.3425,9.00351547241211,-378936.285,-391.63037872314453,380315.5911458333,-8.352858146031698,166.4633700052897,1.9124371874424009,1000.0,140.0,2.147041356014746,0.22238372730451753,1000.0,1000.0,0.0,140000
141000,0,67.9052128772886,0.0006852149963378906,0.0001392364501953125,0.016682147979736328,140988.0,122857071.12,-401547.5875,9.0028125,-384863.4975,-342.5042368570964,387909.6927083333,-7.971855441729228,173.7119229634603,2.2854600707255783,1000.0,141.0,0.7307025055310273,0.1702216350728677,1000.0,1000.0,0.0,141000
142000,0,68.00055252524139,0.0007207393646240234,0.00013947486877441406,0.016373634338378906,141988.0,99748862.4,-406799.52125,9.004218444824218,-390126.15875,-303.17285537719727,391698.6848958333,-7.6787751118342085,180.60615412394205,1.6826233913971005,1000.0,142.0,0.6417715412997387,0.14239525841612233,1000.0,1000.0,0.0,142000
143000,0,68.43874376851171,0.0007581710815429688,0.00014638900756835938,0.016358613967895508,142988.0,98077142.56,-417251.1725,9.003515625,-400261.93625,-277.3744061787923,401380.9973958333,-7.477517167727153,187.74059677124023,2.2764899835290926,1000.0,143.0,2.2952097011189077,0.2578464047481442,1000.0,1000.0,0.0,143000
144000,0,68.04092671708966,0.0006756782531738281,0.0001621246337890625,0.016523122787475586,143988.0,126427861.6,-425186.35625,9.004075317382812,-407641.70625,-319.58074951171875,409462.4921875,-7.628971378008525,196.20410283406576,1.8639095060150321,1000.0,144.0,0.5543789345790663,0.039443408055829486,1000.0,1000.0,0.0,144000
145000,0,62.99225464688146,0.0007319450378417969,0.0001399517059326172,0.015863656997680664,144988.0,100072180.96,-429794.775,9.00421875,-412346.4025,-247.14383188883463,412983.6276041667,-7.205503225326538,205.02863947550455,1.7461126734173307,1000.0,145.0,0.8043680139715169,0.08488324789178764,1000.0,1000.0,0.0,145000
146000,0,67.88068366463094,0.0007369518280029297,0.00014066696166992188,0.016501665115356445,145988.0,129438451.2,-435510.24625,9.003515625,-418080.9475,-229.33864212036133,420211.4713541667,-7.075639247894287,213.23932774861655,2.1535275822299584,1000.0,146.0,2.09116159586631,0.33864181553513517,1000.0,1000.0,0.0,146000
147000,0,68.53290092435915,0.0009999275207519531,0.00016498565673828125,0.017142057418823242,146988.0,111267361.76,-439610.27,9.0028125,-422470.86875,-238.84361775716147,424302.7057291667,-7.073439240455627,222.5243403116862,2.1258271321054467,1000.0,147.0,0.6516754931601523,0.03585658611409887,1000.0,1000.0,0.0,147000
148000,0,68.12832536015733,0.0006868839263916016,0.0001766681671142578,0.015570878982543945,147988.0,104666416.8,-449882.85625,9.004466552734375,-432006.0925,-265.8844362894694,433497.6979166667,-7.139031410217285,233.45634969075522,2.045534232640908,1000.0,148.0,1.0219926931505994,0.02450220344026058,1000.0,1000.0,0.0,148000
149000,0,67.82264031833259,0.0006732940673828125,0.0001614093780517578,0.016697406768798828,148988.0,135580546.08,-456085.66375,9.009842987060546,-438561.33375,-149.36702156066895,440278.1015625,-6.617361028989156,241.94974899291992,1.9958496441025286,1000.0,149.0,0.6352616028506927,0.09496315111401847,1000.0,1000.0,0.0,149000
150000,0,67.64879882892514,0.00072479248046875,0.00014638900756835938,0.01612377166748047,149988.0,120866402.56,-462615.42,9.004921875,-445358.9,-53.514628410339355,446310.3255208333,-6.216220259666443,247.51214472452799,1.542785044101483,1000.0,150.0,0.5035321920128792,0.08992233998661166,1000.0,1000.0,0.0,150000
151000,0,68.16805376597137,0.0007498264312744141,0.00014662742614746094,0.017503023147583008,150988.0,112091879.36,-472987.99,9.0028125,-455889.445,-120.03936258951823,457329.1666666667,-6.47373362382253,253.3961499532064,1.6884981848830924,1000.0,151.0,0.5815464015980942,0.040697719505704465,1000.0,1000.0,0.0,151000
152000,0,68.33513526899674,0.0007097721099853516,0.0002117156982421875,0.016707658767700195,151988.0,108979492.32,-483230.39625,9.009140167236328,-465148.5725,-74.57832209269206,465574.90625,-6.285734574000041,261.02391306559247,1.7462721519172555,1000.0,152.0,0.6903144969852353,0.0428480663847122,1000.0,1000.0,0.0,152000
153000,0,61.1538311250148,0.0007333755493164062,0.00015425682067871094,0.016287565231323242,152988.0,96215754.24,-490336.90125,9.004921875,-472247.7975,-76.69123522440593,474046.7994791667,-6.283218542734782,270.83476003011066,2.0263973000104145,1000.0,153.0,0.7629959991634179,0.07497668783831102,1000.0,1000.0,0.0,153000
154000,0,67.5003878496521,0.0007226467132568359,0.00014543533325195312,0.016239404678344727,153988.0,113511736.32,-499768.02875,9.002109375,-482229.23875,-99.10033988952637,483939.8932291667,-6.351356029510498,282.0734125773112,2.069799589963053,1000.0,154.0,0.7214143701030314,0.04447775221604075,1000.0,1000.0,0.0,154000
155000,0,67.93860635200986,0.0009512901306152344,0.00017786026000976562,0.016808748245239258,154988.0,120253717.76,-508086.6625,9.011249237060547,-489655.05,6.128980875015259,490715.5390625,-5.978911439577739,290.6216761271159,1.8609738627653927,1000.0,155.0,0.8360180893432189,0.07856986963364493,1000.0,1000.0,0.0,155000
156000,0,67.98613533479691,0.0006427764892578125,0.0001385211944580078,0.016976118087768555,155988.0,130375575.68,-515593.38875,9.006327972412109,-496106.5175,21.800923824310303,497532.3020833333,-5.924859007199605,290.1258265177409,1.8643933847676166,1000.0,156.0,0.21802965968846372,0.046634115975807314,1000.0,1000.0,0.0,156000
157000,0,67.42456198109033,0.0007021427154541016,0.00013971328735351562,0.01851344108581543,156988.0,133723412.0,-520381.1875,9.004921875,-500382.295,-35.28827031453451,501590.875,-6.121752858161926,289.80809529622394,1.5021978105448608,1000.0,157.0,0.5382403999302123,0.07801324594609764,1000.0,1000.0,0.0,157000
158000,0,67.58217712916768,0.0006525516510009766,0.00013136863708496094,0.016376018524169922,157988.0,113861767.68,-527592.18375,9.00492156982422,-505860.35375,-101.80950196584065,509191.4713541667,-6.331152280171712,307.49896240234375,1.70775044988986,1000.0,158.0,0.8148937368292014,0.39204571579657793,1000.0,1000.0,0.0,158000
159000,0,68.33344303254678,0.0007083415985107422,0.0001418590545654297,0.01617121696472168,158988.0,125806740.16,-536579.525,9.007733917236328,-515313.27875,-36.13679003715515,517728.0755208333,-6.11372450987498,317.8299560546875,1.9100922490962748,1000.0,159.0,0.9966657078555032,0.04202115574388433,1000.0,1000.0,0.0,159000
160000,0,67.77095916263528,0.0006945133209228516,0.00013971328735351562,0.016496896743774414,159988.0,143885029.92,-544799.5525,9.009139862060547,-522224.6375,-82.1248733997345,524216.2369791667,-6.251892805099487,326.08519744873047,1.8238415999687214,1000.0,160.0,0.12605006718088024,0.02295991956000113,1000.0,1000.0,0.0,160000
161000,0,61.81118097072773,0.0006740093231201172,0.0001385211944580078,0.016910791397094727,160988.0,164712337.28,-553755.86,9.004218597412109,-530490.1875,-75.60569222768147,532170.6458333334,-6.221102873484294,342.00182851155597,1.8154179319428854,1000.0,161.0,0.7367611714606671,0.027918175773194314,1000.0,1000.0,0.0,161000
162000,0,67.52486035570175,0.0007576942443847656,0.00015974044799804688,0.01661968231201172,161988.0,123503566.4,-558143.3575,9.01054656982422,-534779.2525,-126.28953679402669,536848.2291666666,-6.34892741839091,361.95940653483075,1.9477033688781022,1000.0,162.0,0.9364226031319897,0.025548060901098183,1000.0,1000.0,0.0,162000
163000,0,66.39923150913849,0.0009696483612060547,0.00016188621520996094,0.0172727108001709,162988.0,159849188.0,-562823.6525,9.00703125,-538670.2475,-80.92805457115173,540442.9114583334,-6.214302659034729,377.6114908854167,1.915968739330776,1000.0,163.0,0.9361818314035067,0.035377621414766684,1000.0,1000.0,0.0,163000
164000,0,66.56665991631682,0.0006856918334960938,0.0001533031463623047,0.016213417053222656,163988.0,171887867.52,-573415.0575,9.00562484741211,-548922.985,-35.549503008524574,550189.828125,-6.091898481051127,386.91546630859375,1.674562630385941,1000.0,164.0,0.2033321800843743,0.03594502691621686,1000.0,1000.0,0.0,164000
165000,0,67.93578929704998,0.0006854534149169922,0.0001373291015625,0.016719818115234375,164988.0,159527578.56,-578660.1475,9.00140625,-556026.0525,-9.180455843607584,557700.2135416666,-6.023226340611775,395.2976989746094,2.257045597533519,1000.0,165.0,0.19997446250093281,0.048882006018351874,1000.0,1000.0,0.0,165000
166000,0,68.6124537791042,0.0006415843963623047,0.0001316070556640625,0.015930891036987305,165988.0,144056173.76,-591294.5425,9.00351547241211,-567927.19,-38.16413640975952,569456.171875,-6.093320608139038,408.9263102213542,2.113499516216355,1000.0,166.0,0.24582625289866825,0.03746291581203717,1000.0,1000.0,0.0,166000
167000,0,68.22691205319816,0.0006923675537109375,0.00013327598571777344,0.015856027603149414,166988.0,155930405.12,-601594.15,9.003515625,-579433.335,-50.205502112706505,582949.78125,-6.1180113554000854,425.44403076171875,2.505126558092819,1000.0,167.0,0.4230736697218572,0.07067448197711938,1000.0,1000.0,0.0,167000
168000,0,68.17745008159895,0.0007052421569824219,0.00015354156494140625,0.01609349250793457,167988.0,163587787.04,-611403.485,9.012655487060547,-589968.6425,126.22245852152507,592847.5677083334,-5.6921132405598955,409.9584655761719,2.397417002230712,1000.0,168.0,0.8796788793806993,0.021270747893026635,1000.0,1000.0,0.0,168000
169000,0,61.36713850879005,0.0006558895111083984,0.0001385211944580078,0.01594090461730957,168988.0,146100143.04,-614482.6075,9.008437042236329,-594294.3775,58.829450249671936,596392.8958333334,-5.849698066711426,391.3651377360026,2.6774697452442555,1000.0,169.0,0.8526667497511309,0.16411441909970287,1000.0,1000.0,0.0,169000
170000,0,67.40319487914265,0.000720977783203125,0.00014472007751464844,0.016812801361083984,169988.0,150757730.88,-622035.6525,9.007734375,-600962.35,-72.85241222381592,603095.171875,-6.183674494425456,396.69937896728516,2.5562212031870275,1000.0,170.0,0.8786185686238326,0.09716236932344982,1000.0,1000.0,0.0,170000
171000,0,68.4171755443779,0.0009183883666992188,0.00018215179443359375,0.017972946166992188,170988.0,140454256.32,-630641.845,9.006327667236327,-609385.6975,-163.08670457204184,611560.859375,-6.385015249252319,423.71697998046875,2.425821078046163,1000.0,171.0,1.3865436682588617,0.1500588580447699,1000.0,1000.0,0.0,171000
172000,0,68.21927736396657,0.0006470680236816406,0.0001506805419921875,0.016136646270751953,171988.0,178743147.2,-643092.795,9.00562484741211,-622194.75,3.126713275909424,624773.65625,-5.992864569028218,438.08778889973956,3.7679429537266125,1000.0,172.0,1.7608157940162337,0.10620495730499185,1000.0,1000.0,0.0,172000
173000,0,68.53294571616803,0.0007114410400390625,0.00020051002502441406,0.016362428665161133,172988.0,168675553.6,-655991.2375,9.005624694824219,-634596.8175,31.490047454833984,636280.078125,-5.9266943136851,429.30523173014325,3.8703791731676502,1000.0,173.0,1.6008134577853306,0.0662282337042029,1000.0,1000.0,0.0,173000
174000,0,68.3183502102502,0.0006840229034423828,0.00013136863708496094,0.016295433044433594,173988.0,150151445.44,-664741.14,9.011941146850585,-643168.5275,69.75175364812215,645932.90625,-5.833697319030762,419.4059371948242,3.4748182167272206,1000.0,174.0,1.1616426841923506,0.08952944422319535,1000.0,1000.0,0.0,174000
175000,0,68.6302820542693,0.0007538795471191406,0.00015664100646972656,0.016510725021362305,174988.0,156986707.52,-673994.0,9.00703125,-651339.7,-55.018336137135826,653737.3802083334,-6.129396875699361,425.2440923055013,3.8672136321104826,1000.0,175.0,2.237835232300475,0.13238264591310675,1000.0,1000.0,0.0,175000
176000,0,68.55992101632634,0.0007317066192626953,0.00014829635620117188,0.0167696475982666,175988.0,148781986.24,-684437.3925,9.003515625,-661621.0625,-36.39431508382162,663979.4114583334,-6.083812435468038,434.2303161621094,3.320654567870013,1000.0,176.0,2.1055656881025477,0.09496123346633695,1000.0,1000.0,0.0,176000
177000,0,62.701237848591525,0.0006926059722900391,0.00013780593872070312,0.016462326049804688,176988.0,140475871.52,-692248.645,9.013408050537109,-669217.2525,-37.544394175211586,672623.8229166666,-6.085230906804402,440.4722493489583,2.6754086288101497,1000.0,177.0,1.8315868471641452,0.07513075879009015,1000.0,1000.0,0.0,177000
178000,0,68.16827534736646,0.0007176399230957031,0.00014328956604003906,0.01664876937866211,177988.0,170481572.16,-703113.1625,9.005625,-678196.1025,-74.25001231829326,681483.6666666666,-6.1634440422058105,454.28563181559247,2.9969633777925027,1000.0,178.0,1.338851564449555,0.06693195291636027,1000.0,1000.0,0.0,178000
179000,0,68.43052569890662,0.0011935234069824219,0.0002067089080810547,0.017493486404418945,178988.0,147617680.96,-710662.3275,9.00703094482422,-682707.7275,-206.5921630859375,685143.140625,-6.421676158905029,489.99927520751953,2.309058645462959,1000.0,179.0,1.3499368618947565,0.06806046335974628,1000.0,1000.0,0.0,179000
180000,0,68.36610017434211,0.0007269382476806641,0.00014352798461914062,0.016163110733032227,179988.0,140954283.04,-718432.275,9.003515625,-689037.5075,-257.38715235392254,692081.453125,-6.487597942352295,527.9003346761068,2.7494045727353402,1000.0,180.0,1.5646463116081315,0.08858121022289399,1000.0,1000.0,0.0,180000
181000,0,67.10444047528387,0.0007119178771972656,0.00014257431030273438,0.01650261878967285,180988.0,191334314.88,-723377.9025,9.009140167236328,-693379.25,-313.35761642456055,697487.6979166666,-6.554555376370748,565.1583201090494,2.6250676241597555,1000.0,181.0,1.4957429610170947,0.05763641666344185,1000.0,1000.0,0.0,181000
182000,0,68.01184364571543,0.0007078647613525391,0.00013256072998046875,0.016141653060913086,181988.0,149200372.48,-735749.2575,9.010546417236329,-707700.8525,-35.396355390548706,710429.0677083334,-6.060378591219584,586.2816111246744,2.668945772251138,1000.0,182.0,1.3084724527284712,0.07884702257072197,1000.0,1000.0,0.0,182000
183000,0,66.8584603456367,0.0006887912750244141,0.00013875961303710938,0.016017913818359375,182988.0,142962844.48,-741099.1075,9.0028125,-714699.5575,17.072457631429035,718014.078125,-5.971295793851216,594.7534790039062,2.8683313676224893,1000.0,183.0,1.2173334082155953,0.039380561142493074,1000.0,1000.0,0.0,183000
184000,0,63.45245918702021,0.000698089599609375,0.00014495849609375,0.01642918586730957,183988.0,179455357.12,-755015.5675,9.00703094482422,-727513.0725,-17.2969806989034,731004.0208333334,-6.02918553352356,592.6449330647787,2.5111922715107857,1000.0,184.0,1.3393299913017576,0.06727469374378112,1000.0,1000.0,0.0,184000
185000,0,61.77935205020704,0.0007307529449462891,0.0001392364501953125,0.01591658592224121,184988.0,179471424.32,-766953.11,9.00562484741211,-735326.42,-236.4604574839274,738695.1302083334,-6.372196475664775,635.4095357259115,2.8719814520654565,1000.0,185.0,1.4070907636633792,0.05745233713823041,1000.0,1000.0,0.0,185000
186000,0,67.34220203636794,0.0006544589996337891,0.00014019012451171875,0.018149852752685547,185988.0,201350369.44,-776679.9025,9.017576599121094,-744986.265,-97.53298854827881,750778.5520833334,-6.147022724151611,663.3728535970052,3.0677168254380556,1000.0,186.0,1.5389999226526776,0.07839621357989746,1000.0,1000.0,0.0,186000
187000,0,67.67717905044537,0.0009520053863525391,0.0001575946807861328,0.016690731048583984,186988.0,194212216.96,-782612.8025,9.009843139648437,-750366.1025,-198.72456518809,753674.4322916666,-6.289089957873027,687.5202891031901,2.8685968236822625,1000.0,187.0,1.417889568654785,0.06626991411993939,1000.0,1000.0,0.0,187000
188000,0,68.04127992690879,0.0008580684661865234,0.0001442432403564453,0.016050338745117188,187988.0,195888138.56,-792806.05,9.002109375,-761508.7275,-63.31114800771078,764329.9427083334,-6.088785886764526,713.1093495686849,2.693121981945002,1000.0,188.0,1.3338007671497112,0.05293343559672232,1000.0,1000.0,0.0,188000
189000,0,67.76421442830471,0.0007300376892089844,0.0001704692840576172,0.017041683197021484,188988.0,241537482.24,-805537.155,9.004921875,-774563.675,143.52474896113077,778327.390625,-5.797464489936829,708.5498301188151,3.355628231310096,1000.0,189.0,1.4515375247807956,0.12368653555875693,1000.0,1000.0,0.0,189000
190000,0,67.91937579589779,0.0006508827209472656,0.00019502639770507812,0.01605081558227539,189988.0,171394942.08,-816251.2,9.005625,-788273.4675,226.52071475982666,792343.578125,-5.667006095250447,680.1777089436849,2.994234262077865,1000.0,190.0,1.4301795171381186,0.0666115233101917,1000.0,1000.0,0.0,190000
191000,0,67.5414317488066,0.000675201416015625,0.0001838207244873047,0.016066551208496094,190988.0,250032609.28,-829842.475,9.003278503417969,-805572.61,601.7091369628906,808173.0,-5.031994581222534,621.4959106445312,3.1332287480626952,1000.0,191.0,1.529353239668762,0.09113916220789295,1000.0,1000.0,0.0,191000
192000,0,63.61664602890419,0.0006959438323974609,0.0001380443572998047,0.01596975326538086,191988.0,205398396.96,-844641.26,9.00773422241211,-820943.03,408.611811319987,824383.5989583334,-5.299035827318828,582.8562723795573,3.862834621341171,1000.0,192.0,2.3904661057980015,0.11157611705410697,1000.0,1000.0,0.0,192000
193000,0,67.69120329903723,0.0008087158203125,0.00014781951904296875,0.016187667846679688,192988.0,162470365.28,-852564.4325,9.008436737060547,-830032.9725,378.0581792195638,834381.1197916666,-5.324860056241353,559.8795420328776,4.008888922712961,1000.0,193.0,2.5509957273799695,0.06151413577142341,1000.0,1000.0,0.0,193000
194000,0,67.88165043063043,0.0006442070007324219,0.00016546249389648438,0.016344308853149414,193988.0,226051095.36,-865040.8425,9.009843292236328,-839777.1125,143.73597526550293,843334.265625,-5.733449339866638,539.2257080078125,4.0570571698119435,1000.0,194.0,2.23277850076263,0.11305138789953564,1000.0,1000.0,0.0,194000
195000,0,68.25653483727676,0.0009520053863525391,0.00016307830810546875,0.017012357711791992,194988.0,199211277.12,-872230.805,9.008437042236329,-846081.305,83.64571889241536,849309.796875,-5.842242240905762,530.2167053222656,3.958188756427431,1000.0,195.0,2.0781278560393175,0.08509666661261742,1000.0,1000.0,0.0,195000
196000,0,68.03355429929869,0.0008983612060546875,0.00014328956604003906,0.016437053680419922,195988.0,200124900.8,-881492.24,9.006327819824218,-857908.4275,194.07159423828125,860378.7447916666,-5.624986847241719,517.4387156168619,3.4601155500889726,1000.0,196.0,2.105629466380549,0.03882354164232529,1000.0,1000.0,0.0,196000
197000,0,67.6739468702826,0.0006897449493408203,0.0001418590545654297,0.016683101654052734,196988.0,225207231.04,-890195.4675,9.003155517578126,-867005.13,-75.82893379529317,869648.609375,-6.147527654965718,514.0444386800131,3.409366523702303,1000.0,197.0,1.8679977075418113,0.11542800568393428,1000.0,1000.0,0.0,197000
198000,0,68.55566270574198,0.0006744861602783203,0.0001304149627685547,0.016305208206176758,197988.0,222094815.04,-899386.4075,9.020386047363282,-874760.7975,-94.24652036031087,879148.828125,-6.179938554763794,523.7803293863932,3.432302660544339,1000.0,198.0,2.0926643896041037,0.10261952685392775,1000.0,1000.0,0.0,198000
199000,0,67.53869103594332,0.0006895065307617188,0.00013828277587890625,0.016333341598510742,198988.0,193389285.92,-910125.195,9.00562484741211,-885838.82,81.68358596165974,889729.859375,-5.842255473136902,517.7933349609375,3.491392284100179,1000.0,199.0,1.7396513820784878,0.09950280142512923,1000.0,1000.0,0.0,199000
200000,0,63.458987344223566,0.000659942626953125,0.00018787384033203125,0.01618814468383789,199988.0,221690551.36,-921167.695,9.00281234741211,-896888.2875,150.69535954793295,899115.4010416666,-5.7003404299418134,502.8776092529297,3.4168215490058778,1000.0,200.0,1.6269696243641683,0.08134361723625042,1000.0,1000.0,0.0,200000
