niicovila/Q-Reps/lightning_research_framework/results/XSAC_TEST/sac_1_v1/log copy.csv
time/steps,time/epochs,time/steps_per_second,time/dataset,time/preprocess,time/train_step,train/env_steps,train/q_loss,train/target_q,train/value_loss,train/target_v,train/alpha_loss,train/actor_loss,train/entropy,train/alpha,train/reward,train/length,train/num_ep,eval/reward,eval/stddev,eval/length,eval/discount,eval/early_termination,step
1000,0,71.90996441451975,0.0006048679351806641,0.0001366138458251953,0.015679121017456055,988.0,35.992582626342774,69.83580535888672,-10.975229530334472,82.73454956054688,-1.3131526509920757,-80.38145128885905,-19.102973302205402,0.10023310718437035,7.514070075148682,1000.0,1.0,1.4155939308949226,2.5135869348267925,1000.0,1000.0,0.0,1000
2000,0,63.50660669154257,0.0004904270172119141,0.00014162063598632812,0.016035795211791992,1988.0,53147.73578125,2917.6212109375,-10.018404350280761,3177.455703125,-4.563957770665486,-3146.670125325521,-47.98490206400553,0.10872140775124232,0.02888581995743722,1000.0,2.0,0.6285499555870528,0.5466533174239414,1000.0,1000.0,0.0,2000
3000,0,60.268010839983795,0.0005755424499511719,0.00013709068298339844,0.016832351684570312,2988.0,490899.99625,8866.5337890625,10.866323890686035,9471.428984375,-7.751012563705444,-9456.019612630209,-71.92634582519531,0.11758916328350703,0.4642454969630715,1000.0,3.0,1.0059417019043542,0.6323250045955984,1000.0,1000.0,0.0,3000
4000,0,66.48608617138915,0.0005061626434326172,0.0001354217529296875,0.016124248504638672,3988.0,166389.2925,5456.00494140625,9.079732284545898,5763.80615234375,-7.125859260559082,-5743.7914632161455,-62.957976659139,0.12512191757559776,0.7234842852390316,1000.0,4.0,2.015674294246463,1.8212399138602688,1000.0,1000.0,0.0,4000
5000,0,67.36898373046135,0.0007853507995605469,0.00016927719116210938,0.017828702926635742,4988.0,41781.3228125,2714.02671875,9.012962837219238,2861.387685546875,-6.042926788330078,-2854.0992228190103,-51.84929943084717,0.1318127103149891,1.6361575675679072,1000.0,5.0,4.016968630197723,3.5482760479073048,1000.0,1000.0,0.0,5000
6000,0,66.08487619988769,0.0006051063537597656,0.00013589859008789062,0.016993999481201172,5988.0,11855.1052734375,1034.5239208984376,9.0,1113.39541015625,-4.679076313972473,-1107.6200052897136,-40.01872762044271,0.13755496591329575,3.3051283622642047,1000.0,6.0,14.890013804021146,27.817421177896453,1000.0,1000.0,0.0,6000
7000,0,66.1105419284469,0.0006208419799804688,0.00017499923706054688,0.016925811767578125,6988.0,7796.717578125,113.10135437011719,9.0,187.91063293457032,-4.075587073961894,-181.54779434204102,-34.504783630371094,0.1429901383817196,36.50436400420407,1000.0,7.0,37.01862285733795,14.138858397878712,1000.0,1000.0,0.0,7000
8000,0,66.00961901644298,0.0006361007690429688,0.0001380443572998047,0.016721248626708984,7988.0,13855.7949609375,-662.4269067382812,9.00123462677002,-455.372265625,-3.244091272354126,461.4054539998372,-27.85862382253011,0.14842263733347258,2.4151241916130797,1000.0,8.0,6.23767906277236,0.40055610925731744,1000.0,1000.0,0.0,8000
9000,0,66.22967303798156,0.0006322860717773438,0.0001475811004638672,0.017417192459106445,8988.0,23817.516953125,-1411.07486328125,9.000065078735352,-985.0217944335938,-2.99042675892512,992.0297342936198,-25.43813355763753,0.15385427077611288,1.8331806754227824,1000.0,9.0,0.577757839043577,0.1963451979445238,1000.0,1000.0,0.0,9000
10000,0,57.62296266621385,0.0006263256072998047,0.00017833709716796875,0.016251802444458008,9988.0,41597.83625,-2145.685771484375,9.000096244812012,-1507.1098828125,-3.165782352288564,1511.4656880696614,-25.789073785146076,0.15999053791165352,0.5151294370225046,1000.0,10.0,2.2150820585494877,0.36252021357899433,1000.0,1000.0,0.0,10000
11000,0,65.87943774388862,0.0006299018859863281,0.0001499652862548828,0.016493797302246094,10988.0,76897.12515625,-2953.471318359375,8.99999870300293,-2105.081025390625,-3.447726786136627,2121.7986450195312,-26.598443190256756,0.16739446793993315,2.8471123002570287,1000.0,11.0,1.8122055484692237,0.3174080915310448,1000.0,1000.0,0.0,11000
12000,0,65.52997943313959,0.0008683204650878906,0.0001513957977294922,0.017394065856933594,11988.0,106280.385,-3698.27572265625,8.999989318847657,-2653.58095703125,-3.574325760205587,2649.8303833007812,-26.325288613637287,0.1758739377061526,1.9484515696473776,1000.0,12.0,1.0244630454569967,0.038953419336971405,1000.0,1000.0,0.0,12000
13000,0,65.96568397398555,0.0006742477416992188,0.00014925003051757812,0.017315387725830078,12988.0,151750.3665625,-4439.36654296875,9.000006561279298,-3194.17515625,-3.848865330219269,3202.151082356771,-26.776017665863037,0.18527521441380182,0.9215874348554726,1000.0,13.0,1.0409323678312206,0.06822367926080504,1000.0,1000.0,0.0,13000
14000,0,66.18135089794357,0.0006494522094726562,0.00012803077697753906,0.017115116119384766,13988.0,223053.625,-5262.9496875,9.0,-3807.402919921875,-4.399811148643494,3790.4389851888022,-28.509218056996662,0.19549009328087172,1.5561352397904695,1000.0,14.0,1.660929345989135,0.2892022029852267,1000.0,1000.0,0.0,14000
15000,0,65.3338733293872,0.0006284713745117188,0.00013375282287597656,0.017284631729125977,14988.0,272281.5625,-6077.68455078125,9.000262985229492,-4424.39228515625,-4.420140027999878,4440.901285807292,-27.380422433217365,0.20675977692008018,1.5862470627859189,1000.0,15.0,1.5291101367209194,0.21986189711585424,1000.0,1000.0,0.0,15000
16000,0,60.287380641362944,0.0006611347198486328,0.00013375282287597656,0.016849279403686523,15988.0,349383.77,-6982.41703125,9.000671005249023,-5110.13513671875,-4.8135896523793535,5106.625813802083,-28.02569119135539,0.21856797114014626,1.7667563019772063,1000.0,16.0,1.418527381472098,0.23771729441331355,1000.0,1000.0,0.0,16000
17000,0,66.01198768872804,0.0007178783416748047,0.00015020370483398438,0.016782522201538086,16988.0,439762.69,-8119.84283203125,9.000354118347168,-5970.2359375,-5.419444640477498,5973.8292236328125,-29.44394016265869,0.23119376475612322,1.9419242675273516,1000.0,17.0,1.626014135717354,0.06776275547179511,1000.0,1000.0,0.0,17000
18000,0,66.24440106387684,0.0007617473602294922,0.00014090538024902344,0.01732945442199707,17988.0,532180.49125,-8849.5005859375,9.000775833129882,-6565.17962890625,-5.564476291338603,6589.7228597005205,-28.736089547475178,0.24476900200049082,1.7078558783761386,1000.0,18.0,1.7269910258931411,0.11631758387589397,1000.0,1000.0,0.0,18000
19000,0,65.18842347458644,0.0011203289031982422,0.00021791458129882812,0.019298076629638672,18988.0,587779.41,-9753.6462109375,9.0,-7237.97822265625,-6.21115227540334,7281.0600992838545,-29.989425977071125,0.25894201050202054,2.0569993770607216,1000.0,19.0,2.01336814733932,0.029705870691107857,1000.0,1000.0,0.0,19000
20000,0,66.09074922631841,0.0006289482116699219,0.00014638900756835938,0.017025232315063477,19988.0,691828.575,-10242.2736328125,9.002109375,-7630.4740625,-6.271389484405518,7599.2924397786455,-28.907984892527264,0.2737944150964419,2.1526253156356456,1000.0,20.0,2.0301891469149873,0.019228637837791548,1000.0,1000.0,0.0,20000
21000,0,66.43360099139498,0.0006418228149414062,0.00012874603271484375,0.017105817794799805,20988.0,745496.48875,-11007.8648828125,9.0,-8244.23837890625,-6.477256655693054,8217.338175455729,-28.386519114176433,0.28936882813771564,2.171649921093209,1000.0,21.0,2.104850086641662,0.028511826978523797,1000.0,1000.0,0.0,21000
22000,0,66.12897020974955,0.0006570816040039062,0.00013518333435058594,0.0168917179107666,21988.0,885419.8025,-11820.20921875,9.0,-8927.460703125,-6.7687080303827925,8967.089762369791,-28.17772897084554,0.30523478984832764,2.16861161901575,1000.0,22.0,1.993007303577059,0.05519976568118119,1000.0,1000.0,0.0,22000
23000,0,60.64940187886731,0.0006601810455322266,0.00012731552124023438,0.016737937927246094,22988.0,1005030.5275,-12424.4819921875,9.002109375,-9396.5142578125,-7.026589234670003,9373.472819010416,-27.807457129160564,0.32224571456511814,2.067769557592744,1000.0,23.0,1.9053969760397114,0.030637698862891746,1000.0,1000.0,0.0,23000
24000,0,65.8541579003561,0.0006916522979736328,0.00014734268188476562,0.017203092575073242,23988.0,1111214.07,-13289.7520703125,9.0,-10139.0358984375,-7.844072540601094,10152.369059244791,-29.051850001017254,0.34031957387924194,2.0700711408228814,1000.0,24.0,1.9118245653031565,0.05323199507660686,1000.0,1000.0,0.0,24000
25000,0,65.83340239532086,0.001260995864868164,0.00020241737365722656,0.017673969268798828,24988.0,1335865.89,-14125.6034375,9.00351547241211,-10843.49171875,-7.7947787046432495,10909.555094401041,-27.6939640045166,0.35934315125147503,1.9812949177800272,1000.0,25.0,1.8552499632158306,0.04301003805527513,1000.0,1000.0,0.0,25000
26000,0,65.87666470234198,0.0006551742553710938,0.0001404285430908203,0.01716923713684082,25988.0,1479686.8025,-14921.2750390625,9.0,-11517.821640625,-7.790480573972066,11418.790283203125,-26.544988473256428,0.3792312542597453,1.9713645846429584,1000.0,26.0,1.8244535064625267,0.20509657153880284,1000.0,1000.0,0.0,26000
27000,0,65.81860865089477,0.0007100105285644531,0.00013637542724609375,0.016971826553344727,26988.0,1681802.19,-16077.7638671875,9.0,-12501.7868359375,-8.476211468378702,12443.071451822916,-27.1851749420166,0.4001449669400851,1.7497407221416577,1000.0,27.0,1.7361476644246898,0.1235162340082682,1000.0,1000.0,0.0,27000
28000,0,66.26813867965011,0.0006170272827148438,0.0001590251922607422,0.017214536666870117,27988.0,1922355.095,-17097.2476953125,9.000703125,-13314.9162109375,-9.004072109858194,13298.156982421875,-27.300523440043133,0.4227623815337817,2.015630421776917,1000.0,28.0,1.9078905518763274,0.12134971574797808,1000.0,1000.0,0.0,28000
29000,0,65.28278440000847,0.0006778240203857422,0.0001518726348876953,0.016687393188476562,28988.0,2086652.715,-17949.708359375,9.00022045135498,-14024.6633984375,-9.707490841547648,14085.7880859375,-27.71491003036499,0.4470927144090335,2.1244266554191933,1000.0,29.0,1.8672777876422,0.20230916983577107,1000.0,1000.0,0.0,29000
30000,0,61.73643133357512,0.0006434917449951172,0.00014209747314453125,0.01678180694580078,29988.0,2256845.495,-18656.3821875,9.001605606079101,-14626.95671875,-10.804548263549805,14643.935302734375,-28.84283955891927,0.47305067380269367,2.2151589016412636,1000.0,30.0,1.870876945188332,0.19611125612597974,1000.0,1000.0,0.0,30000
31000,0,64.87885826435492,0.0006172657012939453,0.00012993812561035156,0.016802549362182617,30988.0,3025676.575,-19929.058359375,9.000181427001953,-15628.4423046875,-10.829876899719238,15707.315348307291,-27.66270176569621,0.49998562783002853,2.0591846866305312,1000.0,31.0,1.6516690077757619,0.1673367328303557,1000.0,1000.0,0.0,31000
32000,0,66.35607818122217,0.0009813308715820312,0.00018358230590820312,0.01808786392211914,31988.0,3006689.17,-20791.3646875,9.00140625,-16370.991328125,-11.451326290766398,16336.359049479166,-27.668365796407063,0.5285384853680929,1.6079648431226206,1000.0,32.0,1.665832340580253,0.16149009212700613,1000.0,1000.0,0.0,32000
33000,0,65.8561431760144,0.0006403923034667969,0.00013256072998046875,0.01687788963317871,32988.0,3240886.85,-21759.92890625,9.00115463256836,-17182.83828125,-11.894394318262735,17358.88720703125,-27.322606722513836,0.5578893025716146,1.5634774767812192,1000.0,33.0,1.604336473517368,0.20279491274105776,1000.0,1000.0,0.0,33000
34000,0,66.18481804439142,0.0006744861602783203,0.00012731552124023438,0.016734600067138672,33988.0,3337579.79,-23128.66921875,9.00351547241211,-18349.534140625,-12.30994693438212,18427.982259114582,-26.905762672424316,0.5888922611872355,1.8440151125510527,1000.0,34.0,1.878881597971945,0.20365513739649738,1000.0,1000.0,0.0,34000
35000,0,65.89479717059389,0.0007572174072265625,0.00013017654418945312,0.01679515838623047,34988.0,4275652.21,-24604.973515625,9.004921875,-19542.07390625,-13.283179918924967,19476.150065104168,-27.366218249003094,0.6217580884695053,1.5977510514012756,1000.0,35.0,1.8681188198974663,0.14798158534566697,1000.0,1000.0,0.0,35000
36000,0,66.10583227420364,0.0008771419525146484,0.0001595020294189453,0.01703190803527832,35988.0,3994856.79,-25930.68359375,9.002109375,-20910.53140625,-12.84107232093811,20698.852701822918,-25.57490126291911,0.6560646543900172,2.0516015975415858,1000.0,36.0,0.9812514244253657,0.40771087342292944,1000.0,1000.0,0.0,36000
37000,0,60.03867160682989,0.0006766319274902344,0.00013399124145507812,0.01665496826171875,36988.0,4614380.93,-27702.82296875,9.002109222412109,-22533.84640625,-13.876247008641561,22560.85986328125,-26.05715783437093,0.6919104854265848,1.214514550944192,1000.0,37.0,1.7262156999824025,0.26787518401263777,1000.0,1000.0,0.0,37000
38000,0,65.91331251834721,0.0007169246673583984,0.0001881122589111328,0.016863107681274414,37988.0,5824123.06,-30475.45171875,9.0028125,-25022.649375,-14.654950141906738,25215.565592447918,-26.072469234466553,0.7301853994528452,1.9657412826874565,1000.0,38.0,0.864967249150722,0.027428280123914236,1000.0,1000.0,0.0,38000
39000,0,65.35105651007649,0.0011718273162841797,0.00020241737365722656,0.017889976501464844,38988.0,6390157.92,-32298.500859375,9.00140625,-26724.696484375,-15.161193052927652,26958.993815104168,-25.68413766225179,0.7703099101781845,1.2107418864057713,1000.0,39.0,1.1954671539899488,0.062046410872889084,1000.0,1000.0,0.0,39000
40000,0,65.63206894091226,0.0007996559143066406,0.00030612945556640625,0.01697993278503418,39988.0,7116811.42,-33845.576640625,9.000703125,-28201.519609375,-15.709164698918661,28150.986653645832,-25.31873067220052,0.8132462501525879,1.3346370127505303,1000.0,40.0,1.2980800837881605,0.12344016139125578,1000.0,1000.0,0.0,40000
41000,0,60.902146027940354,0.0007181167602539062,0.00013780593872070312,0.01651477813720703,40988.0,7493152.86,-36171.66109375,9.0028125,-30276.549765625,-16.629953861236572,30354.7802734375,-25.379358450571697,0.8582230110963186,1.6734120111820423,1000.0,41.0,1.167612410693732,0.13946147951470111,1000.0,1000.0,0.0,41000
42000,0,65.58535297811603,0.0006835460662841797,0.00013828277587890625,0.016864538192749023,41988.0,7428893.62,-37510.871875,9.004218444824218,-31627.159609375,-16.622984250386555,31804.8271484375,-24.367590109507244,0.9051128923892975,1.4517166816133642,1000.0,42.0,1.150934275896229,0.07299146120328445,1000.0,1000.0,0.0,42000
43000,0,61.126523607351906,0.0010106563568115234,0.0001888275146484375,0.018915891647338867,42988.0,7325925.86,-38488.61609375,9.0028125,-32717.202421875,-16.66314236323039,32879.815266927086,-23.4638188680013,0.9542512943347295,1.3109078423277185,1000.0,43.0,1.08167238005577,0.03607356810474354,1000.0,1000.0,0.0,43000
44000,0,65.96319413602342,0.0006501674652099609,0.0001385211944580078,0.017558574676513672,43988.0,7642966.18,-40190.9915625,9.00421875,-34265.03515625,-17.39763371149699,34059.755208333336,-23.301982561747234,1.0056320329507191,1.516775397999306,1000.0,44.0,1.214342076142311,0.08115927290902318,1000.0,1000.0,0.0,44000
45000,0,66.30736182857201,0.0007293224334716797,0.0001666545867919922,0.017239809036254883,44988.0,7728647.03,-41838.51046875,9.00281234741211,-35726.9215625,-18.146559874216717,35727.555989583336,-23.108156204223633,1.0608072876930237,1.868275063317602,1000.0,45.0,1.6248969616714313,0.11771767673475768,1000.0,1000.0,0.0,45000
46000,0,65.63958747398237,0.0011632442474365234,0.0002186298370361328,0.018746137619018555,45988.0,8541944.6,-43160.2659375,9.003515625,-37025.68265625,-18.641417662302654,37235.621744791664,-22.663644949595135,1.1188023686408997,1.9482322697318315,1000.0,46.0,2.4276837068755532,0.7251225777122982,1000.0,1000.0,0.0,46000
47000,0,65.92400396584145,0.0006351470947265625,0.00018858909606933594,0.017192363739013672,46988.0,7729145.46,-44783.96953125,9.0028125,-38515.799375,-19.287353515625,38467.977864583336,-22.359505653381348,1.1790931622187297,2.475366756753809,1000.0,47.0,1.8235730442285303,0.32338997081747883,1000.0,1000.0,0.0,47000
48000,0,65.75401565816661,0.0006613731384277344,0.0001277923583984375,0.016710996627807617,47988.0,8991201.32,-46540.57015625,9.002109375,-40001.53609375,-20.5528982480367,40174.137369791664,-22.53361399968465,1.2432356476783752,1.8991122645137084,1000.0,48.0,1.679820223424241,0.16567841114938525,1000.0,1000.0,0.0,48000
49000,0,66.49278968558197,0.0006537437438964844,0.00013947486877441406,0.016735076904296875,48988.0,9132768.68,-47302.2378125,9.00421875,-40908.6525,-20.636473337809246,40801.386067708336,-21.745177745819092,1.3107914527257283,1.6308133949022816,1000.0,49.0,1.6977828678169977,0.5167648899746475,1000.0,1000.0,0.0,49000
50000,0,60.7128216648872,0.0006759166717529297,0.00014257431030273438,0.01685643196105957,49988.0,9720224.28,-48601.03328125,9.004281463623046,-42077.19140625,-21.740463574727375,42223.768880208336,-21.72151772181193,1.3829955259958904,1.7533207329825715,1000.0,50.0,1.6443952674057278,0.12735098702699718,1000.0,1000.0,0.0,50000
51000,0,66.23339626681691,0.0006299018859863281,0.0001342296600341797,0.01756119728088379,50988.0,10143737.48,-50242.05703125,9.00140625,-43540.1525,-23.669301509857178,43532.192708333336,-22.197117964426678,1.4614943464597066,3.184172068292983,1000.0,51.0,1.660110698167501,0.3359352470711483,1000.0,1000.0,0.0,51000
52000,0,64.00257822885932,0.0009324550628662109,0.00015282630920410156,0.017576932907104492,51988.0,12083449.42,-52904.96296875,9.006327819824218,-45818.5646875,-25.49008576075236,45844.2646484375,-22.49506409962972,1.5454903841018677,1.8411556805628322,1000.0,52.0,1.8039776414078403,0.09759733714522413,1000.0,1000.0,0.0,52000
53000,0,66.54148340264103,0.000667572021484375,0.00015211105346679688,0.01668858528137207,52988.0,11769153.96,-53907.948125,9.00492156982422,-47089.63125,-26.198447704315186,47212.632486979164,-22.039202372233074,1.6335741182168324,1.7113033918511433,1000.0,53.0,1.6621208418447069,0.11243763920558349,1000.0,1000.0,0.0,53000
54000,0,65.67728826638306,0.0006678104400634766,0.0001506805419921875,0.016945600509643555,53988.0,12437062.54,-55985.926875,9.004218597412109,-49018.93171875,-27.056142965952557,49229.627278645836,-21.69174289703369,1.724408209323883,1.8365580397948096,1000.0,54.0,1.580214970618258,0.11162155681102091,1000.0,1000.0,0.0,54000
55000,0,65.92694679449133,0.0006685256958007812,0.000141143798828125,0.01706671714782715,54988.0,11918397.78,-57615.28453125,9.007734069824219,-50563.5421875,-27.344897270202637,50283.228190104164,-21.04202683766683,1.8181009391943614,1.7128274965746897,1000.0,55.0,1.430279876086502,0.05669743055715996,1000.0,1000.0,0.0,55000
56000,0,66.82083945361912,0.0007121562957763672,0.00018835067749023438,0.016837358474731445,55988.0,13499607.38,-58426.3840625,9.003512649536132,-51480.2171875,-28.720216274261475,51476.4130859375,-20.985298951466877,1.916766454776128,1.5976862766567868,1000.0,56.0,1.1950359795329133,0.15908369512297113,1000.0,1000.0,0.0,56000
57000,0,60.838083214199514,0.00074005126953125,0.00013589859008789062,0.016890287399291992,56988.0,12633405.36,-60490.64875,9.007734069824219,-53193.10328125,-30.146801153818767,53436.74609375,-20.9011123975118,2.0233371257781982,1.4166643372491154,1000.0,57.0,1.9653576946199351,0.4353342621909401,1000.0,1000.0,0.0,57000
58000,0,66.27065159205517,0.0006706714630126953,0.0001456737518310547,0.017087221145629883,57988.0,14274846.94,-61772.8609375,9.00421875,-54480.23828125,-30.783426602681477,54652.149739583336,-20.420756022135418,2.1348862846692405,1.8905652111045752,1000.0,58.0,0.8293043099403048,0.04130874911386021,1000.0,1000.0,0.0,58000
59000,0,66.82782359753,0.0009663105010986328,0.00018215179443359375,0.017791748046875,58988.0,15438400.6,-64447.9971875,9.00140625,-56839.02890625,-33.81898339589437,56802.87890625,-20.995811621348064,2.2554786602656045,0.8501890215385884,1000.0,59.0,3.147467718801627,0.2593018537435207,1000.0,1000.0,0.0,59000
60000,0,66.60539118382582,0.0006611347198486328,0.0001361370086669922,0.01672816276550293,59988.0,13870848.24,-67559.836875,9.000703125,-59727.6828125,-35.80556869506836,59669.4375,-21.031006971995037,2.3823639949162803,1.6312280059311783,1000.0,60.0,1.0039527382317375,0.13550460633514652,1000.0,1000.0,0.0,60000
61000,0,66.24787481986117,0.0006597042083740234,0.00018310546875,0.01726055145263672,60988.0,16624476.84,-69934.985,9.002536926269531,-61794.1209375,-38.2416664759318,61888.088216145836,-21.192640622456867,2.517393489678701,1.0433763748562566,1000.0,61.0,0.896531727973253,0.029801845865560214,1000.0,1000.0,0.0,61000
62000,0,65.92872919874578,0.0007593631744384766,0.00014281272888183594,0.017224788665771484,61988.0,15090050.1,-71284.265,9.006327972412109,-63264.95734375,-42.07622718811035,63394.19140625,-21.798599084218342,2.6636047959327698,0.9450246603979797,1000.0,62.0,0.8627015603568164,0.019095314461892592,1000.0,1000.0,0.0,62000
63000,0,67.13503054950698,0.0007116794586181641,0.0001437664031982422,0.016817092895507812,62988.0,16706568.84,-73184.158125,9.00140625,-65100.49328125,-42.88835843404134,65181.9501953125,-21.223546028137207,2.8175528049468994,0.8839677474858996,1000.0,63.0,1.1610192481058483,0.045181063494301205,1000.0,1000.0,0.0,63000
64000,0,56.65467198322906,0.0006833076477050781,0.00014829635620117188,0.0172121524810791,63988.0,17443709.92,-74987.00625,9.002826919555664,-66951.0896875,-43.018436113993324,66909.44140625,-20.46372715632121,2.9745482802391052,1.3386251259516007,1000.0,64.0,1.360795980071928,0.10459779146355304,1000.0,1000.0,0.0,64000
65000,0,60.809610991678646,0.0006682872772216797,0.0001418590545654297,0.01709580421447754,64988.0,18210906.4,-77576.0315625,9.000703125,-69239.1846875,-45.41718133290609,69280.22135416667,-20.475996176401775,3.1377582947413125,1.7280713552331584,1000.0,65.0,1.1351472827008744,0.14315445527473075,1000.0,1000.0,0.0,65000
66000,0,66.21804587248661,0.001096963882446289,0.0002002716064453125,0.016907215118408203,65988.0,20204686.12,-78826.3096875,9.00562484741211,-70483.51,-47.72292900085449,70771.00651041667,-20.407670497894287,3.312689165274302,1.6546156116854007,1000.0,66.0,1.1187891653549176,0.10273109642215862,1000.0,1000.0,0.0,66000
67000,0,66.04604054813295,0.0006732940673828125,0.00013017654418945312,0.016715049743652344,66988.0,22740587.56,-80837.549375,9.006327819824218,-72370.14375,-49.9544423421224,72379.66145833333,-20.285204887390137,3.4973019560178122,1.458555905293992,1000.0,67.0,1.1674959453073206,0.04170046737896457,1000.0,1000.0,0.0,67000
68000,0,66.09678995225113,0.0009171962738037109,0.0001590251922607422,0.017206430435180664,67988.0,21349818.44,-83116.035,9.00421875,-74509.3675,-50.6818634668986,74523.45247395833,-19.740272045135498,3.6889474987983704,1.6412400790406407,1000.0,68.0,1.2589433845485256,0.18432092726271926,1000.0,1000.0,0.0,68000
69000,0,65.52481982761691,0.0007007122039794922,0.00013184547424316406,0.01682901382446289,68988.0,22536185.64,-85524.54625,9.004921875,-76945.1571875,-51.87434387207031,77010.23502604167,-19.340662956237793,3.888848145802816,2.011816519818647,1000.0,69.0,1.4018719525052368,0.18975860551407076,1000.0,1000.0,0.0,69000
70000,0,63.20720937942674,0.0007789134979248047,0.0001342296600341797,0.016805171966552734,69988.0,28414700.2,-88226.435,9.006642150878907,-79442.6478125,-55.79398282368978,79619.45833333333,-19.592050552368164,4.105339964230855,2.335940793867134,1000.0,70.0,1.7522742476330602,0.2492449793127255,1000.0,1000.0,0.0,70000
71000,0,66.3088294067355,0.0006418228149414062,0.00016188621520996094,0.01606273651123047,70988.0,24944422.92,-90004.9571875,9.003382415771485,-81219.218125,-57.142577171325684,80806.70768229167,-19.18914731343587,4.33303948243459,1.625573326233392,1000.0,71.0,1.4794627680579873,0.31530739060261903,1000.0,1000.0,0.0,71000
72000,0,66.58128455419806,0.0010666847229003906,0.00020122528076171875,0.02118372917175293,71988.0,24014257.48,-93040.10375,9.009842987060546,-83972.2828125,-61.55118211110433,83897.36458333333,-19.45830186208089,4.573942383130391,1.6350276357236733,1000.0,72.0,1.531112921933998,0.16266564870106834,1000.0,1000.0,0.0,72000
73000,0,65.34751326642217,0.0008003711700439453,0.00013518333435058594,0.016971588134765625,72988.0,26591334.44,-95633.4859375,9.002109375,-86483.6028125,-64.42981433868408,86880.74544270833,-19.34133179982503,4.829873243967692,2.0948161349848133,1000.0,73.0,2.1265332542941575,0.1555705102497058,1000.0,1000.0,0.0,73000
74000,0,65.2222808292115,0.0007281303405761719,0.00013685226440429688,0.016982316970825195,73988.0,27645915.56,-98354.149375,9.005624542236328,-89033.448125,-67.24627113342285,89527.55338541667,-19.17917267481486,5.1030033826828,1.5749175716622108,1000.0,74.0,1.8737210814961238,0.42055577134251715,1000.0,1000.0,0.0,74000
75000,0,66.29491099359923,0.0009295940399169922,0.00013566017150878906,0.01646280288696289,74988.0,25295094.48,-101132.26625,9.00421875,-92045.329375,-68.14480209350586,92010.015625,-18.666085879007976,5.380687435468038,1.5128803802104904,1000.0,75.0,1.185206671501956,0.1567056869062983,1000.0,1000.0,0.0,75000
76000,0,62.97231821026245,0.0008051395416259766,0.0001666545867919922,0.017176389694213867,75988.0,26273200.0,-104249.953125,9.008437042236329,-94948.279375,-72.18703778584798,95558.32747395833,-18.716710726420086,5.677180250485738,1.9292526436749204,1000.0,76.0,1.3195820680923562,0.1914684323369205,1000.0,1000.0,0.0,76000
77000,0,61.07749552072582,0.0006163120269775391,0.00013375282287597656,0.01730203628540039,76988.0,24886748.48,-106556.94625,9.00351547241211,-97308.4403125,-73.98397636413574,96909.330078125,-18.346739610036213,5.992823044459025,1.6058112972456569,1000.0,77.0,1.4744632461403886,0.14196650050402135,1000.0,1000.0,0.0,77000
78000,0,66.10179000885707,0.0012354850769042969,0.00020623207092285156,0.017763614654541016,77988.0,25680775.88,-108580.66375,9.002109375,-99185.7728125,-76.15699132283528,99482.51041666667,-18.047039826711018,6.322327097256978,1.5762868532295429,1000.0,78.0,1.2865287947146988,0.06281793158797899,1000.0,1000.0,0.0,78000
79000,0,65.86247204109873,0.0007348060607910156,0.0001461505889892578,0.01700425148010254,78988.0,32068107.76,-110678.065625,9.003515625,-101234.63375,-79.7443733215332,101795.712890625,-17.96004819869995,6.668287833531697,1.6897112296901007,1000.0,79.0,1.2840100713628215,0.02101717311162948,1000.0,1000.0,0.0,79000
80000,0,66.09641497849894,0.0007586479187011719,0.00014257431030273438,0.017334699630737305,79988.0,28928794.56,-112610.1634375,9.005603637695312,-103376.86875,-83.39616584777832,103477.53515625,-17.853946526845295,7.0360671281814575,1.5812676830866559,1000.0,80.0,1.6588469453822394,0.08620232479313504,1000.0,1000.0,0.0,80000
81000,0,66.27111231333568,0.0006945133209228516,0.00013637542724609375,0.017827272415161133,80988.0,31917293.2,-114675.876875,9.004921875,-105279.1503125,-86.08343187967937,105373.44075520833,-17.597705682118733,7.423245708147685,1.9376153230165112,1000.0,81.0,1.5827184673720815,0.07063780015479577,1000.0,1000.0,0.0,81000
82000,0,61.5627045703399,0.0010797977447509766,0.0001499652862548828,0.01630568504333496,81988.0,28670206.96,-117770.5478125,9.005625,-108343.3525,-85.72206942240398,108278.400390625,-16.956776301066082,7.824513037999471,1.724885161104573,1000.0,82.0,1.99940607630147,0.11609529201718867,1000.0,1000.0,0.0,82000
83000,0,65.98918069844659,0.0006268024444580078,0.00012826919555664062,0.01737809181213379,82988.0,34694081.84,-120892.0584375,9.007733764648437,-111136.439375,-89.51047197977702,111172.462890625,-16.854353268941242,8.247386455535889,1.9410259757825032,1000.0,83.0,1.5998736489643464,0.10991315778717996,1000.0,1000.0,0.0,83000
84000,0,66.1892047140215,0.0012216567993164062,0.00020623207092285156,0.018298625946044922,83988.0,28896956.16,-124062.575625,9.00562484741211,-114206.3809375,-94.55693054199219,113585.77994791667,-16.86505953470866,8.703753232955933,2.020662785508804,1000.0,84.0,1.5524333739738259,0.07689980878131991,1000.0,1000.0,0.0,84000
85000,0,66.30702639125582,0.0007562637329101562,0.0001556873321533203,0.016814470291137695,84988.0,29126968.0,-125320.7165625,9.000703125,-115729.291875,-103.12994639078777,116152.236328125,-17.213614145914715,9.197864850362143,2.0391417316663656,1000.0,85.0,1.9230434755663282,0.09994410109324078,1000.0,1000.0,0.0,85000
86000,0,65.78388188994656,0.0007047653198242188,0.00014781951904296875,0.01682424545288086,85988.0,33131844.48,-129121.2628125,9.0028125,-118976.025,-105.9341500600179,119269.79361979167,-16.9055601755778,9.714834531148275,2.0715584122818713,1000.0,86.0,1.8279741339059956,0.1236656546620147,1000.0,1000.0,0.0,86000
87000,0,66.7014833563713,0.0006597042083740234,0.0001494884490966797,0.016548871994018555,86988.0,30288213.52,-129578.9965625,9.003515625,-119825.2190625,-107.45067596435547,120037.12955729167,-16.48623291651408,10.247925837834677,1.807672733791541,1000.0,87.0,1.8704789553730978,0.14346856221927382,1000.0,1000.0,0.0,87000
88000,0,66.27257828730193,0.0007312297821044922,0.00014352798461914062,0.016861677169799805,87988.0,33081565.2,-132588.9721875,9.004218597412109,-122722.6840625,-109.56386184692383,123191.111328125,-16.148268699645996,10.797446727752686,1.8591461658819721,1000.0,88.0,1.805444533383449,0.08985854853760883,1000.0,1000.0,0.0,88000
89000,0,58.96259225416462,0.0007455348968505859,0.0001430511474609375,0.017365694046020508,88988.0,29309273.08,-134694.376875,9.000703125,-125005.504375,-113.890380859375,125452.23177083333,-16.012902577718098,11.375544230143229,1.9472760051967388,1000.0,89.0,1.8513296767804845,0.09276161517432549,1000.0,1000.0,0.0,89000
90000,0,65.28908484226217,0.0006449222564697266,0.0001266002655029297,0.0174863338470459,89988.0,35232251.56,-137704.69125,9.003515625,-127782.866875,-122.77954355875652,128451.78125,-16.219592173894245,12.015454689661661,1.955117619038976,1000.0,90.0,1.7933798427085867,0.04688966425465711,1000.0,1000.0,0.0,90000
91000,0,66.67175331776818,0.001085042953491211,0.00018358230590820312,0.01791548728942871,90988.0,30630233.96,-140545.049375,9.0028125,-130321.0490625,-122.41343053181966,130988.98307291667,-15.654807249704996,12.680316686630249,2.0581431630211053,1000.0,91.0,1.8660420997523304,0.06039624260166874,1000.0,1000.0,0.0,91000
92000,0,66.12984601723477,0.0006234645843505859,0.0001266002655029297,0.01660919189453125,91988.0,34376522.4,-141994.8725,9.0028125,-131724.6396875,-122.77093823750813,131949.36197916666,-15.191649278004965,13.358153899510702,2.0246802967893065,1000.0,92.0,1.8770255257601787,0.030646201633719894,1000.0,1000.0,0.0,92000
93000,0,67.15128212189076,0.0006778240203857422,0.00012826919555664062,0.01720404624938965,92988.0,34230458.24,-144148.748125,9.002109222412109,-133835.660625,-133.81047821044922,133970.02473958334,-15.500409205754599,14.086338917414347,2.1263074734486356,1000.0,93.0,2.000915930069373,0.08277418127054041,1000.0,1000.0,0.0,93000
94000,0,66.12004663695001,0.0006415843963623047,0.00013566017150878906,0.016120433807373047,93988.0,32190228.4,-147618.535625,9.002109375,-137322.104375,-143.68532180786133,136938.9765625,-15.654303073883057,14.88464363416036,2.2002056868339754,1000.0,94.0,2.1521636925980645,0.09582530197257136,1000.0,1000.0,0.0,94000
95000,0,65.49383834156761,0.000985860824584961,0.00019097328186035156,0.017497777938842773,94988.0,35400391.4,-150287.226875,9.004218597412109,-139723.54125,-146.2204360961914,139571.49609375,-15.300506035486857,15.72345765431722,2.28364738180567,1000.0,95.0,2.143574546731378,0.06531295869030793,1000.0,1000.0,0.0,95000
96000,0,59.501809892870455,0.0006387233734130859,0.00018167495727539062,0.016299962997436523,95988.0,35548916.08,-151762.046875,9.002109375,-141859.684375,-146.81973266601562,142108.296875,-14.857931534449259,16.576637268066406,2.191297875495782,1000.0,96.0,2.2547697641428166,0.040032309594575696,1000.0,1000.0,0.0,96000
97000,0,65.91782902462514,0.0007290840148925781,0.0001354217529296875,0.01697087287902832,96988.0,37861325.92,-154998.32625,9.003515625,-144437.5025,-154.6461270650228,144823.75651041666,-14.846013387044271,17.483897527058918,2.5104224490985363,1000.0,97.0,2.2387492278349375,0.05862141732775714,1000.0,1000.0,0.0,97000
98000,0,65.50660391149472,0.0011472702026367188,0.0002028942108154297,0.017753124237060547,97988.0,39630179.92,-156420.69125,9.006327972412109,-145937.9325,-154.09754180908203,146430.90364583334,-14.365257501602173,18.42312224706014,2.5642901934823095,1000.0,98.0,2.129033626146918,0.04484265894014073,1000.0,1000.0,0.0,98000
99000,0,66.4959521898,0.0006959438323974609,0.00014591217041015625,0.01690840721130371,98988.0,34590598.68,-157298.73875,9.00703109741211,-146885.276875,-145.67598978678384,146847.53255208334,-13.522206544876099,19.36812957127889,2.318589256009491,1000.0,99.0,2.026037181854954,0.035917552861211365,1000.0,1000.0,0.0,99000
100000,0,66.46362449918202,0.0007126331329345703,0.00013709068298339844,0.017212867736816406,99988.0,41388926.0,-159759.74125,9.00351547241211,-148614.098125,-150.39324951171875,148563.19921875,-13.391292413075766,20.34951051076253,2.2868841466550958,1000.0,100.0,2.047279891088388,0.0595369568194009,1000.0,1000.0,0.0,100000
101000,0,65.67905719645603,0.0007061958312988281,0.0001354217529296875,0.017173290252685547,100988.0,37955555.44,-162178.2675,9.00703094482422,-151045.425,-159.45070521036783,152077.37109375,-13.444271326065063,21.421646118164062,2.394240543542984,1000.0,101.0,1.9657336179058653,0.07613985269606834,1000.0,1000.0,0.0,101000
102000,0,63.52611318642306,0.0008609294891357422,0.0001442432403564453,0.0168607234954834,101988.0,42575180.24,-165497.803125,9.002109375,-154027.580625,-162.85544967651367,154567.50390625,-13.218987703323364,22.5617200533549,2.287309215272533,1000.0,102.0,1.8531516818046687,0.03863298923336918,1000.0,1000.0,0.0,102000
103000,0,62.91764296450526,0.0006909370422363281,0.000133514404296875,0.016664505004882812,102988.0,48907686.48,-168633.6425,9.005625,-156960.810625,-172.95369338989258,157821.05598958334,-13.267994244893393,23.79918972651164,2.174501152116932,1000.0,103.0,1.7571024278776186,0.04081583833038498,1000.0,1000.0,0.0,103000
104000,0,65.68930240949817,0.000713348388671875,0.0001480579376220703,0.01603078842163086,103988.0,41011133.68,-171041.65,9.008437194824218,-158631.8225,-184.69754918416342,158739.30859375,-13.351731697718302,25.12592061360677,2.013671164863441,1000.0,104.0,1.7206680128001541,0.04058655145345024,1000.0,1000.0,0.0,104000
105000,0,65.95448118310681,0.0011637210845947266,0.0002014636993408203,0.018001079559326172,104988.0,42864679.68,-171957.6825,9.00703109741211,-159613.245,-199.25101216634116,160566.07291666666,-13.502061605453491,26.562613169352215,1.9125663315077785,1000.0,105.0,1.7821773934022687,0.05184392206319738,1000.0,1000.0,0.0,105000
106000,0,64.70163201662561,0.0007507801055908203,0.00013065338134765625,0.01664280891418457,105988.0,44838578.24,-174475.40875,9.003515625,-161750.416875,-207.79867553710938,162172.6484375,-13.401385148366293,28.078719774882,1.9595876210378536,1000.0,106.0,1.7632550849485313,0.10260895782919092,1000.0,1000.0,0.0,106000
107000,0,65.25052893590541,0.000911712646484375,0.00014543533325195312,0.016753673553466797,106988.0,44309091.84,-177541.479375,9.003515625,-165097.925625,-218.54415003458658,165473.62890625,-13.370194594065348,29.65574375788371,2.1146188401576276,1000.0,107.0,1.9968987248276142,0.036402834892446924,1000.0,1000.0,0.0,107000
108000,0,65.14771959123624,0.0007390975952148438,0.000141143798828125,0.016416072845458984,107988.0,42892710.32,-180981.305625,9.00492172241211,-168507.316875,-233.23895645141602,168805.97265625,-13.438969135284424,31.357349554697674,2.190486041646986,1000.0,108.0,2.073994953486392,0.030869297341034968,1000.0,1000.0,0.0,108000
109000,0,58.95168617150465,0.0007424354553222656,0.00014925003051757812,0.016943931579589844,108988.0,37504969.76,-180736.719375,9.003515625,-169101.57125,-249.68551127115884,169958.94010416666,-13.533534526824951,33.14724922180176,2.373738852824796,1000.0,109.0,2.194211870882974,0.02401574724478415,1000.0,1000.0,0.0,109000
110000,0,66.26127102465928,0.0006909370422363281,0.00015163421630859375,0.01739954948425293,109988.0,40748803.96,-183661.679375,9.004610748291016,-172059.738125,-248.82810974121094,172948.66015625,-13.109925905863443,35.00127410888672,2.328932617117681,1000.0,110.0,2.237242646302343,0.04766316603573162,1000.0,1000.0,0.0,110000
111000,0,64.10199823571809,0.0011682510375976562,0.00019621849060058594,0.01811671257019043,110988.0,46052399.92,-187226.9375,9.002109222412109,-175906.778125,-257.7792485555013,176294.01953125,-12.981906096140543,36.92500019073486,2.416250109273715,1000.0,111.0,2.209519692749235,0.034014672366693456,1000.0,1000.0,0.0,111000
112000,0,65.56812838290763,0.0007851123809814453,0.0001418590545654297,0.016638994216918945,111988.0,44555756.96,-191001.758125,9.000703125,-179737.03125,-264.3355776468913,179514.21744791666,-12.784913698832193,38.963320096333824,2.3574892173689217,1000.0,112.0,2.3179716482011234,0.05914771719426443,1000.0,1000.0,0.0,112000
113000,0,66.791002945343,0.0009357929229736328,0.00014400482177734375,0.016991138458251953,112988.0,50090538.64,-197335.546875,9.003515625,-185239.475625,-278.98718516031903,185270.20182291666,-12.78798508644104,41.10488351186117,2.256504194626058,1000.0,113.0,2.325432618956831,0.06004122540128206,1000.0,1000.0,0.0,113000
114000,0,66.1340168473421,0.0007369518280029297,0.00017547607421875,0.01665639877319336,113988.0,44405993.76,-200623.89625,9.003515319824219,-189049.258125,-289.0793711344401,189111.29557291666,-12.664317528406778,43.38179397583008,2.644181097238106,1000.0,114.0,2.3218067357162253,0.10533158647564472,1000.0,1000.0,0.0,114000
115000,0,60.114292004146066,0.0007338523864746094,0.00013113021850585938,0.01680755615234375,114988.0,57040311.28,-204167.61625,9.00562484741211,-192223.1975,-283.05255635579425,193140.80078125,-12.189557631810507,45.73570251464844,2.68381258694638,1000.0,115.0,2.237143676766405,0.12201986288313656,1000.0,1000.0,0.0,115000
116000,0,65.44225397118628,0.0006890296936035156,0.00013947486877441406,0.01707911491394043,115988.0,49807044.4,-206591.674375,9.00333740234375,-194718.706875,-277.44504801432294,195077.31380208334,-11.770220756530762,48.08697700500488,2.333267339328904,1000.0,116.0,2.1237279776070443,0.1149328009220351,1000.0,1000.0,0.0,116000
117000,0,63.515839041873804,0.0012149810791015625,0.00020551681518554688,0.0174407958984375,116988.0,51073042.08,-209761.924375,9.004218597412109,-198336.20125,-276.08113352457684,199365.50911458334,-11.465670903523764,50.51680405934652,2.375488493925168,1000.0,117.0,2.0136862051446984,0.1149594816490522,1000.0,1000.0,0.0,117000
118000,0,65.8250129474725,0.0007545948028564453,0.00014591217041015625,0.016897916793823242,117988.0,48036413.92,-214760.915625,9.00421875,-202829.436875,-278.2327524820964,203519.046875,-11.24019161860148,53.10086472829183,2.3674091439602885,1000.0,118.0,2.043843398247937,0.15412652600961574,1000.0,1000.0,0.0,118000
119000,0,65.24646879472341,0.0008966922760009766,0.0001857280731201172,0.0171511173248291,118988.0,45210467.84,-217660.12125,9.002109222412109,-205761.773125,-289.6765314737956,207028.97786458334,-11.187962452570597,55.84174187978109,2.450052280214611,1000.0,119.0,2.0598135965042816,0.10880016787249566,1000.0,1000.0,0.0,119000
120000,0,59.489623401527275,0.0007190704345703125,0.0001850128173828125,0.016888141632080078,119988.0,46295755.36,-221427.81625,9.00421875,-209180.675625,-314.5995839436849,209607.43489583334,-11.342593431472778,58.89169565836588,2.4674226742054586,1000.0,120.0,2.1194748719295915,0.11978497389952424,1000.0,1000.0,0.0,120000
121000,0,65.742431234075,0.0007245540618896484,0.00014472007751464844,0.01674795150756836,120988.0,55515851.28,-223909.45,9.003515319824219,-210914.050625,-344.8232243855794,211255.79817708334,-11.542644739151001,62.22023010253906,2.408583896404287,1000.0,121.0,2.045511655969306,0.10102219344746531,1000.0,1000.0,0.0,121000
122000,0,63.93144070963938,0.0011475086212158203,0.00020456314086914062,0.018003463745117188,121988.0,51079416.72,-223899.129375,9.003515625,-211018.37875,-355.82636006673175,211558.74348958334,-11.41032894452413,65.77516428629558,2.3033054402192485,1000.0,122.0,1.9047951391139193,0.05229930419056344,1000.0,1000.0,0.0,122000
123000,0,65.87111931953815,0.000743865966796875,0.00014328956604003906,0.0169222354888916,122988.0,58529729.28,-225658.59625,9.0028125,-212562.014375,-349.72534942626953,212783.43619791666,-11.040879170099894,69.38553619384766,2.263367332372776,1000.0,123.0,1.839024275805036,0.20663599700732574,1000.0,1000.0,0.0,123000
124000,0,64.33099995705443,0.0007894039154052734,0.00014066696166992188,0.016396284103393555,123988.0,48198170.48,-230819.53125,9.004218597412109,-217380.741875,-344.2089564005534,218309.01041666666,-10.719962199529013,72.93359502156575,2.2513778146497576,1000.0,124.0,1.6199088841020313,0.07527024506967503,1000.0,1000.0,0.0,124000
125000,0,64.73502543837283,0.0007622241973876953,0.00014925003051757812,0.01712322235107422,124988.0,50472140.32,-231604.846875,9.0028125,-219332.82375,-341.1969248453776,220137.2265625,-10.451439142227173,76.65575218200684,1.8947763496346832,1000.0,125.0,1.6361598874314573,0.13204226751880113,1000.0,1000.0,0.0,125000
126000,0,65.3481648686058,0.0007650852203369141,0.0001442432403564453,0.016623497009277344,125988.0,60502132.64,-236777.47125,9.00421875,-223717.986875,-340.362065633138,224543.35286458334,-10.221954743067423,80.62563514709473,1.752555445437913,1000.0,126.0,1.3453012479500446,0.040570735268199834,1000.0,1000.0,0.0,126000
127000,0,64.82402958011787,0.0010631084442138672,0.0002117156982421875,0.017937183380126953,126988.0,61191348.96,-240679.678125,9.00140625,-228512.263125,-322.94250742594403,229981.82942708334,-9.814415693283081,84.67101923624675,1.6393374193146217,1000.0,127.0,1.8346663847649811,0.14118370449463158,1000.0,1000.0,0.0,127000
128000,0,64.18058624425416,0.0007154941558837891,0.0001494884490966797,0.01649928092956543,127988.0,61416225.52,-244578.505,9.0028125,-232183.819375,-341.13585408528644,233023.05859375,-9.833746830622355,88.99122937520345,2.4221219594807777,1000.0,128.0,2.110343733466707,0.23274545672574948,1000.0,1000.0,0.0,128000
129000,0,65.76931665081878,0.0007693767547607422,0.00016498565673828125,0.016970396041870117,128988.0,58432961.28,-246867.998125,9.007734375,-234755.420625,-334.8091812133789,235425.19791666666,-9.577541907628378,93.59644190470378,2.6187948743463716,1000.0,129.0,2.301414846383701,0.12329718238060247,1000.0,1000.0,0.0,129000
130000,0,65.19543534461855,0.0007603168487548828,0.0001506805419921875,0.016994953155517578,129988.0,63998126.72,-251734.555625,9.003515625,-239776.016875,-303.2974548339844,240552.79427083334,-9.088160594304403,98.22192573547363,2.792711551466674,1000.0,130.0,2.2235087513860656,0.1276728777875695,1000.0,1000.0,0.0,130000
131000,0,58.887359482255604,0.0007576942443847656,0.00019073486328125,0.017058610916137695,130988.0,57002945.12,-257667.0825,9.000703125,-245344.930625,-288.3893292744954,246558.75260416666,-8.805788516998291,102.7939281463623,2.6693386904413816,1000.0,131.0,2.3687665634089106,0.07564162154506325,1000.0,1000.0,0.0,131000
132000,0,64.7775360250665,0.0007355213165283203,0.00018596649169921875,0.016894817352294922,131988.0,73080494.56,-262592.195,9.0028125,-250389.62625,-267.68960825602215,251101.47135416666,-8.488490025202433,107.58120155334473,2.677131163924244,1000.0,132.0,1.825592463257483,0.04177027205472354,1000.0,1000.0,0.0,132000
133000,0,66.06618110335442,0.0012378692626953125,0.000213623046875,0.018128633499145508,132988.0,63488344.08,-267319.335625,9.006327819824218,-255107.86125,-273.8377634684245,256047.0546875,-8.433423042297363,112.54080009460449,2.831131554294552,1000.0,133.0,2.343873935937269,0.09434878584505121,1000.0,1000.0,0.0,133000
134000,0,65.78582165774529,0.0008025169372558594,0.00014853477478027344,0.01753091812133789,133988.0,61374000.64,-272420.75,9.004218597412109,-259736.71,-276.98370361328125,261064.97916666666,-8.344733079274496,118.1420046488444,2.6195636426515194,1000.0,134.0,1.6165869168612748,0.060237139539805695,1000.0,1000.0,0.0,134000
135000,0,66.14694976476481,0.0007824897766113281,0.00015163421630859375,0.016774415969848633,134988.0,63620299.36,-275464.2675,9.000703125,-262960.660625,-285.968017578125,264292.4231770833,-8.303839008013407,124.14194043477376,2.6118229889940445,1000.0,135.0,1.7389838457861118,0.03821832380157744,1000.0,1000.0,0.0,135000
136000,0,64.76061308446309,0.0008053779602050781,0.00013399124145507812,0.017127037048339844,135988.0,70248808.48,-283622.745,9.00351547241211,-269958.25125,-254.7972297668457,270633.9713541667,-7.959155797958374,130.068483988444,2.3302578930745397,1000.0,136.0,1.0528827836245802,0.07389029795490383,1000.0,1000.0,0.0,136000
137000,0,60.84757988095977,0.0007965564727783203,0.00016188621520996094,0.016955137252807617,136988.0,69976445.04,-287933.695,9.005625,-274703.02125,-217.61335372924805,275207.6223958333,-7.598181843757629,136.1737937927246,1.9675393845555935,1000.0,137.0,1.1170770654778672,0.11618586244017766,1000.0,1000.0,0.0,137000
138000,0,64.4310873901187,0.0007777214050292969,0.00013208389282226562,0.016895532608032227,137988.0,65506745.52,-294630.7925,9.00351547241211,-281260.625,-195.35445022583008,282038.1354166667,-7.375953753789266,141.98724873860678,2.0690107070782755,1000.0,138.0,1.356904801260134,0.08759658066037022,1000.0,1000.0,0.0,138000
139000,0,66.61969423871948,0.0012285709381103516,0.00022101402282714844,0.018728971481323242,138988.0,65395814.16,-300626.21875,9.004921875,-287320.17,-195.6108881632487,289637.2473958333,-7.320089221000671,148.19105911254883,2.037570131498899,1000.0,139.0,1.276563316075317,0.08766404253202671,1000.0,1000.0,0.0,139000
140000,0,65.84311698880465,0.0008976459503173828,0.00016689300537109375,0.017450571060180664,139988.0,71679496.32,-307061.19,9.00421875,-293796.2025,-195.63465372721353,295115.3229166667,-7.265400131543477,154.61675771077475,1.8817031154624324,1000.0,140.0,1.365903068059196,0.1162803762335589,1000.0,1000.0,0.0,140000
141000,0,66.46181305586825,0.0009038448333740234,0.0001475811004638672,0.01749444007873535,140988.0,82003891.04,-313361.52,9.004218597412109,-300217.3975,-158.99826939900717,301067.7135416667,-6.984062035878499,161.58807118733725,2.3422467050326707,1000.0,141.0,1.7332613679995117,0.11078716894966081,1000.0,1000.0,0.0,141000
142000,0,66.16260118484624,0.0008337497711181641,0.00014710426330566406,0.017220020294189453,141988.0,90559039.04,-319383.04125,9.004921875,-305897.3575,-150.31759452819824,306644.109375,-6.893723011016846,168.20879491170248,2.8321017803712563,1000.0,142.0,1.797237440793665,0.11966117629137656,1000.0,1000.0,0.0,142000
143000,0,59.31896468330721,0.0007395744323730469,0.00017881393432617188,0.016425132751464844,142988.0,88309891.04,-325994.52625,9.00703125,-312159.00125,-108.1476395924886,313136.8932291667,-6.618652860323588,174.8191375732422,2.8032366287184587,1000.0,143.0,1.9748365371726333,0.036669669538588856,1000.0,1000.0,0.0,143000
144000,0,65.84191801156122,0.0007352828979492188,0.0001480579376220703,0.01593756675720215,143988.0,84115503.44,-330122.95875,9.00492172241211,-316966.045,-56.06398026148478,318008.34375,-6.311735351880391,179.85283406575522,2.8135536730879425,1000.0,144.0,1.7585536297673268,0.15497573168370007,1000.0,1000.0,0.0,144000
145000,0,64.98605550528652,0.0011415481567382812,0.00021958351135253906,0.018033504486083984,144988.0,77648644.96,-338356.11625,9.0028125,-324350.93875,-24.79621136188507,325560.9609375,-6.135968287785848,182.36879221598306,2.4823909796636645,1000.0,145.0,1.1724751384521728,0.07997512502724613,1000.0,1000.0,0.0,145000
146000,0,65.34853140054469,0.0007464885711669922,0.00013113021850585938,0.01704716682434082,145988.0,76154996.24,-342956.49125,9.00492172241211,-329009.06875,-76.23541720708211,330624.2526041667,-6.406299710273743,187.6591033935547,2.160066431060738,1000.0,146.0,1.0287781225114552,0.1064690854490316,1000.0,1000.0,0.0,146000
147000,0,65.28010200015937,0.0009016990661621094,0.0001811981201171875,0.016939640045166016,146988.0,89796280.0,-351995.54875,9.00492156982422,-337662.745,-4.38106902440389,338758.8359375,-6.0229014952977495,191.3051986694336,2.2081700943324107,1000.0,147.0,1.1617634733913795,0.13571950542575195,1000.0,1000.0,0.0,147000
148000,0,66.1526668916809,0.000989675521850586,0.00016498565673828125,0.017116546630859375,147988.0,85171975.68,-356787.72625,9.00703094482422,-342588.15625,-34.49602850278219,343322.7473958333,-6.178760210673015,192.97509002685547,2.017924046125942,1000.0,148.0,1.003918016398546,0.13771706333403264,1000.0,1000.0,0.0,148000
149000,0,58.45227802426109,0.0007421970367431641,0.0001728534698486328,0.017229318618774414,148988.0,89042828.0,-361344.6475,9.003515625,-347577.2375,-9.615289608637491,349147.640625,-6.048938115437825,196.4748166402181,2.2617663209509593,1000.0,149.0,1.1754471631830836,0.1487380150845915,1000.0,1000.0,0.0,149000
150000,0,65.94133313209636,0.0007908344268798828,0.0001327991485595703,0.01665496826171875,149988.0,96180480.48,-370145.9925,9.006327972412109,-355168.0025,-25.93561339378357,356325.7135416667,-6.1324795087178545,195.75486755371094,2.3853799294914353,1000.0,150.0,1.1199490791718296,0.10855562485186855,1000.0,1000.0,0.0,150000
151000,0,66.43587391213994,0.001153707504272461,0.00021123886108398438,0.017846107482910156,150988.0,81309975.36,-375380.585,9.002109375,-359350.51,-40.11571868260702,360495.5755208333,-6.196406165758769,204.2765769958496,1.9534050250056425,1000.0,151.0,0.8182417477161856,0.05783127025357702,1000.0,1000.0,0.0,151000
152000,0,66.1909177619307,0.0007870197296142578,0.0001354217529296875,0.01688694953918457,151988.0,88903025.12,-384014.04,9.0028125,-367579.99,-54.76011919975281,368955.3359375,-6.259061535199483,211.4171282450358,2.2908554095670786,1000.0,152.0,0.9041304536707837,0.11786648639548301,1000.0,1000.0,0.0,152000
153000,0,65.25999102545671,0.0007572174072265625,0.0001380443572998047,0.016973257064819336,152988.0,86141563.28,-389097.30625,9.00140625,-374068.78375,18.245914856592815,374637.5703125,-5.915549039840698,216.05376434326172,2.5122659900589377,1000.0,153.0,1.1224025984939487,0.12327464172872722,1000.0,1000.0,0.0,153000
154000,0,65.43253480434063,0.0009319782257080078,0.00018262863159179688,0.01686835289001465,153988.0,82944709.12,-397937.1825,9.0028125,-383443.0025,41.819541136423744,384155.2916666667,-5.801310420036316,210.44158426920572,3.1942128125057128,1000.0,154.0,1.619390470465597,0.09002661855137181,1000.0,1000.0,0.0,154000
155000,0,60.88899031479388,0.0008499622344970703,0.0001621246337890625,0.01647186279296875,154988.0,94967293.92,-402434.12125,9.004218444824218,-388654.87875,9.216242154439291,390386.1822916667,-5.954755942026774,203.6611582438151,2.5732645065498527,1000.0,155.0,1.7162065353181304,0.11622493627885072,1000.0,1000.0,0.0,155000
156000,0,66.03950998897217,0.0007598400115966797,0.00013113021850585938,0.01721787452697754,155988.0,82315579.2,-410699.4225,9.00140625,-397055.19,-27.027390480041504,397864.9609375,-6.132198810577393,204.45107777913412,2.6015037215186947,1000.0,156.0,1.8591383283753617,0.06312706592683752,1000.0,1000.0,0.0,156000
157000,0,65.99075881669555,0.0010638236999511719,0.00018596649169921875,0.0180509090423584,156988.0,118896772.96,-419240.69,9.003515625,-405157.20875,-55.71732529004415,406609.2473958333,-6.2593332926432295,214.87789154052734,2.860739145272269,1000.0,157.0,2.039724672681512,0.12238054937689534,1000.0,1000.0,0.0,157000
158000,0,66.49375948822858,0.0007925033569335938,0.00013947486877441406,0.016980648040771484,157988.0,86727107.12,-425436.8325,9.00140625,-412016.59375,-14.995004852612814,413486.1067708333,-6.066834449768066,224.35386912027994,2.8368454149453233,1000.0,158.0,1.8179848507014644,0.03233397743092697,1000.0,1000.0,0.0,158000
159000,0,65.88622647259338,0.0009846687316894531,0.00013947486877441406,0.017059803009033203,158988.0,104232255.2,-432594.5825,9.004218597412109,-418343.61125,-29.82864546775818,419832.0104166667,-6.127018094062805,234.87873458862305,2.1527022589684357,1000.0,159.0,1.5588425276936058,0.013716151295823322,1000.0,1000.0,0.0,159000
160000,0,64.35622964271839,0.0007658004760742188,0.00014519691467285156,0.01680922508239746,159988.0,90805072.96,-441596.60625,9.002109222412109,-426363.27375,-58.409603913625084,427943.9088541667,-6.240093946456909,243.31868489583334,1.9936207089946993,1000.0,160.0,1.8390762276925483,0.10267661471288876,1000.0,1000.0,0.0,160000
161000,0,58.99543430376649,0.0007562637329101562,0.0001404285430908203,0.016476154327392578,160988.0,111029459.2,-449049.8425,9.000703125,-434427.32875,-28.345708052317303,435868.4739583333,-6.111593206723531,254.00265248616537,2.796065651781298,1000.0,161.0,2.219997151340933,0.09246837946211635,1000.0,1000.0,0.0,161000
162000,0,64.11281570292452,0.0009455680847167969,0.00015473365783691406,0.017016887664794922,161988.0,106637396.32,-455312.11125,9.00281234741211,-440866.68,-70.909428358078,442446.0338541667,-6.262640873591105,270.02454884847003,3.4659190685862074,1000.0,162.0,2.2884615290342327,0.16076043202500984,1000.0,1000.0,0.0,162000
163000,0,64.76873339205437,0.0012664794921875,0.00023698806762695312,0.016887426376342773,162988.0,112743411.04,-466870.08625,9.001468200683593,-451632.30875,33.09309569994608,452836.0572916667,-5.87882383664449,273.0408350626628,3.2873446711203376,1000.0,163.0,2.0334648494106453,0.0615535259268318,1000.0,1000.0,0.0,163000
164000,0,65.86218245862635,0.0008299350738525391,0.00014162063598632812,0.01694774627685547,163988.0,96845497.6,-475337.15,9.005625,-460210.4,-29.507707913716633,461112.2760416667,-6.111613949139913,264.4224141438802,3.6396255397917567,1000.0,164.0,2.0184675419478992,0.08112266369935298,1000.0,1000.0,0.0,164000
165000,0,66.35788386534978,0.0007860660552978516,0.00015544891357421875,0.01650261878967285,164988.0,73421921.76,-479699.53625,9.004921875,-464374.1725,-140.87837092081705,466661.78125,-6.493600209554036,285.4574661254883,3.674978675845275,1000.0,165.0,2.1275740087653814,0.11215074639305739,1000.0,1000.0,0.0,165000
166000,0,65.37122365936362,0.000759124755859375,0.00014138221740722656,0.01689624786376953,165988.0,112143741.76,-486694.31125,9.006372375488281,-471711.6525,-5.700382391611735,473465.4192708333,-6.019152243932088,297.70029703776044,3.9168760795408977,1000.0,166.0,2.1091722324309172,0.056689717797055894,1000.0,1000.0,0.0,166000
167000,0,59.67444075983931,0.0007569789886474609,0.000148773193359375,0.016082763671875,166988.0,118055017.6,-500106.58,9.007734375,-484621.965,29.438629388809204,485967.6380208333,-5.901031692822774,297.4555180867513,3.4786196769247866,1000.0,167.0,1.820182400913922,0.10185735614011283,1000.0,1000.0,0.0,167000
168000,0,65.30323478252205,0.0007622241973876953,0.00013899803161621094,0.01672673225402832,167988.0,120575794.08,-507020.25,9.006328125,-490997.53125,-130.61138598124185,492164.2942708333,-6.425650477409363,306.86693572998047,3.255503576354943,1000.0,168.0,1.686241810936758,0.02360993388947145,1000.0,1000.0,0.0,168000
169000,0,65.38785563956661,0.001058816909790039,0.0002086162567138672,0.01773357391357422,168988.0,107648873.6,-514724.1675,9.009843139648437,-498461.425,-194.42735862731934,501178.8333333333,-6.584126432736714,332.89481862386066,3.7164066007783116,1000.0,169.0,1.8195446901057406,0.04748092546670711,1000.0,1000.0,0.0,169000
170000,0,65.6492449475345,0.0007636547088623047,0.0001347064971923828,0.016679763793945312,169988.0,126388194.16,-522005.2875,9.004218597412109,-504558.16375,-238.03529485066733,506355.5338541667,-6.667931834856669,356.4243570963542,3.8207251709766044,1000.0,170.0,1.9430702157705269,0.1457089967793038,1000.0,1000.0,0.0,170000
171000,0,64.87958084084278,0.0007448196411132812,0.0001380443572998047,0.016811370849609375,170988.0,119728843.04,-529809.83875,9.008626937866211,-512469.77375,-285.27251561482746,515667.7994791667,-6.745996435483296,382.47215525309247,4.00594185440629,1000.0,171.0,2.239968654988483,0.07258556313092217,1000.0,1000.0,0.0,171000
172000,0,64.9443971323723,0.0008385181427001953,0.00014638900756835938,0.016943931579589844,171988.0,123150900.8,-537976.0,9.007734069824219,-520639.56125,-163.5849291483561,522275.4453125,-6.409095565478007,399.90027618408203,3.4957034694193427,1000.0,172.0,1.6001982525264373,0.023130574749020173,1000.0,1000.0,0.0,172000
173000,0,59.80663637291769,0.0007677078247070312,0.0001423358917236328,0.016559600830078125,172988.0,121006405.12,-547891.84,9.005624542236328,-530207.0725,-178.62183888753256,532629.4479166666,-6.429316918055217,416.1082763671875,3.319154821098156,1000.0,173.0,1.9072507191880912,0.06700222692636942,1000.0,1000.0,0.0,173000
174000,0,64.76485299104229,0.0007734298706054688,0.00014066696166992188,0.016837358474731445,173988.0,116849110.08,-556724.2975,9.00281234741211,-538660.7975,-231.33164978027344,542473.828125,-6.526132861773173,439.74415588378906,3.560150436825054,1000.0,174.0,2.059421571695659,0.10086157673811978,1000.0,1000.0,0.0,174000
175000,0,65.81749319119209,0.0011425018310546875,0.0002167224884033203,0.017737388610839844,174988.0,109968976.88,-567619.765,9.008436889648438,-550169.2125,0.5552320082982382,553213.9375,-5.998775601387024,452.34435272216797,3.202058833669187,1000.0,175.0,2.001894155373986,0.04854280317084455,1000.0,1000.0,0.0,175000
176000,0,65.98706281626342,0.0007617473602294922,0.00013494491577148438,0.01699352264404297,175988.0,114608196.72,-575284.74,9.006327972412109,-558347.655,84.4334077835083,560722.3020833334,-5.813091675440471,451.71961466471356,3.1519707788771605,1000.0,176.0,1.7552094118362107,0.05472264684840449,1000.0,1000.0,0.0,176000
177000,0,65.89811011508237,0.0012369155883789062,0.00023317337036132812,0.018208742141723633,176988.0,145829040.0,-585445.12,9.003515625,-567650.4125,116.71265316009521,569008.0520833334,-5.732869307200114,436.8591130574544,2.832725873682468,1000.0,177.0,1.3283704534491618,0.05862053634078589,1000.0,1000.0,0.0,177000
178000,0,66.18569533180079,0.0008571147918701172,0.0001404285430908203,0.01691746711730957,177988.0,121643409.92,-593027.545,9.003515625,-574680.44,9.607125759124756,578556.1510416666,-5.9778452316919966,433.61515045166016,1.8620432648654182,1000.0,178.0,1.1634569001932982,0.02904407515186368,1000.0,1000.0,0.0,178000
179000,0,61.092049753348164,0.0007758140563964844,0.00014328956604003906,0.016964435577392578,178988.0,142095139.84,-603850.7175,9.002109375,-585525.3075,12.643425703048706,587364.3541666666,-5.970455129941304,427.89586385091144,1.7626853263414413,1000.0,179.0,1.1866241896178609,0.09427204505688563,1000.0,1000.0,0.0,179000
180000,0,65.44221312831048,0.0007042884826660156,0.0001609325408935547,0.016562223434448242,179988.0,137910509.6,-615292.06,9.005625,-594906.6825,-97.94059213002522,597841.3697916666,-6.226373712221782,432.69536844889325,1.8061823799290047,1000.0,180.0,1.0270686517292291,0.05574811143953224,1000.0,1000.0,0.0,180000
181000,0,66.02075741129241,0.0010709762573242188,0.00018715858459472656,0.01947188377380371,180988.0,129389004.32,-622261.13,9.002496337890625,-601755.1125,-91.31080563863118,604007.7291666666,-6.197373112042745,462.71825917561847,1.7416296427622389,1000.0,181.0,1.2005074874915407,0.010763253792102268,1000.0,1000.0,0.0,181000
182000,0,66.57460545421415,0.0007839202880859375,0.0001392364501953125,0.01687479019165039,181988.0,169558532.32,-634263.6325,9.00281234741211,-612353.6525,-51.05124362309774,614304.296875,-6.1079098383585615,473.1230112711589,1.9510089373458002,1000.0,182.0,0.9369615718752602,0.07448579291629294,1000.0,1000.0,0.0,182000
183000,0,65.30994594958202,0.0007877349853515625,0.0001480579376220703,0.016652345657348633,182988.0,151585048.64,-641668.065,9.002109375,-619543.155,-154.0503362019857,622941.6197916666,-6.313505371411641,491.45357004801434,1.8975436728439337,1000.0,183.0,1.2194686203863911,0.035605688176088744,1000.0,1000.0,0.0,183000
184000,0,66.20195024322797,0.0007734298706054688,0.0001933574676513672,0.017103910446166992,183988.0,173004377.28,-653800.775,9.004218597412109,-633094.3175,88.31666835149129,636597.3177083334,-5.822893699010213,498.64920806884766,2.150367023523101,1000.0,184.0,1.4050839297595845,0.08175141897940102,1000.0,1000.0,0.0,184000
185000,0,60.76101934360836,0.0007250308990478516,0.0001933574676513672,0.016602039337158203,184988.0,127079704.16,-663005.325,9.00421875,-642543.645,82.48024034500122,644817.9739583334,-5.826367696126302,474.9934488932292,2.4131160573488546,1000.0,185.0,1.3035275511403832,0.04830397973404383,1000.0,1000.0,0.0,185000
186000,0,65.8487817131374,0.0007491111755371094,0.00014162063598632812,0.017243623733520508,185988.0,163656285.6,-671154.865,9.00492156982422,-650677.8125,61.461291790008545,653435.9270833334,-5.867307583491008,463.1631393432617,2.3092395159506798,1000.0,186.0,1.3678971092457912,0.05363155478081079,1000.0,1000.0,0.0,186000
187000,0,65.53296910017912,0.0010685920715332031,0.0001742839813232422,0.017146587371826172,186988.0,167907606.08,-676684.37,9.0028125,-656431.4925,20.14234797159831,659203.5885416666,-5.955759445826213,455.29862213134766,2.40835680590941,1000.0,187.0,1.3078163528035356,0.03374782966899029,1000.0,1000.0,0.0,187000
188000,0,65.95555980480833,0.0007503032684326172,0.00013875961303710938,0.01766347885131836,187988.0,144985652.48,-684881.4025,9.006327972412109,-664288.5025,-11.712324062983194,667229.4114583334,-6.026125947634379,448.3057810465495,2.437190517761422,1000.0,188.0,1.2804901849557928,0.022534204942224714,1000.0,1000.0,0.0,188000
189000,0,65.80419321497178,0.0008189678192138672,0.0001583099365234375,0.016980409622192383,188988.0,156151649.92,-694245.025,9.003515625,-671845.925,-41.56544319788615,673075.9375,-6.091585357983907,453.90865834554035,2.2731706816488626,1000.0,189.0,1.2485384606564012,0.034750310770948804,1000.0,1000.0,0.0,189000
190000,0,65.81075992267718,0.0007536411285400391,0.00013828277587890625,0.016954421997070312,189988.0,142888621.6,-698253.145,9.009140319824219,-673656.215,-243.52816899617514,676861.6614583334,-6.497671484947205,489.3908869425456,2.2058543285067063,1000.0,190.0,1.3570870900395353,0.03938674460594001,1000.0,1000.0,0.0,190000
191000,0,60.039496655266575,0.0007903575897216797,0.00017952919006347656,0.016407012939453125,190988.0,192466186.4,-705871.165,9.00562484741211,-680881.9725,-237.59778594970703,684457.3645833334,-6.451951742172241,525.7979685465494,2.331755642147444,1000.0,191.0,1.4364708159345994,0.037561332796661566,1000.0,1000.0,0.0,191000
192000,0,65.77319458296482,0.0007517337799072266,0.00013756752014160156,0.01710820198059082,191988.0,173285323.04,-715798.735,9.00140625,-689858.2875,-293.69285583496094,694887.9479166666,-6.518671711285909,566.3391062418619,2.178571788947725,1000.0,192.0,1.4070671073784156,0.03630019976881916,1000.0,1000.0,0.0,192000
193000,0,65.24922963575088,0.0014045238494873047,0.00020766258239746094,0.01807689666748047,192988.0,149677065.92,-727751.12,9.000703125,-703055.79,-31.183001200358074,705838.2760416666,-6.05288028717041,589.8090871175131,2.671741068119662,1000.0,193.0,1.428104062905649,0.048076592116876884,1000.0,1000.0,0.0,193000
194000,0,65.68967277825563,0.0007746219635009766,0.0001399517059326172,0.017088651657104492,193988.0,207186174.08,-740494.0825,9.004921875,-715472.385,-100.42502466837566,719591.9479166666,-6.167677680651347,598.9883422851562,2.3518361968548063,1000.0,194.0,1.4499273181057573,0.0399636716720932,1000.0,1000.0,0.0,194000
195000,0,65.59540483850687,0.0007269382476806641,0.0001430511474609375,0.01714920997619629,194988.0,159955107.36,-755761.97,9.005625,-730351.505,33.58230861028036,733505.9427083334,-5.944669723510742,606.9299367268881,2.8248039626321466,1000.0,195.0,1.3671138298121552,0.07794031976866249,1000.0,1000.0,0.0,195000
196000,0,64.9501496501556,0.0008168220520019531,0.0001506805419921875,0.016312122344970703,195988.0,152788887.36,-763315.9825,9.00492172241211,-739251.9225,13.447610219319662,743340.484375,-5.977902094523112,608.4114735921224,2.442322346695683,1000.0,196.0,1.3432557453038545,0.0488729943560811,1000.0,1000.0,0.0,196000
197000,0,58.12908322361583,0.0007753372192382812,0.00014090538024902344,0.019634485244750977,196988.0,161972088.32,-776357.125,9.00281234741211,-751746.085,-89.02567052841187,754751.2552083334,-6.146359324455261,608.267344156901,2.6206439490024467,1000.0,197.0,1.456815784802091,0.050268387802678345,1000.0,1000.0,0.0,197000
198000,0,65.57050647903459,0.0007274150848388672,0.0001380443572998047,0.017338991165161133,197988.0,148415892.96,-785957.5025,9.00421875,-761796.2025,-204.08799489339194,765576.1614583334,-6.315230131149292,647.468739827474,2.913499504220459,1000.0,198.0,1.5992639650710792,0.05966706338082073,1000.0,1000.0,0.0,198000
199000,0,66.67777352438824,0.0019230842590332031,0.0001933574676513672,0.017377853393554688,198988.0,172568245.44,-793493.1675,9.003515625,-768757.275,-131.10476287206015,773208.8072916666,-6.190749287605286,687.4380594889323,2.9462336766882715,1000.0,199.0,1.5036254614510605,0.05924401453592662,1000.0,1000.0,0.0,199000
200000,0,65.97074722420753,0.0006701946258544922,0.00014138221740722656,0.01696038246154785,199988.0,168671008.32,-807469.0375,9.004218597412109,-783038.4875,-56.53752215703329,787370.9375,-6.079433759053548,711.7889048258463,3.095941781801609,1000.0,200.0,1.7011100047411152,0.06908287846901637,1000.0,1000.0,0.0,200000
