niicovila/Q-Reps/lightning_research_framework/results/XSAC_TEST/sac_1_v1/log.csv
time/steps,time/epochs,time/steps_per_second,time/dataset,time/preprocess,time/train_step,train/env_steps,train/q_loss,train/target_q,train/value_loss,train/target_v,train/alpha_loss,train/actor_loss,train/entropy,train/alpha,train/reward,train/length,train/num_ep,eval/reward,eval/stddev,eval/length,eval/discount,eval/early_termination,step
1000,0,35.77752733617827,0.0005385875701904297,0.00014591217041015625,0.015003442764282227,988.0,59.21733337402344,64.72817016601563,-10.980697135925293,77.40204956054687,-1.2927670081456502,-75.59895833333333,-18.907644907633465,0.1001696406553189,1.6347928899693314,1000.0,1.0,2.0047046871688767,2.3252616314296546,1000.0,1000.0,0.0,1000
2000,0,64.69660202411339,0.0004940032958984375,0.0001494884490966797,0.015310049057006836,1988.0,29488.142734375,2127.109833984375,5.606786422729492,2325.205712890625,-4.258450786272685,-2317.806437174479,-45.20263163248698,0.1086437242726485,0.7782967993790899,1000.0,2.0,1.214256809317129,1.5130611189494694,1000.0,1000.0,0.0,2000
3000,0,73.70826576353346,0.0005109310150146484,0.0001366138458251953,0.015310049057006836,2988.0,357465.3225,8799.489140625,16.584260635375976,9365.1800390625,-7.803621133168538,-9398.555908203125,-72.32098388671875,0.11768264261384805,2.855361161832731,1000.0,3.0,1.5743423520457873,1.5818383013531685,1000.0,1000.0,0.0,3000
4000,0,73.18982606025072,0.0004837512969970703,0.00012946128845214844,0.015671491622924805,3988.0,141093.2221875,5994.3921484375,9.173108558654786,6311.0156640625,-7.902751723925273,-6318.0014241536455,-68.91944376627605,0.12561566630999246,0.7854195499328087,1000.0,4.0,3.532232431101298,2.250954276750819,1000.0,1000.0,0.0,4000
5000,0,71.54917122246393,0.0005924701690673828,0.00016641616821289062,0.016201496124267578,4988.0,38164.765390625,2852.134990234375,9.027706146240234,2987.53638671875,-6.883902390797933,-2988.2733764648438,-57.857927322387695,0.13275876392920813,5.0065514926982315,1000.0,5.0,2.321612646326626,2.2038051574194872,1000.0,1000.0,0.0,5000
6000,0,72.37478378867128,0.0004980564117431641,0.0001323223114013672,0.015685081481933594,5988.0,10228.16390625,1095.557578125,9.000459938049316,1159.5015380859375,-5.3014135758082075,-1156.2098795572917,-44.15593910217285,0.13895210375388464,1.2498524420312993,1000.0,6.0,0.8600863887826966,0.6069246834963704,1000.0,1000.0,0.0,6000
7000,0,70.99834653890373,0.0006010532379150391,0.00014257431030273438,0.015546560287475586,6988.0,4466.98181640625,285.7672412109375,9.0,326.48274658203127,-3.932535787423452,-322.6067937215169,-33.28075154622396,0.14416020487745604,0.4162197476374424,1000.0,7.0,16.642173349399208,12.669392724664789,1000.0,1000.0,0.0,7000
8000,0,71.07953755893209,0.0008654594421386719,0.0001575946807861328,0.016880512237548828,7988.0,16944.994453125,-972.4404711914062,9.042250747680663,-764.7878686523437,-3.687688410282135,771.4956919352213,-30.697376887003582,0.1493265094856421,12.830578967631379,1000.0,8.0,42.297284390825055,7.1378316402524105,1000.0,1000.0,0.0,8000
9000,0,69.29494775004345,0.0010459423065185547,0.00020766258239746094,0.01849079132080078,8988.0,75100.25703125,-3001.6066796875,9.003020553588867,-2148.657275390625,-3.3406978845596313,2152.274617513021,-27.606411457061768,0.15462757647037506,20.754862780222492,1000.0,9.0,5.024958447092996,2.389138040681746,1000.0,1000.0,0.0,9000
10000,0,70.99123252428828,0.0006458759307861328,0.0001766681671142578,0.016176223754882812,9988.0,198671.95375,-5628.27994140625,9.00479736328125,-3927.389931640625,-3.90060818195343,3942.2103474934897,-30.180065631866455,0.1613305782278379,3.674604762084707,1000.0,10.0,1.748041480122384,0.08129358300076686,1000.0,1000.0,0.0,10000
11000,0,69.00641907321587,0.0006167888641357422,0.0001327991485595703,0.015642881393432617,10988.0,467677.94375,-9095.4318359375,9.00360179901123,-6289.96263671875,-4.597999930381775,6310.624348958333,-33.06262969970703,0.16991995399196944,1.8889066174767353,1000.0,11.0,1.106432086088099,0.15230611232764943,1000.0,1000.0,0.0,11000
12000,0,69.66074321994657,0.0005342960357666016,0.0001316070556640625,0.016445636749267578,11988.0,870971.905,-12295.4166796875,9.009296913146972,-8494.9116015625,-5.341853976249695,8495.485270182291,-35.75015036265055,0.17957897608478865,1.1658949244201953,1000.0,12.0,1.5631577588015189,0.08644610856897149,1000.0,1000.0,0.0,12000
13000,0,68.40226882067641,0.0006496906280517578,0.00014019012451171875,0.016386032104492188,12988.0,1538323.425,-15209.4166015625,9.010124778747558,-10483.170625,-5.550724148750305,10389.121175130209,-35.17365519205729,0.19028596331675848,2.6055369329104106,1000.0,13.0,2.5449680988012218,0.04931783601774632,1000.0,1000.0,0.0,13000
14000,0,62.662755981364484,0.0005288124084472656,0.00013828277587890625,0.016845226287841797,13988.0,1919174.775,-17238.014453125,9.012669525146485,-11897.376328125,-6.391175627708435,11937.531819661459,-37.67554632822672,0.2017925704518954,2.517748521420157,1000.0,14.0,2.488118936732577,0.043397986777068874,1000.0,1000.0,0.0,14000
15000,0,68.5081847790224,0.0005991458892822266,0.00017952919006347656,0.01671743392944336,14988.0,2842644.54,-19652.03125,9.010612258911133,-13654.8248828125,-6.667898774147034,13592.348225911459,-37.222155253092446,0.21358772243062654,2.543260167808458,1000.0,15.0,2.634257354288732,0.05449827074219474,1000.0,1000.0,0.0,15000
16000,0,68.99547630405817,0.0006048679351806641,0.0001881122589111328,0.015768051147460938,15988.0,3590701.94,-21548.775234375,9.018055572509766,-15169.963671875,-6.90769636631012,15076.947591145834,-36.58939139048258,0.22584561010201773,2.77639465678108,1000.0,16.0,2.635552743868536,0.0827437116114385,1000.0,1000.0,0.0,16000
17000,0,67.91189774252214,0.0009684562683105469,0.00016832351684570312,0.017112255096435547,16988.0,4068849.96,-23533.953984375,9.013358764648437,-16705.038125,-7.552440603574117,16680.648111979168,-37.632450103759766,0.23878388727704683,2.5855040667912745,1000.0,17.0,2.5666313209582805,0.25090925931300273,1000.0,1000.0,0.0,17000
18000,0,69.1303459233523,0.0005853176116943359,0.00018668174743652344,0.01614856719970703,17988.0,4423780.88,-25437.666328125,9.019678573608399,-18232.62921875,-7.611695766448975,18183.702473958332,-36.1657346089681,0.25235681732495624,2.65259204915264,1000.0,18.0,2.7641196305012743,0.1265405820202212,1000.0,1000.0,0.0,18000
19000,0,68.45009152129012,0.0005676746368408203,0.00013136863708496094,0.016331195831298828,18988.0,5640576.06,-27332.934375,9.017576904296876,-19774.168828125,-8.238259394963583,19728.61328125,-36.85784467061361,0.2670038864016533,2.9409296271175993,1000.0,19.0,3.228855642310896,0.29350316482776456,1000.0,1000.0,0.0,19000
20000,0,69.27224164846076,0.0006377696990966797,0.00013875961303710938,0.016528844833374023,19988.0,5708946.1,-29133.12546875,9.013136672973634,-21290.256484375,-9.09616986910502,21360.25,-38.222628593444824,0.2823241452376048,3.211994552619559,1000.0,20.0,2.681564570399252,0.17298390942174094,1000.0,1000.0,0.0,20000
21000,0,64.1195196612827,0.0007531642913818359,0.00015401840209960938,0.015927553176879883,20988.0,6527792.42,-31059.893828125,9.010546722412109,-22851.745078125,-9.0652543703715,22710.647135416668,-36.403594652811684,0.29819492995738983,2.928506088620972,1000.0,21.0,2.884978523938432,0.17346562190702716,1000.0,1000.0,0.0,21000
22000,0,66.94220468721072,0.0005555152893066406,0.00013184547424316406,0.016163349151611328,21988.0,8088277.82,-32589.677421875,9.011249237060547,-24260.6546875,-9.29159927368164,24386.658040364582,-35.54843298594157,0.31448689599831897,2.7922245910523236,1000.0,22.0,1.0226884079355236,0.48067917743984956,1000.0,1000.0,0.0,22000
23000,0,69.3467330036764,0.0006277561187744141,0.00013899803161621094,0.016347169876098633,22988.0,8582104.42,-34734.58484375,9.00703125,-26056.170546875,-9.847083250681559,26003.676106770832,-35.68225510915121,0.3317856118083,2.661796947654329,1000.0,23.0,2.139663964711938,0.5196514407565335,1000.0,1000.0,0.0,23000
24000,0,69.09558881187264,0.0008418560028076172,0.00018668174743652344,0.01641225814819336,23988.0,10362491.74,-36792.1890625,9.008437194824218,-27892.07375,-10.242559909820557,28086.180989583332,-35.27736568450928,0.34988314906756085,1.8490102532449397,1000.0,24.0,0.0703409489363322,0.08909027741072532,1000.0,1000.0,0.0,24000
25000,0,68.86072491264154,0.0006182193756103516,0.00013685226440429688,0.016065120697021484,24988.0,12032993.98,-38612.31171875,9.012655639648438,-29610.081875,-10.302417596181234,29478.410807291668,-33.90888055165609,0.36918432762225467,0.20639488975672204,1000.0,25.0,0.720711594966052,0.05021674192366866,1000.0,1000.0,0.0,25000
26000,0,68.69264154342521,0.0006456375122070312,0.00013756752014160156,0.016290903091430664,25988.0,11429496.14,-40707.9275,9.016873779296875,-31405.359453125,-10.55660112698873,31199.664713541668,-33.11097113291422,0.3894256701072057,0.16170076609564343,1000.0,26.0,0.1549405590753819,0.08550354415208263,1000.0,1000.0,0.0,26000
27000,0,68.67491579172804,0.0006268024444580078,0.0001652240753173828,0.016308069229125977,26988.0,12882910.44,-42880.91359375,9.009843444824218,-33406.688828125,-10.747042655944824,33460.30859375,-32.19256671269735,0.410349706808726,1.7647160887939646,1000.0,27.0,0.3416720619341412,0.028850284675773684,1000.0,1000.0,0.0,27000
28000,0,64.43904606397224,0.00069427490234375,0.00017023086547851562,0.015810489654541016,27988.0,16413443.04,-45832.89328125,9.013358459472656,-35812.66875,-11.825851519902548,36072.680989583336,-33.32986577351888,0.4327550679445267,0.38212110575395153,1000.0,28.0,0.05985129358626743,0.04304477990365191,1000.0,1000.0,0.0,28000
29000,0,68.3434195303971,0.0006051063537597656,0.0001385211944580078,0.016321182250976562,28988.0,16916603.48,-48289.06515625,9.017576599121094,-37922.851875,-12.42106318473816,38110.067708333336,-33.16338189442953,0.4573230445384979,0.24739921838329293,1000.0,29.0,0.19215860127061654,0.0843092159063974,1000.0,1000.0,0.0,29000
30000,0,67.80119556818586,0.0006999969482421875,0.00014138221740722656,0.016032934188842773,29988.0,19526167.24,-50220.1325,9.018982543945313,-39638.1753125,-13.227878252665201,39665.349609375,-33.35538673400879,0.48361049344142276,0.47632507477903063,1000.0,30.0,0.30552422401811763,0.11043206888186717,1000.0,1000.0,0.0,30000
31000,0,68.06128641761352,0.0009279251098632812,0.00016880035400390625,0.01826763153076172,30988.0,21479610.44,-52992.34265625,9.015479583740234,-42004.20453125,-14.39909299214681,42042.7333984375,-34.16850026448568,0.5112349987030029,0.573442786070063,1000.0,31.0,0.5595092434529169,0.12630001544930405,1000.0,1000.0,0.0,31000
32000,0,68.39727161304756,0.0006465911865234375,0.0001468658447265625,0.0166475772857666,31988.0,21730263.56,-55293.3428125,9.01248260498047,-44109.54703125,-14.616353432337442,43987.304036458336,-33.068464597066246,0.5400366733471552,0.4085878584011392,1000.0,32.0,0.6908991408367678,0.17397742390597376,1000.0,1000.0,0.0,32000
33000,0,69.22084171987956,0.0006766319274902344,0.00014734268188476562,0.01624298095703125,32988.0,25262139.76,-57467.26625,9.02179458618164,-46048.40828125,-15.95919934908549,46501.515950520836,-33.966293017069496,0.5707211742798487,0.5147396500747393,1000.0,33.0,0.743930695917548,0.23861397674173587,1000.0,1000.0,0.0,33000
34000,0,68.93351766864478,0.0007023811340332031,0.00014781951904296875,0.016183137893676758,33988.0,27448723.56,-60123.89703125,9.019685516357422,-48174.35234375,-17.672980308532715,48151.685872395836,-35.301791191101074,0.6032072454690933,0.5115431558311685,1000.0,34.0,0.9083137840756482,0.1890683599767295,1000.0,1000.0,0.0,34000
35000,0,63.5418194246322,0.000949859619140625,0.0001571178436279297,0.016611814498901367,34988.0,28782823.2,-61625.368125,9.023201293945313,-49589.94109375,-17.88053337732951,49508.112955729164,-34.005154609680176,0.6385442813237509,0.734153227847935,1000.0,35.0,1.0005030698950654,0.19109391358674788,1000.0,1000.0,0.0,35000
36000,0,68.67406122780453,0.0006139278411865234,0.0001430511474609375,0.016477108001708984,35988.0,29305593.04,-62674.25765625,9.022498016357423,-50962.01265625,-17.897996584574383,50554.779296875,-32.56012360254923,0.6739387661218643,1.1045177088981601,1000.0,36.0,1.2162262058589524,0.20006879769608338,1000.0,1000.0,0.0,36000
37000,0,69.19078710775759,0.0009849071502685547,0.0001881122589111328,0.017941713333129883,36988.0,33529355.44,-65323.09140625,9.021795349121094,-53523.57375,-18.941224575042725,53825.619466145836,-32.64624532063802,0.710918202996254,0.9619874245119225,1000.0,37.0,1.2229156632983038,0.1488813726260629,1000.0,1000.0,0.0,37000
38000,0,68.22162973141428,0.0006048679351806641,0.00013685226440429688,0.016388416290283203,37988.0,29891521.44,-68494.1534375,9.014061431884766,-56763.2190625,-18.53119643529256,57025.831705729164,-30.74003489812215,0.7491133560736974,0.9719407541397866,1000.0,38.0,0.1062903148720383,0.09980633796579565,1000.0,1000.0,0.0,38000
39000,0,68.89606088958506,0.0006015300750732422,0.0001385211944580078,0.016202926635742188,38988.0,34283077.76,-72906.4153125,9.00914047241211,-60618.48765625,-20.588773727416992,60446.6953125,-32.04517952601115,0.7905892829100291,0.2075491729169655,1000.0,39.0,0.38118462707113204,0.16212749601386284,1000.0,1000.0,0.0,39000
40000,0,66.3379428060972,0.0006425380706787109,0.00013256072998046875,0.016988754272460938,39988.0,38683772.48,-76950.8453125,9.014764404296875,-64147.69765625,-21.56389093399048,64616.0107421875,-31.829602400461834,0.8349438359340032,0.4585111985303659,1000.0,40.0,0.6328379940961366,0.16602900586578848,1000.0,1000.0,0.0,40000
41000,0,68.9470247750754,0.0006499290466308594,0.0001380443572998047,0.01603984832763672,40988.0,40541974.0,-80182.6353125,9.011249389648437,-67385.34953125,-23.186450481414795,67556.580078125,-32.29145050048828,0.8819956630468369,0.910369903980546,1000.0,41.0,0.4099359235917146,0.3707882454141371,1000.0,1000.0,0.0,41000
42000,0,63.64178191356998,0.0006330013275146484,0.00013065338134765625,0.016916275024414062,41988.0,43465065.04,-84651.5059375,9.016873016357422,-71250.435625,-24.104480425516766,71657.201171875,-31.851847012837727,0.932511771718661,0.36984704272056845,1000.0,42.0,0.32769023799001745,0.12706958437399354,1000.0,1000.0,0.0,42000
43000,0,67.70282904353844,0.0006694793701171875,0.00013780593872070312,0.016197919845581055,42988.0,42816162.0,-87093.4115625,9.014764251708984,-73809.309375,-25.64091682434082,73591.32942708333,-32.024068673451744,0.9853866249322891,0.3108990875785559,1000.0,43.0,0.2515294209646847,0.09088252094267485,1000.0,1000.0,0.0,43000
44000,0,68.48107127066447,0.0007436275482177734,0.00018024444580078125,0.016287565231323242,43988.0,41889696.32,-89491.8403125,9.015467681884765,-76146.9903125,-26.219009240468342,76756.58463541667,-31.198829015096027,1.0405929287274678,0.2481789821401138,1000.0,44.0,0.19812388309119067,0.042234150053870885,1000.0,1000.0,0.0,44000
45000,0,69.62928826560935,0.0009806156158447266,0.0001957416534423828,0.01770162582397461,44988.0,44183873.44,-92727.1428125,9.010546264648438,-79375.0309375,-26.592552185058594,79292.318359375,-30.212757746378582,1.0984000265598297,0.2876642455052074,1000.0,45.0,0.23731769903884362,0.051293907854368714,1000.0,1000.0,0.0,45000
46000,0,68.5762868157992,0.0006740093231201172,0.00013828277587890625,0.017135143280029297,45988.0,54381705.12,-97537.4125,9.014061431884766,-83932.681875,-27.80603043238322,83815.607421875,-30.00955883661906,1.1582423746585846,0.30868003075376893,1000.0,46.0,0.2141192668364448,0.06207814414601985,1000.0,1000.0,0.0,46000
47000,0,68.0893064355153,0.0006539821624755859,0.00013256072998046875,0.016034364700317383,46988.0,50556764.4,-101036.69375,9.018982849121095,-87213.2,-30.61828899383545,86726.12044270833,-31.02790896097819,1.2235046128431957,0.34911143889909924,1000.0,47.0,0.43948026757641784,0.16166789342053356,1000.0,1000.0,0.0,47000
48000,0,68.4444618507712,0.0006840229034423828,0.00015115737915039062,0.016682147979736328,47988.0,49079938.4,-104146.915625,9.018279724121093,-90302.945,-30.909490426381428,90186.32161458333,-29.92931079864502,1.2918394207954407,0.5421967816701333,1000.0,48.0,0.4730926061782331,0.1879968127042713,1000.0,1000.0,0.0,48000
49000,0,68.64452438389704,0.0006113052368164062,0.00018262863159179688,0.016585588455200195,48988.0,55627208.0,-106921.8303125,9.023201446533204,-93371.4078125,-33.645917892456055,93632.35807291667,-30.68331750233968,1.3632446825504303,0.5965609925165254,1000.0,49.0,0.5134171766504374,0.1537456892143922,1000.0,1000.0,0.0,49000
50000,0,62.663729623064796,0.0006361007690429688,0.00014591217041015625,0.01628708839416504,49988.0,49391278.56,-109886.5040625,9.016170196533203,-96092.09625,-32.480886459350586,96670.28385416667,-28.595754464467365,1.4376281301180522,0.4874465703491363,1000.0,50.0,0.15844962468215723,0.06218169473005111,1000.0,1000.0,0.0,50000
51000,0,69.4016731970772,0.0006754398345947266,0.00018858909606933594,0.018080472946166992,50988.0,55669450.88,-113878.7675,9.008437042236329,-99596.280625,-34.50955359141032,98543.08268229167,-28.756694316864014,1.5166171491146088,0.28374752709188367,1000.0,51.0,0.1963715023218517,0.05600546491399561,1000.0,1000.0,0.0,51000
52000,0,68.45719695114985,0.0008997917175292969,0.00017118453979492188,0.01746201515197754,51988.0,55378618.72,-118442.256875,9.016170806884766,-103521.886875,-38.19292958577474,103698.97786458333,-29.839738845825195,1.6022554735342662,0.27132714739339414,1000.0,52.0,0.3094444340658399,0.13961706582629874,1000.0,1000.0,0.0,52000
53000,0,66.39738153026482,0.0007219314575195312,0.00014901161193847656,0.017362356185913086,52988.0,66114811.04,-121270.73875,9.018279266357421,-106557.0309375,-40.69992478688558,106677.66861979167,-30.005156358083088,1.6956562598546345,0.4028032621706902,1000.0,53.0,0.3746605353696594,0.16537364025383539,1000.0,1000.0,0.0,53000
54000,0,68.3809019494807,0.0009245872497558594,0.0001804828643798828,0.018316268920898438,53988.0,68627240.64,-125484.85125,9.008437347412109,-110463.678125,-40.42384433746338,110574.80078125,-28.584925492604572,1.7900490760803223,0.3630550503044633,1000.0,54.0,0.42603020624551247,0.12928648069613952,1000.0,1000.0,0.0,54000
55000,0,66.89142939526492,0.0006580352783203125,0.0001423358917236328,0.016139984130859375,54988.0,76452389.44,-128188.4309375,9.02038803100586,-113093.190625,-41.531063079833984,113051.60611979167,-27.994641462961834,1.888433148463567,0.36502115411194935,1000.0,55.0,0.427649211275437,0.15748292695426536,1000.0,1000.0,0.0,55000
56000,0,69.05531796072067,0.0005936622619628906,0.00013065338134765625,0.016698837280273438,55988.0,65340536.16,-130332.215625,9.010546417236329,-115407.79,-43.005914052327476,115191.63216145833,-27.595413208007812,1.9916449586550395,0.6039911448890989,1000.0,56.0,0.3755933789281237,0.11853158773389483,1000.0,1000.0,0.0,56000
57000,0,61.64047601692066,0.0006973743438720703,0.00014328956604003906,0.016224145889282227,56988.0,81849674.96,-132706.9934375,9.016873779296875,-117613.01875,-46.12983322143555,117670.478515625,-27.946356932322185,2.1021569967269897,0.45753165351907776,1000.0,57.0,0.2692815651029696,0.05341333123683579,1000.0,1000.0,0.0,57000
58000,0,67.72495520853383,0.0005970001220703125,0.00012826919555664062,0.017239809036254883,57988.0,74940336.96,-135061.5328125,9.012655639648438,-120458.565,-47.65626494089762,120749.55013020833,-27.489832401275635,2.217858632405599,0.48224223560537427,1000.0,58.0,0.20705068345103586,0.03968113144346316,1000.0,1000.0,0.0,58000
59000,0,69.05045223615716,0.0011444091796875,0.0001850128173828125,0.016970396041870117,58988.0,73728739.68,-138417.59375,9.017576446533203,-123320.9103125,-49.39691193898519,123673.17903645833,-27.10626761118571,2.3406428893407187,0.24143470634895858,1000.0,59.0,0.25892562068340685,0.016379404457134945,1000.0,1000.0,0.0,59000
60000,0,68.73501344447256,0.0007443428039550781,0.00014400482177734375,0.016237497329711914,59988.0,78198754.4,-140395.970625,9.011952514648437,-125116.4040625,-51.32931168874105,124745.0078125,-26.785552501678467,2.46973584095637,0.2719953680294478,1000.0,60.0,0.3538351060576318,0.13358139969001762,1000.0,1000.0,0.0,60000
61000,0,68.50035276594633,0.0006651878356933594,0.00013566017150878906,0.016360759735107422,60988.0,82647559.68,-145909.975625,9.014061737060548,-129836.659375,-52.289825121561684,129194.662109375,-26.083837509155273,2.603853245576223,1.057747849617005,1000.0,61.0,0.5357594142294607,0.11883596948963103,1000.0,1000.0,0.0,61000
62000,0,68.6439851344336,0.0006358623504638672,0.00020647048950195312,0.016515493392944336,61988.0,95812151.2,-148941.730625,9.013358612060546,-133416.10625,-54.11099751790365,133828.734375,-25.70371691385905,2.746520221233368,0.6094031536095255,1000.0,62.0,0.1427912501539026,0.03832616620214827,1000.0,1000.0,0.0,62000
63000,0,63.634250647978504,0.0006797313690185547,0.00013947486877441406,0.01619243621826172,62988.0,96599656.64,-153299.816875,9.010546264648438,-137221.8525,-57.0175085067749,136719.55859375,-25.676877975463867,2.8979886968930564,0.7671993338139889,1000.0,63.0,0.5628903457603943,0.21640114467539479,1000.0,1000.0,0.0,63000
64000,0,67.72071251105186,0.0006313323974609375,0.00014829635620117188,0.016170501708984375,63988.0,107311476.0,-156043.19875,9.014764404296875,-140126.133125,-59.94887129465739,140818.17578125,-25.599767684936523,3.0589821338653564,0.5670344463802451,1000.0,64.0,0.22961916658956297,0.09402173380363074,1000.0,1000.0,0.0,64000
65000,0,69.23615311272691,0.0009737014770507812,0.0001990795135498047,0.017472505569458008,64988.0,87219550.4,-160221.765,9.011249389648437,-144101.60375,-60.44281196594238,145513.67578125,-24.743312040964764,3.225099285443624,0.3589736634453021,1000.0,65.0,0.2848997932485572,0.10748717994486173,1000.0,1000.0,0.0,65000
66000,0,68.57117446682174,0.001043558120727539,0.0002040863037109375,0.018156766891479492,65988.0,85403801.44,-165934.9475,9.012655334472656,-149509.2075,-61.29964542388916,149457.49088541666,-24.03519582748413,3.3992448647816977,0.5265541920765419,1000.0,66.0,0.5753674343553067,0.66933794806046,1000.0,1000.0,0.0,66000
67000,0,68.64762523273689,0.0006532669067382812,0.00013828277587890625,0.016784191131591797,66988.0,85413315.68,-168911.106875,9.016170501708984,-152433.125,-64.57853666941325,153361.58463541666,-24.031859397888184,3.5817470947901406,1.7677715457463292,1000.0,67.0,1.4224158087032988,0.39023818226725654,1000.0,1000.0,0.0,67000
68000,0,69.15428168187378,0.0006799697875976562,0.0001385211944580078,0.015767574310302734,67988.0,121297495.68,-172153.655625,9.012655334472656,-155687.05875,-68.90762901306152,155537.63411458334,-24.2349271774292,3.779282867908478,2.158244544518073,1000.0,68.0,1.649328169789492,0.08989774629324872,1000.0,1000.0,0.0,68000
69000,0,68.27124475143842,0.0007700920104980469,0.00015592575073242188,0.017247438430786133,68988.0,103282655.2,-177191.736875,9.016170501708984,-160446.965,-68.01730028788249,160649.04427083334,-23.05280335744222,3.98904158671697,1.5214698174940633,1000.0,69.0,2.0143805107315806,0.07309254777204297,1000.0,1000.0,0.0,69000
70000,0,63.98898627067363,0.0006690025329589844,0.00013518333435058594,0.015959501266479492,69988.0,113530672.64,-181394.509375,9.016170196533203,-164371.254375,-69.04439608256023,163938.50651041666,-22.429750283559162,4.202842195828755,2.116853965724691,1000.0,70.0,2.42394505744061,0.21143776684863383,1000.0,1000.0,0.0,70000
71000,0,66.96764263521086,0.0006368160247802734,0.00013589859008789062,0.01668405532836914,70988.0,125519045.44,-186346.51875,9.010546112060547,-169405.888125,-74.22959073384602,169099.35677083334,-22.754270394643147,4.43096661567688,2.574848625900601,1000.0,71.0,2.594431176885608,0.08009773281375501,1000.0,1000.0,0.0,71000
72000,0,67.93116807226808,0.0006964206695556641,0.00013709068298339844,0.016350984573364258,71988.0,107077711.04,-190865.211875,9.014061279296875,-173505.545,-81.71576690673828,174013.35677083334,-23.438249746958416,4.686539491017659,2.582156300582902,1000.0,72.0,2.6754281946378935,0.09319671739699079,1000.0,1000.0,0.0,72000
73000,0,65.96481250931839,0.0010421276092529297,0.00016355514526367188,0.01741194725036621,72988.0,98623993.12,-193642.503125,9.012655639648438,-176206.124375,-84.4729118347168,175341.09114583334,-23.06078004837036,4.951827526092529,1.402846266486231,1000.0,73.0,1.450724561424483,0.5154072344317993,1000.0,1000.0,0.0,73000
74000,0,69.1930243177541,0.0007083415985107422,0.0001404285430908203,0.016576290130615234,73988.0,137800980.8,-197885.35875,9.018982543945313,-180150.808125,-86.7589823404948,180273.43098958334,-22.60158634185791,5.226505756378174,1.5467762316149107,1000.0,74.0,2.645977259058662,0.16158897611041856,1000.0,1000.0,0.0,74000
75000,0,68.56906696590302,0.0006701946258544922,0.0001399517059326172,0.01660919189453125,74988.0,118662225.6,-198941.816875,9.016874237060547,-181384.270625,-89.52781550089519,181018.85546875,-22.237495581309002,5.514232357343038,2.648160464044411,1000.0,75.0,2.4913240111455073,0.2954091676237487,1000.0,1000.0,0.0,75000
76000,0,68.30838102956102,0.0006613731384277344,0.00014829635620117188,0.016040802001953125,75988.0,132578133.12,-202815.805625,9.017576751708985,-184193.95375,-94.80607604980469,184879.20052083334,-22.29894781112671,5.8173244794209795,2.6284818273830743,1000.0,76.0,1.3394632973393463,0.2688411771242726,1000.0,1000.0,0.0,76000
77000,0,64.68115765020548,0.0006937980651855469,0.00015425682067871094,0.016591548919677734,76988.0,137195414.4,-206465.101875,9.014060974121094,-187143.91625,-98.57516543070476,186773.81640625,-22.05714702606201,6.139676292737325,1.3054315283614828,1000.0,77.0,1.1699039250545404,0.2729805173412152,1000.0,1000.0,0.0,77000
78000,0,66.65602959732759,0.0007221698760986328,0.00014066696166992188,0.01654815673828125,77988.0,130716971.84,-211071.879375,9.008437194824218,-191957.679375,-102.05399068196614,191849.3203125,-21.745150407155354,6.482316533724467,1.965512372780223,1000.0,78.0,1.20506702571587,0.19247078787609695,1000.0,1000.0,0.0,78000
79000,0,68.05002303863351,0.0006530284881591797,0.0001926422119140625,0.016401052474975586,78988.0,135541663.04,-214922.4575,9.016170806884766,-195595.886875,-109.03852971394856,196137.796875,-21.926501274108887,6.847116231918335,1.4062945382041128,1000.0,79.0,0.7553544162803096,0.07087520890659431,1000.0,1000.0,0.0,79000
80000,0,68.51436214387039,0.001020669937133789,0.00021719932556152344,0.017684221267700195,79988.0,133031378.56,-220363.333125,9.016873931884765,-200255.9875,-116.52561505635579,201280.125,-22.121121406555176,7.2288898229599,0.8772148835051866,1000.0,80.0,1.1558109538359909,0.08840296663898095,1000.0,1000.0,0.0,80000
81000,0,68.88972398804816,0.0007069110870361328,0.00014090538024902344,0.016816377639770508,80988.0,157585211.52,-222142.965,9.01265594482422,-202531.92625,-118.4363473256429,203297.68619791666,-21.52897834777832,7.627632021903992,1.3200088013195304,1000.0,81.0,0.7150292663411705,0.11228735789459761,1000.0,1000.0,0.0,81000
82000,0,68.08740529491365,0.0006728172302246094,0.00013637542724609375,0.016559600830078125,81988.0,149090450.4,-224495.2075,9.017505645751953,-204402.124375,-126.21010716756184,204657.70442708334,-21.682300408681233,8.04878274599711,0.755802190791261,1000.0,82.0,0.39420476152752565,0.06259870106872924,1000.0,1000.0,0.0,82000
83000,0,68.4618453259651,0.0010023117065429688,0.0002295970916748047,0.016448974609375,82988.0,144440769.6,-229035.86875,9.012655487060547,-209214.70875,-126.24218304951985,209508.72005208334,-20.864297072092693,8.493872086207071,0.39836202615660943,1000.0,83.0,0.315028638323142,0.04126060181059826,1000.0,1000.0,0.0,83000
84000,0,62.810307451691685,0.0008289813995361328,0.0001728534698486328,0.01673102378845215,83988.0,157878876.0,-235379.186875,9.009842834472657,-215516.638125,-132.56192779541016,216227.23697916666,-20.80385669072469,8.95553477605184,0.2865506162008018,1000.0,84.0,0.31942846446345163,0.04612136728092856,1000.0,1000.0,0.0,84000
85000,0,67.46612140061998,0.0006306171417236328,0.0001304149627685547,0.017296791076660156,84988.0,164742129.76,-238490.29,9.007733917236328,-218942.488125,-132.61218770345053,219202.22526041666,-20.047734419504803,9.441092173258463,0.766457986857236,1000.0,85.0,1.4342382718874498,0.13298742690425985,1000.0,1000.0,0.0,85000
86000,0,68.23033046203258,0.000736236572265625,0.00015282630920410156,0.016678333282470703,85988.0,138512053.6,-242449.835625,9.014764251708984,-222284.325,-137.48498662312826,222183.30208333334,-19.809192816416424,9.957114934921265,0.19002406180924436,1000.0,86.0,0.051588811051126296,0.050153686706023146,1000.0,1000.0,0.0,86000
87000,0,68.3915614126057,0.0010268688201904297,0.00017881393432617188,0.01737236976623535,86988.0,134017667.84,-246083.45625,9.012655792236329,-225950.86875,-142.06049346923828,227027.64713541666,-19.53878911336263,10.49392827351888,0.09862194433013427,1000.0,87.0,0.017568898901217978,0.021028256631230337,1000.0,1000.0,0.0,87000
88000,0,68.16947191179243,0.0007085800170898438,0.00013780593872070312,0.016948938369750977,87988.0,139346182.4,-247736.945,9.015467376708985,-228031.355,-149.7749341328939,227710.1640625,-19.535470326741535,11.066510677337646,1.3550405550351645,1000.0,88.0,0.6223852663717613,0.49746367162509975,1000.0,1000.0,0.0,88000
89000,0,68.28240362687755,0.0007181167602539062,0.000133514404296875,0.016840219497680664,88988.0,149465647.68,-250601.035625,9.011952209472657,-231691.19375,-154.78001022338867,232337.56380208334,-19.255059083302815,11.678345441818237,1.5584471762456455,1000.0,89.0,2.5297525519867237,0.07721081149199048,1000.0,1000.0,0.0,89000
90000,0,68.58637921561446,0.0007162094116210938,0.00014472007751464844,0.016814470291137695,89988.0,171619780.64,-255926.3675,9.013358306884765,-236984.01625,-165.24195607503256,236354.1640625,-19.401740550994873,12.331250190734863,0.8264800933270072,1000.0,90.0,0.5938950694832636,0.1313213298044155,1000.0,1000.0,0.0,90000
91000,0,61.15711252034777,0.0006651878356933594,0.00013709068298339844,0.01656341552734375,90988.0,156174572.48,-262745.375,9.00703094482422,-242968.85125,-173.0485496520996,243312.77083333334,-19.28801679611206,13.024338483810425,1.1337884644666445,1000.0,91.0,1.2026545307751815,0.12775765397081434,1000.0,1000.0,0.0,91000
92000,0,67.95749545686681,0.0007028579711914062,0.000141143798828125,0.016582250595092773,91988.0,159163073.28,-265703.974375,9.009843292236328,-245413.175625,-179.223996480306,246428.73567708334,-19.03421974182129,13.751730918884277,1.358065989209952,1000.0,92.0,1.154645071298415,0.056237700543675224,1000.0,1000.0,0.0,92000
93000,0,68.17004805038692,0.0006461143493652344,0.0001735687255859375,0.016689300537109375,92988.0,163878992.8,-267711.945625,9.010546112060547,-247941.25375,-187.2451934814453,248610.75,-18.89271942774455,14.524862130482992,1.4942807437739614,1000.0,93.0,1.1901472526372932,0.06829551703661293,1000.0,1000.0,0.0,93000
94000,0,68.81332040073553,0.0006313323974609375,0.00013709068298339844,0.016620635986328125,93988.0,154879504.96,-269668.254375,9.010546112060547,-250162.218125,-198.04524612426758,250881.05989583334,-18.91919978459676,15.33122968673706,1.8075854519665364,1000.0,94.0,2.5342170665060957,0.08358559621430921,1000.0,1000.0,0.0,94000
95000,0,68.3220003700914,0.0006487369537353516,0.00016427040100097656,0.016382932662963867,94988.0,138831569.6,-272917.33375,9.00703094482422,-253055.31625,-198.82853190104166,253514.23567708334,-18.29392957687378,16.174733479817707,2.72332407016506,1000.0,95.0,2.468236601100159,0.04532511780656385,1000.0,1000.0,0.0,95000
96000,0,68.7088906857548,0.0009596347808837891,0.00018596649169921875,0.016623973846435547,95988.0,148136873.12,-276028.69625,9.012153701782227,-255084.915625,-199.1779810587565,255614.5859375,-17.69308074315389,17.035579999287922,2.6088315747827284,1000.0,96.0,2.320738064883549,0.41121733642446706,1000.0,1000.0,0.0,96000
97000,0,68.54746134556399,0.0006654262542724609,0.00013875961303710938,0.01636362075805664,96988.0,162586317.12,-279440.42,9.00773422241211,-259256.35375,-207.41258494059244,259596.25260416666,-17.55438502629598,17.952759901682537,2.651300867019171,1000.0,97.0,2.3418609428549972,0.3145314062460014,1000.0,1000.0,0.0,97000
98000,0,64.84607825615343,0.000637054443359375,0.0001392364501953125,0.016129493713378906,97988.0,178415515.52,-280875.25375,9.011249542236328,-261034.38375,-220.19141133626303,259954.76822916666,-17.626729329427082,18.940386295318604,2.467932676621224,1000.0,98.0,2.54335958611293,0.07532134303006562,1000.0,1000.0,0.0,98000
99000,0,68.40945358606571,0.0006515979766845703,0.00015854835510253906,0.016340017318725586,98988.0,152593530.24,-285102.6375,9.007067718505859,-265127.73,-225.65231577555338,264994.3046875,-17.292362531026203,19.984889189402264,1.855211808239408,1000.0,99.0,2.0457323000554286,0.5483496918869917,1000.0,1000.0,0.0,99000
100000,0,67.5619724217649,0.0006158351898193359,0.00013685226440429688,0.016195058822631836,99988.0,200678781.76,-290101.44875,9.012655181884766,-269886.57125,-239.4000447591146,269621.2395833333,-17.35246467590332,21.090194543202717,2.392288647568332,1000.0,100.0,2.5109243632772205,0.07900269257272577,1000.0,1000.0,0.0,100000
101000,0,67.39119536952892,0.0006566047668457031,0.00013685226440429688,0.01609349250793457,100988.0,184250229.28,-295377.72625,9.014061737060548,-274164.08625,-241.4365488688151,274536.1328125,-16.85665225982666,22.240941524505615,2.185421355171491,1000.0,101.0,0.9213489861586031,0.5438821937206317,1000.0,1000.0,0.0,101000
102000,0,68.89262071267322,0.0006535053253173828,0.00013685226440429688,0.01662278175354004,101988.0,184884355.36,-295970.105,9.013358001708985,-274508.27625,-250.47600173950195,275589.1067708333,-16.68246905008952,23.44982369740804,0.7020678088259239,1000.0,102.0,0.7213295725468714,0.38743608378030836,1000.0,1000.0,0.0,102000
103000,0,69.0264519683785,0.0006663799285888672,0.0001380443572998047,0.016212940216064453,102988.0,162183001.28,-297982.45375,9.011952514648437,-277051.69,-253.91981252034506,277609.5364583333,-16.269399960835774,24.72850799560547,0.7950501041456641,1000.0,103.0,0.43635330770114333,0.02895206672694876,1000.0,1000.0,0.0,103000
104000,0,68.72528264787809,0.0006725788116455078,0.00013756752014160156,0.01623702049255371,103988.0,168882052.16,-300450.49875,9.013358306884765,-279933.14625,-266.64222462972003,280560.8125,-16.222551981608074,26.086349964141846,0.6317261159867822,1000.0,104.0,0.674997398751432,0.5042291039368186,1000.0,1000.0,0.0,104000
105000,0,62.30205602678943,0.0006742477416992188,0.00013875961303710938,0.016328811645507812,104988.0,188185548.16,-306200.15125,9.009139862060547,-284148.215,-282.2840296427409,283537.9244791667,-16.25950853029887,27.517436186472576,0.5565483531325334,1000.0,105.0,0.3597977522527901,0.033595676952505746,1000.0,1000.0,0.0,105000
106000,0,68.78966517573059,0.0006628036499023438,0.0001468658447265625,0.0160369873046875,105988.0,177822624.64,-305214.735,9.011952514648437,-284007.1,-287.6369934082031,284669.2473958333,-15.912623087565104,29.02040656407674,0.3926531830170358,1000.0,106.0,0.3030349531146324,0.01663876459905679,1000.0,1000.0,0.0,106000
107000,0,68.32391463420197,0.0009951591491699219,0.00019502639770507812,0.01644587516784668,106988.0,171752052.16,-308074.18375,9.00773422241211,-286525.00375,-296.9160385131836,286934.8541666667,-15.698394775390625,30.618168036142986,0.3533814522194958,1000.0,107.0,0.3412170091585353,0.08797023759125555,1000.0,1000.0,0.0,107000
108000,0,68.33687212513898,0.0009121894836425781,0.00016260147094726562,0.01735544204711914,107988.0,163696387.2,-314155.91875,9.007733917236328,-293224.7725,-306.3336817423503,293619.6380208333,-15.48819891611735,32.289082527160645,0.5771706421202559,1000.0,108.0,0.6096275687834617,0.06641424813246873,1000.0,1000.0,0.0,108000
109000,0,68.97047080691904,0.0005979537963867188,0.00012874603271484375,0.01620316505432129,108988.0,177221415.36,-320246.9975,9.00703109741211,-298155.48375,-320.5499572753906,298682.6458333333,-15.413427114486694,34.05594126383463,0.8431819611397559,1000.0,109.0,0.6181622090874831,0.04091468930672553,1000.0,1000.0,0.0,109000
110000,0,68.41927371859369,0.0008165836334228516,0.0001735687255859375,0.016726970672607422,109988.0,187623887.36,-321405.655,9.009311904907227,-300557.36875,-334.5666046142578,300621.109375,-15.312251965204874,35.93140951792399,0.794568580866457,1000.0,110.0,0.7671246216943629,0.08420818048601855,1000.0,1000.0,0.0,110000
111000,0,68.34921079819703,0.0006690025329589844,0.00017189979553222656,0.01642322540283203,110988.0,208657420.16,-330089.21875,9.007733612060546,-308640.34375,-344.6767756144206,309549.9765625,-15.094294786453247,37.904327392578125,1.019266733476343,1000.0,111.0,0.4428621739756947,0.06454731807029385,1000.0,1000.0,0.0,111000
112000,0,68.71956258597515,0.0006611347198486328,0.00019359588623046875,0.016159772872924805,111988.0,243424099.84,-336566.795,9.009140167236328,-313941.22875,-369.09959920247394,314973.7708333333,-15.225697755813599,40.012009938557945,0.7072010225358752,1000.0,112.0,0.48487465622248316,0.043989122789071466,1000.0,1000.0,0.0,112000
113000,0,62.26487583258761,0.0006580352783203125,0.00014138221740722656,0.016434907913208008,112988.0,180193673.92,-338270.12375,9.016873931884765,-316320.13625,-382.7786102294922,316071.0442708333,-15.056588093439737,42.27000745137533,0.6478719703069294,1000.0,113.0,0.5338502745922569,0.06146903906873855,1000.0,1000.0,0.0,113000
114000,0,68.90334976774322,0.0006270408630371094,0.00014591217041015625,0.016146421432495117,113988.0,203126836.48,-340905.79375,9.009863433837891,-317976.46625,-406.6331431070964,318231.171875,-15.110373894373575,44.63885052998861,0.6879246895018949,1000.0,114.0,0.5187984714911357,0.06064092720629545,1000.0,1000.0,0.0,114000
115000,0,68.4503149400181,0.0008778572082519531,0.000156402587890625,0.01663374900817871,114988.0,198524524.8,-342354.74625,9.011249542236328,-320158.98125,-427.2618891398112,320136.90625,-15.066043774286905,47.132904370625816,0.7709674079572176,1000.0,115.0,0.6347518277868364,0.07589509176095367,1000.0,1000.0,0.0,115000
116000,0,69.68143571232059,0.0006189346313476562,0.00013065338134765625,0.016041994094848633,115988.0,228787008.0,-349142.72125,9.008437194824218,-325450.115,-439.20306905110675,325373.1067708333,-14.827766021092733,49.757757822672524,0.9817582133046555,1000.0,116.0,0.7595371592452095,0.025911812187870236,1000.0,1000.0,0.0,116000
117000,0,67.67058398353049,0.0006406307220458984,0.00014829635620117188,0.016474246978759766,116988.0,243372931.52,-349935.0575,9.00773422241211,-326570.53625,-468.6596221923828,326913.9401041667,-14.921675205230713,52.53599993387858,0.9266412272885071,1000.0,117.0,0.7808971311739189,0.11608306952839441,1000.0,1000.0,0.0,117000
118000,0,67.97965620411219,0.0006654262542724609,0.00014090538024902344,0.0163271427154541,117988.0,206005609.28,-356201.19625,9.003515625,-333125.40625,-480.63677978515625,334414.609375,-14.666978438695272,55.46219539642334,1.1452812970925423,1000.0,118.0,0.7078171538824524,0.021248853958115137,1000.0,1000.0,0.0,118000
119000,0,68.8821212447677,0.0006427764892578125,0.00013756752014160156,0.016734600067138672,118988.0,197830550.4,-359158.455,9.013358459472656,-336809.15625,-498.36512502034503,338180.375,-14.519169569015503,58.50513013203939,0.9143796069144543,1000.0,119.0,0.9051388271924704,0.05058345417239056,1000.0,1000.0,0.0,119000
120000,0,64.80507970725183,0.0006601810455322266,0.0001308917999267578,0.016268014907836914,119988.0,224402418.88,-362943.16125,9.011249237060547,-340602.93,-507.0783869425456,341833.171875,-14.217704772949219,61.71223258972168,1.0658294210915369,1000.0,120.0,0.9217064747535775,0.15361358305895187,1000.0,1000.0,0.0,120000
121000,0,68.21177750195805,0.0006892681121826172,0.00013256072998046875,0.016382932662963867,120988.0,214906487.04,-368809.8625,9.01124984741211,-345932.06125,-529.6423950195312,347496.984375,-14.13927435874939,65.07935587565105,1.1162110774387886,1000.0,121.0,1.2547626156969045,0.024464468430541345,1000.0,1000.0,0.0,121000
122000,0,67.6787952563088,0.0010061264038085938,0.0001926422119140625,0.017610788345336914,121988.0,210232737.28,-374250.31,9.014061431884766,-350295.54875,-570.9967651367188,351526.4713541667,-14.311380704243978,68.70847511291504,1.1082548288169378,1000.0,122.0,0.9213915596323592,0.04729601089329472,1000.0,1000.0,0.0,122000
123000,0,69.46990716816528,0.0006825923919677734,0.0001308917999267578,0.015874624252319336,122988.0,192972248.8,-373249.1175,9.01054656982422,-350380.1325,-573.8616129557291,350243.9479166667,-13.91134516398112,72.54432042439778,1.1047031989029994,1000.0,123.0,0.9309831949473557,0.03471505955445479,1000.0,1000.0,0.0,123000
124000,0,69.15793049092966,0.0006551742553710938,0.0001423358917236328,0.01645970344543457,123988.0,240285646.4,-381893.24,9.00703094482422,-357765.28375,-598.8228759765625,360538.2734375,-13.827718257904053,76.50843874613444,1.105743170521867,1000.0,124.0,0.7117515001406967,0.34500398915668534,1000.0,1000.0,0.0,124000
125000,0,68.09032336825591,0.0006930828094482422,0.00013756752014160156,0.016978740692138672,124988.0,230268540.16,-386559.07375,9.005625,-362113.43375,-632.7067159016927,363747.0338541667,-13.838014761606852,80.73161379496257,1.1991832279519363,1000.0,125.0,0.5329391689399026,0.28389411259289693,1000.0,1000.0,0.0,125000
126000,0,68.94299021915509,0.0007290840148925781,0.00014162063598632812,0.016860008239746094,125988.0,240752220.8,-390734.20625,9.009842681884766,-365689.2625,-660.4454956054688,367255.734375,-13.751154820124308,85.21492703755696,1.2359105458981625,1000.0,126.0,0.4562985277727746,0.22699161490838404,1000.0,1000.0,0.0,126000
127000,0,60.11815213004073,0.0006728172302246094,0.0001316070556640625,0.01606893539428711,126988.0,260415533.12,-394890.6825,9.007030792236328,-370071.28,-670.0019226074219,370556.640625,-13.456768353780111,89.86101786295573,1.1488642455618558,1000.0,127.0,0.4143307369154646,0.21718329636785333,1000.0,1000.0,0.0,127000
128000,0,66.03031947920117,0.0006268024444580078,0.0001308917999267578,0.01663970947265625,127988.0,287023589.44,-403815.68625,9.00492172241211,-379061.41125,-679.2752431233724,379682.0,-13.16933806737264,94.75748507181804,1.2607257989716656,1000.0,128.0,0.9503068761314687,0.07466118308044963,1000.0,1000.0,0.0,128000
129000,0,68.37229652320936,0.0006773471832275391,0.00017523765563964844,0.016379117965698242,128988.0,225159633.92,-409015.59375,9.0084375,-384648.54875,-698.6033579508463,387056.4947916667,-12.99849041302999,99.83190027872722,1.1830849104168086,1000.0,129.0,0.9156868628194313,0.02809617050461985,1000.0,1000.0,0.0,129000
130000,0,68.07131617078073,0.0009303092956542969,0.00016450881958007812,0.016532421112060547,129988.0,230709202.24,-412957.84125,9.011249389648437,-388827.415,-710.2752075195312,388883.9010416667,-12.753609736760458,105.18089803059895,1.0962396701564567,1000.0,130.0,0.933550370222797,0.09154725820417674,1000.0,1000.0,0.0,130000
131000,0,67.98335841327903,0.0006184577941894531,0.00012922286987304688,0.017802715301513672,130988.0,246787470.72,-415747.00875,9.011952514648437,-393008.4925,-728.4281056722006,394990.3229166667,-12.57349713643392,110.82458813985188,1.1685444696133156,1000.0,131.0,0.8574285548898881,0.04060270230010747,1000.0,1000.0,0.0,131000
132000,0,68.65899740902279,0.0009064674377441406,0.0001518726348876953,0.01678609848022461,131988.0,205275707.2,-420076.89125,9.009140167236328,-396585.9525,-753.1247304280599,398065.5989583333,-12.452547868092855,116.72955258687337,1.062685507278909,1000.0,132.0,0.946008035233799,0.09160513246568962,1000.0,1000.0,0.0,132000
133000,0,68.56888761010443,0.0006701946258544922,0.0001480579376220703,0.01597452163696289,132988.0,200267351.04,-425483.77875,9.00492156982422,-403083.34625,-760.0728302001953,404256.5677083333,-12.178083260854086,123.0403601328532,1.1419613692946458,1000.0,133.0,0.9285157931076122,0.04678209427860522,1000.0,1000.0,0.0,133000
134000,0,69.04204115226338,0.0008063316345214844,0.0001728534698486328,0.016470670700073242,133988.0,230614945.92,-437710.66625,9.006327819824218,-412926.25375,-786.1722106933594,413907.1067708333,-12.061206658681234,129.7193463643392,1.2351759975771266,1000.0,134.0,0.8967156491683206,0.020123190129084957,1000.0,1000.0,0.0,134000
135000,0,63.63795812519231,0.0010223388671875,0.0002205371856689453,0.018597126007080078,134988.0,271072225.28,-439428.095,9.010954284667969,-415539.11,-780.6880645751953,416272.296875,-11.714593887329102,136.6279067993164,1.232885919884864,1000.0,135.0,0.6043416813471177,0.045713465567779034,1000.0,1000.0,0.0,135000
136000,0,68.41128348794619,0.0007214546203613281,0.0001533031463623047,0.017577409744262695,135988.0,265164689.28,-447991.8675,9.006328125,-424339.65125,-772.2981262207031,426549.7994791667,-11.372505823771158,143.76487731933594,1.1570959978912405,1000.0,136.0,0.3108028742693077,0.0334017622620542,1000.0,1000.0,0.0,136000
137000,0,67.59821014718386,0.0009944438934326172,0.00016689300537109375,0.016836166381835938,136988.0,241580417.28,-452463.5425,9.008653259277343,-428577.61375,-762.6598561604818,429586.9114583333,-11.047674735387167,151.10696156819662,0.5117195097131303,1000.0,137.0,0.32509509448491125,0.05267117025113382,1000.0,1000.0,0.0,137000
138000,0,68.1778933680104,0.001163482666015625,0.00018739700317382812,0.017798185348510742,137988.0,258716109.44,-457182.68,9.012655334472656,-433419.0175,-811.1549479166666,435096.2395833333,-11.10180656115214,159.00967152913412,0.6529253345761068,1000.0,138.0,1.0010485619595428,0.021617805821217792,1000.0,1000.0,0.0,138000
139000,0,68.0184612789917,0.00077056884765625,0.0001423358917236328,0.016664743423461914,138988.0,269028317.44,-463691.2575,9.010546264648438,-438551.8575,-834.6965484619141,441560.7057291667,-10.981686035792032,167.57095336914062,1.073317695653025,1000.0,139.0,0.4563292154424944,0.08084203972910342,1000.0,1000.0,0.0,139000
140000,0,68.39838699787742,0.000732421875,0.00014090538024902344,0.015573263168334961,139988.0,333320408.32,-468967.185,9.009842529296876,-443337.55,-869.3239186604818,446992.2083333333,-10.923561096191406,176.58482233683267,0.4717028241042077,1000.0,140.0,0.34703315603422924,0.016078761313147793,1000.0,1000.0,0.0,140000
141000,0,65.98847472261362,0.0007424354553222656,0.00013899803161621094,0.0167083740234375,140988.0,268220011.52,-471689.335,9.011249542236328,-447113.40125,-886.3744812011719,449074.4609375,-10.760285218556723,186.22150802612305,0.5082025145727623,1000.0,141.0,2.5121974772736295,0.04876587393507179,1000.0,1000.0,0.0,141000
142000,0,62.64882872806703,0.0007240772247314453,0.00014328956604003906,0.016221284866333008,141988.0,258693993.28,-481013.9225,9.004218597412109,-455392.2375,-924.0405222574869,457182.6171875,-10.706654946009317,196.34649785359701,2.686587503520463,1000.0,142.0,1.024958766500422,0.48665281484389233,1000.0,1000.0,0.0,142000
143000,0,68.23645781815343,0.0006501674652099609,0.0001308917999267578,0.01581597328186035,142988.0,316398521.28,-488270.64625,9.0084375,-463583.06625,-894.2859395345052,466391.1432291667,-10.325184186299643,206.78286743164062,0.8382166622330969,1000.0,143.0,0.48737057993675303,0.03328842285595734,1000.0,1000.0,0.0,143000
144000,0,68.03346601655134,0.0009310245513916016,0.00017261505126953125,0.016726255416870117,143988.0,295138527.04,-492581.50375,9.00703094482422,-468517.75875,-870.1230621337891,471231.9375,-10.005605936050415,217.2491887410482,0.945298594964591,1000.0,144.0,0.3842850517593409,0.015495452077322154,1000.0,1000.0,0.0,144000
145000,0,68.16375537193521,0.0007011890411376953,0.00013971328735351562,0.016114234924316406,144988.0,338061941.12,-501178.12375,9.014061279296875,-476699.39125,-893.8402557373047,479184.09375,-9.91727590560913,228.201535542806,1.0425770527794307,1000.0,145.0,0.6531111526068076,0.1018604692385383,1000.0,1000.0,0.0,145000
146000,0,68.7163651710281,0.0007004737854003906,0.0001316070556640625,0.016158342361450195,145988.0,271866353.28,-508677.48375,9.005625,-484341.71625,-889.6331024169922,486405.21875,-9.707500298817953,239.97873560587564,1.1630654104409022,1000.0,146.0,1.069885813129226,0.0632336823079084,1000.0,1000.0,0.0,146000
147000,0,68.95065174520948,0.0007262229919433594,0.00014543533325195312,0.016480207443237305,146988.0,316686104.32,-518519.8025,9.00914047241211,-495785.25,-861.8070220947266,498854.1041666667,-9.419625600179037,252.0436897277832,1.4659465638524902,1000.0,147.0,0.8784909219799234,0.06506774915761529,1000.0,1000.0,0.0,147000
148000,0,68.15781827589143,0.0006797313690185547,0.00020074844360351562,0.01657581329345703,147988.0,275648247.04,-527087.54875,9.014060974121094,-504187.90875,-828.1903635660807,506206.7057291667,-9.129345019658407,264.67780049641925,1.434945606933,1000.0,148.0,0.7553901923467348,0.01480601806289619,1000.0,1000.0,0.0,148000
149000,0,61.56635532456064,0.0007243156433105469,0.00013709068298339844,0.016150951385498047,148988.0,311295808.96,-538732.83,9.00562484741211,-515662.30125,-822.7866160074869,517711.2786458333,-8.961236715316772,277.8797378540039,1.1889698552281167,1000.0,149.0,0.7952903761687302,0.07588714687315389,1000.0,1000.0,0.0,149000
150000,0,69.28995662505386,0.0007307529449462891,0.00015306472778320312,0.016575098037719727,149988.0,347362716.48,-549669.16,9.006327972412109,-525671.6075,-810.3715413411459,527968.1822916666,-8.777016957600912,291.84156290690106,1.2929290246265854,1000.0,150.0,0.7183465749768526,0.04690321475837014,1000.0,1000.0,0.0,150000
151000,0,68.05483712480878,0.0010132789611816406,0.00016832351684570312,0.01649165153503418,150988.0,277335336.32,-561886.9225,9.00492172241211,-537899.0025,-833.1710815429688,541469.5,-8.71739093462626,306.63744099934894,1.1308927179885893,1000.0,151.0,0.6829093938387063,0.031155391516834465,1000.0,1000.0,0.0,151000
152000,0,67.70894946056312,0.0006971359252929688,0.00017976760864257812,0.016713857650756836,151988.0,290078445.76,-572209.0425,9.009139862060547,-548862.9275,-805.0088246663412,550803.9270833334,-8.501689910888672,321.8161799112956,1.3544645826582942,1000.0,152.0,0.7436341758835094,0.06280452495680414,1000.0,1000.0,0.0,152000
153000,0,68.67388132232011,0.0006632804870605469,0.00017762184143066406,0.01615762710571289,152988.0,294939780.8,-583033.87,9.01054656982422,-558798.3575,-803.2805328369141,562893.5,-8.378382047017416,337.7781804402669,1.268479182821728,1000.0,153.0,0.8002071319993755,0.04237461381433074,1000.0,1000.0,0.0,153000
154000,0,67.76714866071832,0.0007543563842773438,0.0001518726348876953,0.016126394271850586,153988.0,311890377.92,-596718.2125,9.011249389648437,-572665.2075,-763.1719970703125,575242.7395833334,-8.152586936950684,354.5674006144206,1.150347092421966,1000.0,154.0,0.8759229070645853,0.09779980125862005,1000.0,1000.0,0.0,154000
155000,0,67.9340727687364,0.000762939453125,0.000213623046875,0.016443729400634766,154988.0,324889898.4,-608035.7175,9.012655639648438,-583469.6,-760.6372121175131,588713.4791666666,-8.046005487442017,371.80384572347003,1.289276586666869,1000.0,155.0,0.708718751395753,0.04372503981813076,1000.0,1000.0,0.0,155000
156000,0,65.2373353242188,0.0007498264312744141,0.00017499923706054688,0.01645064353942871,155988.0,344877077.12,-621378.7875,9.017576293945313,-596729.02,-726.3307189941406,598191.7135416666,-7.862714568773906,389.9628270467122,1.212916140107411,1000.0,156.0,0.6892530082885404,0.05794485506150791,1000.0,1000.0,0.0,156000
157000,0,68.04940476499509,0.0006883144378662109,0.00018477439880371094,0.01598358154296875,156988.0,381024072.96,-636575.025,9.006327819824218,-612582.1575,-613.9562555948893,615936.6875,-7.509292920430501,406.8191197713216,1.079872321427721,1000.0,157.0,0.859138920296299,0.03419891877640281,1000.0,1000.0,0.0,157000
158000,0,68.02071156767781,0.0011267662048339844,0.00020051002502441406,0.01833200454711914,157988.0,379621041.28,-652638.0675,9.009842987060546,-627739.4575,-604.1825663248698,631468.3385416666,-7.422903696695964,424.6473388671875,1.3600626214806493,1000.0,158.0,0.7985752858557996,0.06138597968893992,1000.0,1000.0,0.0,158000
159000,0,68.35433466099099,0.0006544589996337891,0.0001823902130126953,0.01635885238647461,158988.0,360616193.6,-664888.2125,9.014061431884766,-640414.3175,-637.732432047526,641784.6458333334,-7.429634054501851,446.1193440755208,2.2175375974122757,1000.0,159.0,2.4160981883529926,0.02479997041286297,1000.0,1000.0,0.0,159000
160000,0,68.07348157150379,0.0007746219635009766,0.00014209747314453125,0.016299009323120117,159988.0,418800748.16,-683032.7075,9.009843139648437,-656942.9325,-619.3708902994791,660979.1770833334,-7.323911786079407,467.87093861897785,2.880501287594111,1000.0,160.0,2.276818848067146,0.053475831988073604,1000.0,1000.0,0.0,160000
161000,0,68.18884437227565,0.0007476806640625,0.0001461505889892578,0.01670670509338379,160988.0,413832722.56,-693873.95,9.02460678100586,-668789.305,-582.6526616414388,670606.3229166666,-7.189489722251892,489.86632283528644,2.6825824476865616,1000.0,161.0,2.285787870215024,0.147342242101094,1000.0,1000.0,0.0,161000
162000,0,64.05762997227731,0.0006628036499023438,0.00022029876708984375,0.01613473892211914,161988.0,407969731.84,-708862.605,9.009843139648437,-683052.625,-587.3824590047201,686850.4166666666,-7.142982403437297,513.9474334716797,3.0937464972012276,1000.0,162.0,0.7324904304462102,0.0705073077079149,1000.0,1000.0,0.0,162000
163000,0,67.22489955462325,0.0007507801055908203,0.00021505355834960938,0.01616978645324707,162988.0,372139284.48,-726052.585,9.011249084472656,-701757.4125,-387.6451555887858,704473.8489583334,-6.725473046302795,534.3714447021484,1.6140303818471273,1000.0,163.0,0.9559536580921663,0.057027215569476875,1000.0,1000.0,0.0,163000
164000,0,67.50295163186294,0.0009744167327880859,0.00016188621520996094,0.017107486724853516,163988.0,387166597.12,-744083.09,9.011249542236328,-719160.6575,-477.30611928304035,722564.078125,-6.8565768003463745,557.2857818603516,1.4140569860840877,1000.0,164.0,1.0672888115388577,0.10314001682222075,1000.0,1000.0,0.0,164000
165000,0,68.07171388711626,0.0006930828094482422,0.00013709068298339844,0.016892671585083008,164988.0,393160317.44,-766570.5275,9.008437042236329,-740810.9325,-574.4068603515625,743550.4947916666,-6.981093207995097,585.5345408121744,1.8644243584891835,1000.0,165.0,2.2903718932877775,0.05317184349205585,1000.0,1000.0,0.0,165000
166000,0,66.55909651226413,0.0008184909820556641,0.0001952648162841797,0.016831159591674805,165988.0,525618622.72,-786137.465,9.014764404296875,-758274.5975,-726.8634440104166,763916.6822916666,-7.171456336975098,620.55029296875,2.878769025894557,1000.0,166.0,2.3249377394343065,0.01892599460509757,1000.0,1000.0,0.0,166000
167000,0,67.84291346886698,0.0007016658782958984,0.00019860267639160156,0.01616644859313965,166988.0,434636113.28,-796434.97,9.006327972412109,-770023.405,-681.6407674153646,774407.75,-7.037980397542317,656.7772572835287,2.934336255977672,1000.0,167.0,1.0323623375310889,0.0460162026017132,1000.0,1000.0,0.0,167000
168000,0,67.635882798768,0.0007121562957763672,0.00013184547424316406,0.01605987548828125,167988.0,403105328.64,-818323.55,9.014061279296875,-790547.865,-599.4472503662109,795048.9322916666,-6.863953789075215,693.9173583984375,1.9899062438497057,1000.0,168.0,0.8392792299242101,0.006788368499096069,1000.0,1000.0,0.0,168000
169000,0,63.47754232286146,0.0006537437438964844,0.0001404285430908203,0.01702141761779785,168988.0,494233044.48,-834509.14,9.015467529296876,-806211.21,-639.1907246907552,812272.171875,-6.878345449765523,727.78466796875,1.8072491359128224,1000.0,169.0,0.8088385691966298,0.018011970011273883,1000.0,1000.0,0.0,169000
170000,0,68.49373051809776,0.0006539821624755859,0.00017690658569335938,0.016092300415039062,169988.0,603120976.64,-849472.17,9.00703094482422,-823016.2225,-398.31628799438477,827639.5104166666,-6.5263750950495405,756.8031361897787,1.5730227457897694,1000.0,170.0,0.9415017258732059,0.03371969047803715,1000.0,1000.0,0.0,170000
171000,0,68.20893774799974,0.0010540485382080078,0.00017762184143066406,0.0176851749420166,170988.0,605133098.88,-871489.0025,9.014061889648438,-843661.12,-293.45266977945965,848060.6822916666,-6.376767714818318,778.9329071044922,1.7339486257971726,1000.0,171.0,0.947916110146495,0.020331826064949064,1000.0,1000.0,0.0,171000
172000,0,68.2668444449074,0.0006866455078125,0.00013828277587890625,0.016751527786254883,171988.0,515547281.28,-891179.1825,9.018982391357422,-864413.425,-136.9960028330485,871018.2395833334,-6.1717420021692915,797.7001393636068,1.886022477710972,1000.0,172.0,0.9811539222012492,0.03856870628611496,1000.0,1000.0,0.0,172000
173000,0,68.65369292122715,0.0007169246673583984,0.0002079010009765625,0.016283035278320312,172988.0,512157913.6,-912861.69,9.010546112060547,-885867.2375,47.67729473114014,891194.125,-5.940425833066304,800.2743937174479,1.6169712275645294,1000.0,173.0,0.9049211357580678,0.040749029037146854,1000.0,1000.0,0.0,173000
174000,0,68.70132780180857,0.0007512569427490234,0.00013327598571777344,0.01629352569580078,173988.0,544585070.08,-933148.8175,9.014061584472657,-907042.9575,140.69658756256104,910990.9427083334,-5.8198864459991455,781.1076456705729,2.374593413524456,1000.0,174.0,2.344793702106181,0.06191244053042751,1000.0,1000.0,0.0,174000
175000,0,63.27120714040906,0.0007004737854003906,0.00015473365783691406,0.016515254974365234,174988.0,657907985.92,-954347.285,9.010546417236329,-925833.7325,-116.9125452041626,932176.4635416666,-6.149403373400371,782.6111399332682,3.2537016055137227,1000.0,175.0,2.3809723203047755,0.02774912859699054,1000.0,1000.0,0.0,175000
176000,0,67.7118789088103,0.0007381439208984375,0.0001423358917236328,0.016635656356811523,175988.0,657617740.8,-977953.255,9.01757583618164,-947511.6075,-140.66188987096152,952476.765625,-6.173999110857646,808.4994557698568,3.3173992184144416,1000.0,176.0,2.0788206975893537,0.29571472103916213,1000.0,1000.0,0.0,176000
177000,0,67.20508016917661,0.00115966796875,0.00018095970153808594,0.01662588119506836,176988.0,672403659.52,-992577.7925,9.014061431884766,-962633.4375,-159.78961054484049,966202.6458333334,-6.192040681838989,832.1602478027344,2.8797898207370696,1000.0,177.0,2.4311441445469315,0.06729685277567754,1000.0,1000.0,0.0,177000
178000,0,68.69610678211056,0.0006868839263916016,0.0001914501190185547,0.015994787216186523,177988.0,641409276.16,-1015390.975,9.00703109741211,-984952.89,-78.51482391357422,990253.71875,-6.09149436155955,858.3428141276041,3.3420332480214583,1000.0,178.0,2.4466813547953574,0.050670183254942186,1000.0,1000.0,0.0,178000
179000,0,67.8661854784009,0.0007493495941162109,0.0001361370086669922,0.01610279083251953,178988.0,715743235.84,-1036654.505,9.01757583618164,-1004801.965,-42.94884173075358,1009468.234375,-6.049573063850403,866.5062713623047,3.7611944419015932,1000.0,179.0,2.4545601615425396,0.049238865677766405,1000.0,1000.0,0.0,179000
180000,0,68.33647130434669,0.0006928443908691406,0.00015163421630859375,0.016262292861938477,179988.0,690582401.28,-1057381.735,9.011249237060547,-1025252.5375,40.654721895853676,1029289.515625,-5.953737854957581,878.8146311442057,3.8645341469421144,1000.0,180.0,2.4404476248678635,0.04382595409385129,1000.0,1000.0,0.0,180000
181000,0,68.2706669010554,0.0006687641143798828,0.00013947486877441406,0.01613163948059082,180988.0,632575852.16,-1075746.355,9.013807525634766,-1044816.2275,1.0503862698872883,1051489.96875,-5.998768488566081,858.3960927327474,3.6991190151699143,1000.0,181.0,2.412188226154803,0.041494404349401375,1000.0,1000.0,0.0,181000
182000,0,63.15859216842034,0.0008270740509033203,0.0001499652862548828,0.01646709442138672,181988.0,654001008.0,-1100783.53,9.015467529296876,-1070177.665,115.40747769673665,1076093.1458333333,-5.859350562095642,820.2417602539062,3.9039883504589272,1000.0,182.0,2.3726769499162095,0.026752093376706667,1000.0,1000.0,0.0,182000
183000,0,68.25435777532307,0.0007238388061523438,0.0001430511474609375,0.01656341552734375,182988.0,679631665.92,-1118395.045,9.012655029296875,-1088467.39,-53.71115891138712,1092858.125,-6.065961440404256,814.1613616943359,3.9207138994221884,1000.0,183.0,1.8061412812110405,0.37172327963525015,1000.0,1000.0,0.0,183000
184000,0,68.30744656803573,0.000997781753540039,0.00016641616821289062,0.01713085174560547,183988.0,720847842.56,-1139238.685,9.018279571533203,-1107833.785,-167.55326763788858,1112104.71875,-6.195898095766704,855.2991943359375,1.8325064561857547,1000.0,184.0,0.7118415891904226,0.0380358605322236,1000.0,1000.0,0.0,184000
185000,0,68.4580461263454,0.0007343292236328125,0.00019621849060058594,0.016509056091308594,184988.0,725438933.76,-1156278.58,9.018982849121095,-1125573.0,-69.59100977579753,1133515.375,-6.078702926635742,884.3558247884115,2.017634881205124,1000.0,185.0,0.7391699513237424,0.07748365357933272,1000.0,1000.0,0.0,185000
186000,0,68.51534704412173,0.0006475448608398438,0.0001785755157470703,0.015917062759399414,185988.0,863404620.8,-1178373.38,9.012655181884766,-1147773.89,158.76238505045572,1156081.2604166667,-5.816653291384379,865.9441070556641,1.5730163109208024,1000.0,186.0,1.1067119831844878,0.059723312037386664,1000.0,1000.0,0.0,186000
187000,0,68.57373054602576,0.0006759166717529297,0.00015687942504882812,0.016257286071777344,186988.0,896318802.56,-1192827.96,9.013358001708985,-1163681.87,116.06353712081909,1167285.3958333333,-5.860520164171855,832.0871429443359,1.9269560954561364,1000.0,187.0,0.8902937377522641,0.025823531241776002,1000.0,1000.0,0.0,187000
188000,0,67.68176578190817,0.0006759166717529297,0.00013756752014160156,0.01584649085998535,187988.0,820381796.48,-1215542.83,9.00492172241211,-1185325.91,141.43652311960855,1189706.03125,-5.8252677122751875,809.3970540364584,2.0323404852925293,1000.0,188.0,0.8296450534321653,0.0706175457586267,1000.0,1000.0,0.0,188000
189000,0,65.42187970858333,0.0006778240203857422,0.00014472007751464844,0.016250133514404297,188988.0,793233186.56,-1231069.635,9.02390380859375,-1199905.085,-42.04246632258097,1203907.8958333333,-6.052451968193054,801.5223744710287,2.2468627253684357,1000.0,189.0,0.8619883314487241,0.20542905681565818,1000.0,1000.0,0.0,189000
190000,0,68.3594592920729,0.0007114410400390625,0.00013899803161621094,0.016716957092285156,189988.0,902191778.56,-1244982.11,9.014061584472657,-1212563.94,-14.695945898691813,1217731.3229166667,-6.017970283826192,817.8600718180338,0.9693113861452282,1000.0,190.0,0.023914309624368857,0.02409970697960496,1000.0,1000.0,0.0,190000
191000,0,67.82702741863287,0.0007243156433105469,0.0001494884490966797,0.01609182357788086,190988.0,818639064.96,-1262832.27,9.013358154296874,-1230505.01,-58.24027554194132,1237240.6354166667,-6.071756760279338,811.6890157063802,0.8344022373904779,1000.0,191.0,0.19409079848486388,0.3849521675844681,1000.0,1000.0,0.0,191000
192000,0,68.4095874780058,0.0006930828094482422,0.00013899803161621094,0.016241073608398438,191988.0,756121715.2,-1276540.21,9.010546417236329,-1243205.36,-142.07981522878012,1248832.5520833333,-6.16630494594574,854.4408823649088,1.0562177793965302,1000.0,192.0,1.2711963727718716,0.02215408557913433,1000.0,1000.0,0.0,192000
193000,0,69.29288710670794,0.0006587505340576172,0.0003757476806640625,0.01562047004699707,192988.0,710082597.12,-1290675.07,9.016170806884766,-1257251.955,-131.7402385075887,1265052.6979166667,-6.14628537495931,900.5317535400391,1.9576294215043686,1000.0,193.0,0.25955535835571125,0.15079646167373806,1000.0,1000.0,0.0,193000
194000,0,68.77671586616634,0.0006608963012695312,0.00020074844360351562,0.016429662704467773,193988.0,1004307898.88,-1317826.11,9.015389556884765,-1284022.875,169.78055381774902,1290396.96875,-5.8092483679453535,889.7411804199219,1.3711033409736069,1000.0,194.0,0.08562128692895657,0.039323392399940635,1000.0,1000.0,0.0,194000
195000,0,64.1924519800574,0.0006659030914306641,0.0001373291015625,0.016157865524291992,194988.0,780355368.96,-1336645.775,9.007734069824219,-1302991.95,128.96040074030557,1308421.6875,-5.848008195559184,848.3143056233724,0.8043957992993731,1000.0,195.0,0.02402667241847949,0.0343495689803575,1000.0,1000.0,0.0,195000
196000,0,68.24169802455091,0.0006954669952392578,0.0001316070556640625,0.01569962501525879,195988.0,904867079.68,-1349077.51,9.011952514648437,-1317683.485,189.80865542093912,1319813.5520833333,-5.77023188273112,825.9649047851562,0.6484570097864437,1000.0,196.0,0.032093723772600224,0.014778414127588863,1000.0,1000.0,0.0,196000
197000,0,68.66861950387981,0.0006930828094482422,0.00013256072998046875,0.01626443862915039,196988.0,938141937.28,-1370709.32,9.006327972412109,-1337521.29,63.06708606084188,1341523.6979166667,-5.920825680096944,796.5855916341146,0.9849480910142198,1000.0,197.0,0.05309934701846791,0.029683349358905292,1000.0,1000.0,0.0,197000
198000,0,68.69444162378352,0.0006964206695556641,0.00013637542724609375,0.016062498092651367,197988.0,988252455.68,-1391421.86,9.011249237060547,-1356379.075,-10.394002914428711,1362114.8333333333,-6.0132103363672895,786.9273834228516,0.827937426460082,1000.0,198.0,0.05677171134949651,0.01821216586117847,1000.0,1000.0,0.0,198000
199000,0,69.53596973929051,0.0007023811340332031,0.0001316070556640625,0.016363143920898438,198988.0,795394391.68,-1402871.675,9.016170349121094,-1364305.355,-351.22067896525067,1372519.1875,-6.4295443296432495,817.9133148193359,1.5673245408298664,1000.0,199.0,1.039142616079364,0.054237834771725855,1000.0,1000.0,0.0,199000
200000,0,68.57713894807613,0.0009448528289794922,0.0001571178436279297,0.01658463478088379,199988.0,928728245.76,-1415588.525,9.011952667236327,-1377023.5,-178.52026573816934,1379723.6041666667,-6.203686396280925,876.4915568033854,1.684013008327184,1000.0,200.0,0.9545242254435019,0.11265302055669398,1000.0,1000.0,0.0,200000
