niicovila/Q-Reps/dev/output_logs/.out_test_2/log.csv
time/steps,time/epochs,time/steps_per_second,time/dataset,time/preprocess,time/train_step,train/env_steps,train/q_loss,train/target_q,train/alpha_loss,train/actor_loss,train/entropy,train/alpha,train/reward,train/length,train/num_ep,eval/reward,eval/stddev,eval/length,eval/discount,eval/early_termination,step
1000,0,8.531718361254208,0.0006041526794433594,2.2172927856445312e-05,0.13120102882385254,988.0,-23.90893974304199,0.05970290705561638,0.9690581808487574,-0.4385760774215062,3.9348471562067666,0.097531462709109,3.254519754467232,1000.0,1.0,0.2519434990209106,0.1167150054988933,1000.0,1000.0,0.0,1000
2000,0,8.538043570749196,0.0010080337524414062,2.193450927734375e-05,0.1313481330871582,1988.0,-23.803937454223632,0.04940005153417587,0.9347074379523596,-0.4208136449257533,4.072285294532776,0.0927908377101024,6.242545984112288,1000.0,2.0,0.37082951306063106,0.12832569533942753,1000.0,1000.0,0.0,2000
3000,0,8.595071237607108,0.0006878376007080078,2.09808349609375e-05,0.14189529418945312,2988.0,-24.150182418823242,0.038352931141853334,0.8907707879940668,-0.3912947028875351,4.074987252553304,0.0884055911252896,3.5360300621517666,1000.0,3.0,0.5888444200616492,0.4249077905661391,1000.0,1000.0,0.0,3000
4000,0,8.359808793100122,0.0007190704345703125,1.4066696166992188e-05,0.1366710662841797,3988.0,-25.1358740234375,0.03309127792716026,0.8500228971242905,-0.3728444402416547,4.0820603768030805,0.08430247629682223,4.547982730557311,1000.0,4.0,0.724575357066305,0.6939796352796398,1000.0,1000.0,0.0,4000
5000,0,8.38475973067401,0.0012569427490234375,2.5272369384765625e-05,0.17681670188903809,4988.0,-24.796196670532225,0.028924234732985495,0.8108859906593958,-0.35281217098236084,4.079539656639099,0.08044120793541272,5.305128357260345,1000.0,5.0,1.2767170569814033,0.36345670385825923,1000.0,1000.0,0.0,5000
6000,0,8.428116312274724,0.00066375732421875,2.0265579223632812e-05,0.12354803085327148,5988.0,-24.208777770996093,0.02746239587664604,0.7739336093266805,-0.33619994670152664,4.077373703320821,0.07679204953213532,3.682146077785716,1000.0,6.0,2.7923624188683913,1.8293765662995132,1000.0,1000.0,0.0,6000
7000,0,8.517823380684991,0.0009088516235351562,2.09808349609375e-05,0.16630029678344727,6988.0,-24.297677001953126,0.03114625722169876,0.7386839737494787,-0.3246476526061694,4.072043816248576,0.07333328140278657,8.205907944302831,1000.0,7.0,7.396358933760249,1.9457108351104904,1000.0,1000.0,0.0,7000
8000,0,8.49583082230927,0.0007951259613037109,2.09808349609375e-05,0.14735794067382812,7988.0,-24.19902397155762,0.032591892853379247,0.7059237013260523,-0.3136743853489558,4.076832056045532,0.0700477169205745,3.916371634584432,1000.0,8.0,11.534796686383197,0.9865767535633791,1000.0,1000.0,0.0,8000
9000,0,8.676203317073009,0.0014390945434570312,2.193450927734375e-05,0.14375805854797363,8988.0,-23.75103256225586,0.036790046691894535,0.6743672688802084,-0.3042314077417056,4.0761250257492065,0.06692116086681683,8.917562406583956,1000.0,9.0,19.720842687366407,0.8728698388276219,1000.0,1000.0,0.0,9000
10000,0,8.545168475120287,0.0010030269622802734,2.3603439331054688e-05,0.14106321334838867,9988.0,-23.393291854858397,0.03945082575082779,0.6437878459692001,-0.29514632870753604,4.067334612210591,0.06394237590332826,5.450521651448576,1000.0,10.0,22.061076226518402,0.4751600568471813,1000.0,1000.0,0.0,10000
11000,0,8.555326677605704,0.000637054443359375,1.3113021850585938e-05,0.1432328224182129,10988.0,-22.735987396240233,0.04625078156590462,0.6145542860031128,-0.2906762460867564,4.056782245635986,0.061102889167765774,12.544604978835084,1000.0,11.0,25.690093299116892,0.14726537253240318,1000.0,1000.0,0.0,11000
12000,0,8.61882013328818,0.0010809898376464844,1.3113021850585938e-05,0.15886187553405762,11988.0,-22.334842605590822,0.056410040110349655,0.5863934755325317,-0.2884030416607857,4.04107403755188,0.05839417347063621,13.8903945425515,1000.0,12.0,35.427201588085246,0.5478343517824633,1000.0,1000.0,0.0,12000
13000,0,8.399651189411744,0.0007128715515136719,2.002716064453125e-05,0.12865877151489258,12988.0,-21.946073913574217,0.0650695738196373,0.5598049958546957,-0.28676145772139233,4.02988068262736,0.05580866523087025,13.607130136408461,1000.0,13.0,36.34832386228224,0.6098027225011764,1000.0,1000.0,0.0,13000
14000,0,8.628235497797881,0.0007269382476806641,1.2874603271484375e-05,0.13008999824523926,13988.0,-21.276667098999024,0.07296917274594307,0.5336358944574991,-0.28569792707761127,4.00297999382019,0.053342862986028194,18.31698397250428,1000.0,14.0,44.247359570065115,1.6680298723511946,1000.0,1000.0,0.0,14000
15000,0,8.5826893849854,0.0014672279357910156,2.6702880859375e-05,0.14838194847106934,14988.0,-21.03494384765625,0.08170192837715148,0.5090150833129883,-0.28209998458623886,3.982255538304647,0.050987371864418186,19.400423134645518,1000.0,15.0,47.78648947303509,4.17457887546527,1000.0,1000.0,0.0,15000
16000,0,8.602799115940837,0.0008540153503417969,1.3828277587890625e-05,0.12445616722106934,15988.0,-20.544043350219727,0.09656127870082855,0.484551581243674,-0.28570109854141873,3.9406888683636985,0.04873986169695854,25.878595200575386,1000.0,16.0,42.93131969990038,1.8299740821090467,1000.0,1000.0,0.0,16000
17000,0,8.514559450378535,0.0012669563293457031,2.288818359375e-05,0.1396009922027588,16988.0,-20.240065383911134,0.1130970737338066,0.4615596483151118,-0.2965402950843175,3.9053101738293967,0.0465930150821805,33.61512021924591,1000.0,17.0,47.43263717718492,0.9067254919075101,1000.0,1000.0,0.0,17000
18000,0,11.695157395817196,0.0007948875427246094,1.1920928955078125e-05,0.08489298820495605,17988.0,-19.793369750976563,0.1303032723069191,0.4386366580923398,-0.30427244305610657,3.8463090856870017,0.04454432024310032,38.32273520028664,1000.0,18.0,70.18085447518813,7.469285289918644,1000.0,1000.0,0.0,18000
19000,0,8.548735388408527,0.0011560916900634766,2.288818359375e-05,0.13695693016052246,18988.0,-19.246556091308594,0.15619676768779756,0.41729779293139774,-0.32470810413360596,3.796908140182495,0.04259102760503689,52.612039919818415,1000.0,19.0,140.36150538604755,12.251348060877035,1000.0,1000.0,0.0,19000
20000,0,8.58730589263509,0.0013699531555175781,2.288818359375e-05,0.1481790542602539,19988.0,-18.74958465576172,0.195901700258255,0.39536959181229275,-0.3510437309741974,3.7070563634236655,0.04072647045056025,59.1571963390092,1000.0,20.0,63.68131586619927,2.4169806733697654,1000.0,1000.0,0.0,20000
21000,0,8.566348772094534,0.0014040470123291016,1.7881393432617188e-05,0.14252519607543945,20988.0,-18.40919593811035,0.23078601956367492,0.37452461073795956,-0.3836983342965444,3.6150540908177695,0.038948433784147106,68.53200631123458,1000.0,21.0,84.81205348392174,16.491863188575714,1000.0,1000.0,0.0,21000
22000,0,8.535178871277749,0.0013949871063232422,2.5033950805664062e-05,0.14974308013916016,21988.0,-18.059479598999022,0.29723612308502195,0.3548213144143422,-0.43462923417488736,3.523639142513275,0.03725356111923853,101.77111993452473,1000.0,22.0,52.62611926754302,10.24116223554913,1000.0,1000.0,0.0,22000
23000,0,8.545757646513263,0.0009300708770751953,2.09808349609375e-05,0.12552690505981445,22988.0,-17.723357162475587,0.33522614717483523,0.3354209413131078,-0.46387969702482224,3.411463717619578,0.03563645233710607,79.54499445865281,1000.0,23.0,43.132218425913656,1.5109642996442065,1000.0,1000.0,0.0,23000
24000,0,8.584534548916839,0.0008547306060791016,2.0265579223632812e-05,0.13194775581359863,23988.0,-17.689893646240236,0.35217986106872556,0.3170444866021474,-0.48268172641595203,3.299117604891459,0.03409101255238056,74.97680327642956,1000.0,24.0,39.349111289285545,13.979505115601048,1000.0,1000.0,0.0,24000
25000,0,8.3825269796279,0.0007622241973876953,1.1920928955078125e-05,0.14579272270202637,24988.0,-17.38660583496094,0.3401166045665741,0.30106105903784436,-0.45597611367702484,3.230492115020752,0.032613059195379414,60.50987292792504,1000.0,25.0,96.15232610598109,10.568661503723114,1000.0,1000.0,0.0,25000
26000,0,8.641360893032486,0.001210927963256836,2.7179718017578125e-05,0.14850306510925293,25988.0,-17.07451484680176,0.35830560088157654,0.2858568876981735,-0.469049150745074,3.162131667137146,0.03119701116035382,85.63699414226103,1000.0,26.0,72.68367040244729,25.262576229444388,1000.0,1000.0,0.0,26000
27000,0,8.63078222554826,0.000637054443359375,1.3113021850585938e-05,0.13448476791381836,26988.0,-16.923127517700195,0.38779380440711975,0.2714802995324135,-0.49066833406686783,3.096212387084961,0.02984274070089062,109.92093920244541,1000.0,27.0,38.57196756271209,21.760690731321194,1000.0,1000.0,0.0,27000
28000,0,8.501556965343323,0.0009570121765136719,2.4080276489257812e-05,0.12827086448669434,27988.0,-16.643128204345704,0.4124122595787048,0.2578495691219966,-0.5062110448877016,3.0322274963061013,0.02854521308715145,113.01766161078045,1000.0,28.0,158.8246728495272,45.50544689656975,1000.0,1000.0,0.0,28000
29000,0,8.628895826616285,0.0003211498260498047,1.2874603271484375e-05,0.13572931289672852,28988.0,-16.859259872436525,0.3593230450153351,0.24478427693247795,-0.44929735362529755,2.9648593266805015,0.02730241371318698,56.098786168706475,1000.0,29.0,72.25331868181148,40.64633489348745,1000.0,1000.0,0.0,29000
30000,0,8.547762551970665,0.0013470649719238281,2.09808349609375e-05,0.12517786026000977,29988.0,-16.713013458251954,0.25885277092456815,0.2302551530301571,-0.3556053911646207,2.815324147542318,0.026117537170648575,61.551742332125976,1000.0,30.0,58.35815668560076,31.07420581693398,1000.0,1000.0,0.0,30000
31000,0,8.493028081658373,0.0009241104125976562,3.0994415283203125e-05,0.13810014724731445,30988.0,-16.407329444885253,0.28627643585205076,0.21810826286673546,-0.36198686559995014,2.727815330028534,0.024987833419193823,124.30985659228344,1000.0,31.0,27.119215565855292,10.357641229437377,1000.0,1000.0,0.0,31000
32000,0,8.351269141617065,0.0013909339904785156,2.2172927856445312e-05,0.13242793083190918,31988.0,-16.668683166503907,0.27085055828094484,0.20771076902747154,-0.35344532628854114,2.688187619050344,0.023905188776552677,91.15495855762448,1000.0,32.0,75.16724665247547,38.25965034305289,1000.0,1000.0,0.0,32000
33000,0,8.234499668091651,0.0012080669403076172,2.193450927734375e-05,0.14600491523742676,32988.0,-16.697625427246095,0.19119936645030974,0.19624306882421175,-0.27151787156860036,2.580904185771942,0.02286770086114605,24.07851484195758,1000.0,33.0,47.67112133515646,17.92577588242134,1000.0,1000.0,0.0,33000
34000,0,8.113819545327853,0.0011038780212402344,2.193450927734375e-05,0.1816849708557129,33988.0,-16.500882415771486,0.20338904708623887,0.18577156340082487,-0.277989711612463,2.4909201860427856,0.02187685218329231,100.42528771652151,1000.0,34.0,47.56784208935416,21.480288216992395,1000.0,1000.0,0.0,34000
35000,0,8.477254309221355,0.0011179447174072266,2.3126602172851562e-05,0.1394660472869873,34988.0,-16.47144889831543,0.20159746050834657,0.17470075686772665,-0.2654832551876704,2.3466272751490274,0.020928896808375914,112.87886247543625,1000.0,35.0,47.30797967906416,15.57610352786556,1000.0,1000.0,0.0,35000
36000,0,8.416063218072525,0.0008177757263183594,1.9311904907226562e-05,0.13672494888305664,35988.0,-16.642214431762696,0.1857131141424179,0.1668472761909167,-0.26488058641552925,2.332989672819773,0.020020712322245043,81.44880866521981,1000.0,36.0,92.53372282947684,28.653080119473454,1000.0,1000.0,0.0,36000
37000,0,8.56851598911383,0.0009670257568359375,1.3828277587890625e-05,0.1453402042388916,36988.0,-16.737184143066408,0.11619757749140262,0.15877764051159224,-0.19768016412854195,2.290510892868042,0.019150000841667254,23.97215041042372,1000.0,37.0,79.30393517242403,33.034483534483094,1000.0,1000.0,0.0,37000
38000,0,8.347370653392934,0.001352071762084961,2.384185791015625e-05,0.13374018669128418,37988.0,-16.591512603759767,0.09847295828163624,0.1512580898900827,-0.16639665824671587,2.257245937983195,0.01831660031651457,99.30564003817675,1000.0,38.0,60.681151277897186,20.70522373829525,1000.0,1000.0,0.0,38000
39000,0,8.491092085029472,0.001522064208984375,2.8848648071289062e-05,0.14066696166992188,38988.0,-16.757140655517578,0.0410980824008584,0.14253159488240877,-0.0988271984582146,2.1336339811484017,0.01752215375502904,63.62385539017037,1000.0,39.0,130.34653057212716,26.9550019075873,1000.0,1000.0,0.0,39000
40000,0,8.561732393442735,0.0016219615936279297,2.9802322387695312e-05,0.13423919677734375,39988.0,-16.781322021484375,0.016116915121674538,0.13332067181666693,-0.09667848609387875,1.950961838165919,0.016766363754868507,61.671007598209904,1000.0,40.0,93.32144662892516,28.944920445258873,1000.0,1000.0,0.0,40000
41000,0,8.563817540938983,0.00075531005859375,1.2636184692382812e-05,0.15671920776367188,40988.0,-16.607872085571287,-0.027401097025722264,0.12560092036922774,-0.02970835380256176,1.826959898074468,0.01604573444152872,85.15082571687014,1000.0,41.0,123.1721775720453,34.39738672729369,1000.0,1000.0,0.0,41000
42000,0,8.584509950883133,0.0011911392211914062,2.384185791015625e-05,0.1300489902496338,41988.0,-16.52235710144043,-0.022505859732627868,0.11763444232443969,-0.0385207486882185,1.658977061510086,0.015357719346260032,151.9536480661914,1000.0,42.0,127.51514627292624,36.31948490606613,1000.0,1000.0,0.0,42000
43000,0,8.566543328821211,0.0009579658508300781,3.0994415283203125e-05,0.14177799224853516,42988.0,-16.54205810546875,0.01208885282278061,0.11145829533537228,-0.07450327393598855,1.5813927352428436,0.014700269171347221,139.57723249173748,1000.0,43.0,146.92355326379584,16.938199978627114,1000.0,1000.0,0.0,43000
44000,0,8.638067084866544,0.0007891654968261719,1.9788742065429688e-05,0.13940095901489258,43988.0,-16.37454605102539,0.04393583957105875,0.10375709024568398,-0.11882462011029322,1.3717893560727437,0.01407364623931547,140.23511868426414,1000.0,44.0,157.70665804954646,12.137042129201536,1000.0,1000.0,0.0,44000
45000,0,8.211412291871252,0.0008099079132080078,2.3126602172851562e-05,0.13475990295410156,44988.0,-16.358814659118654,0.08275400131940841,0.0975303693364064,-0.1595151163637638,1.2362295786539714,0.013476900368308028,139.60102630494166,1000.0,45.0,154.00908903179783,8.860273736616543,1000.0,1000.0,0.0,45000
46000,0,8.46558796170037,0.0010979175567626953,1.4066696166992188e-05,0.15122318267822266,45988.0,-16.42470634460449,0.08305300891399384,0.09155779766539733,-0.159448250507315,1.0937997152407963,0.012905615769947568,136.89801606218677,1000.0,46.0,154.40842694584248,5.153271693616783,1000.0,1000.0,0.0,46000
47000,0,8.620490221652625,0.0012221336364746094,2.2649765014648438e-05,0.13437104225158691,46988.0,-16.32760673522949,0.1345718815922737,0.08585441609223683,-0.19507557029525438,0.9456300338109335,0.012359855386118094,138.87635366353393,1000.0,47.0,160.58732870527655,9.576459644798469,1000.0,1000.0,0.0,47000
48000,0,8.561563919832665,0.0016138553619384766,2.4080276489257812e-05,0.14102792739868164,47988.0,-16.29447868347168,0.14465337574481965,0.07994460811217625,-0.19872695269683996,0.7528008917967478,0.011837692776074013,137.63741328445496,1000.0,48.0,151.40003235240138,6.454285166518506,1000.0,1000.0,0.0,48000
49000,0,8.402217575940806,0.0008952617645263672,2.09808349609375e-05,0.13379263877868652,48988.0,-16.236612701416014,0.1934559613466263,0.07543796425064404,-0.25017093618710834,0.6515412429968516,0.011340482936551174,146.30101831068058,1000.0,49.0,111.45757229021756,9.6747277935112,1000.0,1000.0,0.0,49000
50000,0,8.609328452905379,0.0009138584136962891,2.1219253540039062e-05,0.14667391777038574,49988.0,-16.182772598266602,0.23988502472639084,0.06933762381474178,-0.2840418703854084,0.3813829819361369,0.010864678071811795,99.88799546718292,1000.0,50.0,78.41009928730605,5.554531558308625,1000.0,1000.0,0.0,50000
51000,0,8.58486769045563,0.0007851123809814453,2.1219253540039062e-05,0.12924790382385254,50988.0,-16.202389106750488,0.2562539976835251,0.06381766746441524,-0.32389963169892627,0.12841308023780584,0.010412540364389619,81.70993929230451,1000.0,51.0,67.96283573189116,3.1226105386953864,1000.0,1000.0,0.0,51000
52000,0,8.340973700115484,0.0017180442810058594,2.5987625122070312e-05,0.13131093978881836,51988.0,-16.20907112121582,0.28338226974010466,0.05894270042578379,-0.3627472370862961,-0.09498344097907345,0.00998094918516775,69.92220104535649,1000.0,52.0,52.58941768291479,2.1904201203912446,1000.0,1000.0,0.0,52000
53000,0,8.276785972934148,0.0010330677032470703,1.4066696166992188e-05,0.14259886741638184,52988.0,-16.22528106689453,0.2836361140012741,0.05519287164012591,-0.3686133747299512,-0.23283859194877246,0.009569448962186774,92.19278050064705,1000.0,53.0,64.956072607695,1.5577041578307411,1000.0,1000.0,0.0,53000
54000,0,8.511932970605965,0.0007760524749755859,2.193450927734375e-05,0.13521409034729004,53988.0,-16.258545684814454,0.3030376923084259,0.050237362583478294,-0.3564315165082614,-0.5252748976151148,0.009175458224490285,100.64226284890859,1000.0,54.0,98.16687630234085,8.963237011086484,1000.0,1000.0,0.0,54000
55000,0,8.397727259986164,0.0011849403381347656,1.6927719116210938e-05,0.13226795196533203,54988.0,-16.2712077331543,0.3493826162815094,0.0481996259962519,-0.4219304273525874,-0.521307942767938,0.008796948241069913,125.47796062999316,1000.0,55.0,150.35618551948653,7.031728622414641,1000.0,1000.0,0.0,55000
56000,0,8.5410660286107,0.0014300346374511719,2.5033950805664062e-05,0.12552404403686523,55988.0,-16.185270195007323,0.36237462878227233,0.04536632106949886,-0.423902486761411,-0.6201174582044283,0.008431868239616355,150.76670792256215,1000.0,56.0,155.59726908332044,7.8803075195380705,1000.0,1000.0,0.0,56000
57000,0,8.672737997916379,0.0005259513854980469,1.1920928955078125e-05,0.1455669403076172,56988.0,-16.176115531921386,0.3666209328174591,0.04154425424834093,-0.42782678206761676,-0.8594025572141012,0.008080913685262203,165.0409069415113,1000.0,57.0,179.06197282587706,7.104277083021098,1000.0,1000.0,0.0,57000
58000,0,8.194008172159068,0.000949859619140625,1.621246337890625e-05,0.1439497470855713,57988.0,-16.141613006591797,0.36766684174537656,0.03923528144756953,-0.42738093187411624,-0.933703824877739,0.007743694664289554,171.00767244860256,1000.0,58.0,184.19205546483147,15.223599751800428,1000.0,1000.0,0.0,58000
59000,0,8.588007800310734,0.0012519359588623047,1.5974044799804688e-05,0.1391899585723877,58988.0,-16.22534122467041,0.3871764576435089,0.037006860598921776,-0.43281228591998416,-1.0136716812849045,0.007421063336854179,182.9723585276985,1000.0,59.0,181.47073444299104,7.301073785099963,1000.0,1000.0,0.0,59000
60000,0,8.594268853668282,0.0007839202880859375,2.0265579223632812e-05,0.1252586841583252,59988.0,-16.053067932128908,0.4188402760028839,0.03374622669070959,-0.4709461083014806,-1.2556050717830658,0.00711222932053109,186.77511933921312,1000.0,60.0,177.73213602053147,7.468469703503656,1000.0,1000.0,0.0,60000
61000,0,8.554771082841302,0.00074005126953125,1.2874603271484375e-05,0.1315779685974121,60988.0,-16.11839775085449,0.4351659882068634,0.03130076266825199,-0.48014380037784576,-1.4097187022368114,0.006818371475674212,175.2597739764573,1000.0,61.0,192.05160319497003,7.382856263839812,1000.0,1000.0,0.0,61000
62000,0,8.438450891574208,0.0007159709930419922,1.4066696166992188e-05,0.14394307136535645,61988.0,-16.102723693847658,0.4557117772102356,0.02812353118012349,-0.5100490301847458,-1.698999245961507,0.006538225687108934,161.00327598567563,1000.0,62.0,189.51795180289074,8.418203256559448,1000.0,1000.0,0.0,62000
63000,0,8.63499408564305,0.0014591217041015625,4.673004150390625e-05,0.1404552459716797,62988.0,-16.00539794921875,0.4474113631248474,0.026767862339814503,-0.5080598170558611,-1.7316046754519145,0.006270687406261762,167.20015192405384,1000.0,63.0,169.70966772826995,8.111142305276694,1000.0,1000.0,0.0,63000
64000,0,8.555783910841567,0.0012433528900146484,2.193450927734375e-05,0.13123393058776855,63988.0,-15.995163269042969,0.4837888300418854,0.02442546794191003,-0.5381298065185547,-1.9398154119650524,0.006015353991339604,179.4499838467714,1000.0,64.0,200.8373745548427,11.528774186859884,1000.0,1000.0,0.0,64000
65000,0,8.617477163080654,0.0015571117401123047,2.5033950805664062e-05,0.13455796241760254,64988.0,-15.754328956604004,0.4878722035884857,0.022818351009239752,-0.5487959558765093,-2.045996834834417,0.00577049923595041,185.54367249708218,1000.0,65.0,173.1324148859707,10.638378179140107,1000.0,1000.0,0.0,65000
66000,0,8.582642317684044,0.0009279251098632812,2.2172927856445312e-05,0.14402294158935547,65988.0,-15.904162521362304,0.5390199780464172,0.020494381121049326,-0.6006128142277399,-2.2985609968503318,0.005536427449745436,188.4664374881645,1000.0,66.0,184.2738726815277,8.961625963755763,1000.0,1000.0,0.0,66000
67000,0,8.562700021729798,0.0012280941009521484,1.7881393432617188e-05,0.12692809104919434,66988.0,-15.911547927856445,0.5290081262588501,0.019193188132097323,-0.5902038713296255,-2.387479225794474,0.005312570293123524,170.87101338692545,1000.0,67.0,205.35070778832383,10.729372478651584,1000.0,1000.0,0.0,67000
68000,0,8.668776618800466,0.0007700920104980469,1.2874603271484375e-05,0.14421486854553223,67988.0,-15.898976860046387,0.5503117620944977,0.017593152355402708,-0.5854332596063614,-2.550167898337046,0.005099248373880982,178.18299306749267,1000.0,68.0,198.0201780637914,8.688717341781818,1000.0,1000.0,0.0,68000
69000,0,8.71407739650716,0.0006389617919921875,1.1920928955078125e-05,0.1308760643005371,68988.0,-15.854970550537109,0.5500421059131623,0.01613976658942799,-0.6163252741098404,-2.7027529875437417,0.0048945149562011165,204.58405249104788,1000.0,69.0,207.8908822948687,8.893608277182958,1000.0,1000.0,0.0,69000
70000,0,8.439912540350281,0.0005869865417480469,1.3113021850585938e-05,0.12569689750671387,69988.0,-15.814463844299317,0.5795544195175171,0.01474364148452878,-0.637695848941803,-2.861956516901652,0.004697963013313711,213.40569918175186,1000.0,70.0,214.67703614867264,7.902787418593627,1000.0,1000.0,0.0,70000
71000,0,8.57213606153571,0.0007128715515136719,1.3113021850585938e-05,0.1307227611541748,70988.0,-15.781921806335449,0.6060948324203491,0.013560579313586155,-0.6619705259799957,-2.995225171248118,0.004512653220444918,207.40376003610433,1000.0,71.0,196.13316751095527,6.762142737570421,1000.0,1000.0,0.0,71000
72000,0,8.598978923736809,0.0008780956268310547,2.193450927734375e-05,0.12454676628112793,71988.0,-15.838293380737305,0.6292311716079712,0.01168259046971798,-0.6992937922477722,-3.305608054002126,0.004335594790366788,223.80070415579416,1000.0,72.0,210.09211194586118,8.080765309879487,1000.0,1000.0,0.0,72000
73000,0,8.531439309372074,0.0008809566497802734,1.8835067749023438e-05,0.1398630142211914,72988.0,-15.74620834350586,0.6622039866447449,0.010553232238938412,-0.7234106212854385,-3.4674594600995383,0.004166683686586718,210.5183167639867,1000.0,73.0,205.71869798272684,7.706292225463464,1000.0,1000.0,0.0,73000
74000,0,8.603737222099326,0.0014939308166503906,2.8133392333984375e-05,0.13788294792175293,73988.0,-15.6775048828125,0.6748535513877869,0.009997597895562649,-0.7211196273565292,-3.5042884747187295,0.004005574233209093,213.83034742940177,1000.0,74.0,220.43644897462468,10.385525449736908,1000.0,1000.0,0.0,74000
75000,0,8.536551907958136,0.0009851455688476562,2.09808349609375e-05,0.13178801536560059,74988.0,-15.70836826324463,0.7005608129501343,0.008964930195361376,-0.7662917127211889,-3.673065721988678,0.0038524005988923213,207.00839296163687,1000.0,75.0,211.59103893645656,9.09374040676937,1000.0,1000.0,0.0,75000
76000,0,8.493780710770588,0.0004050731658935547,1.3113021850585938e-05,0.14737677574157715,75988.0,-15.711840591430665,0.7364322209358215,0.007752452821781238,-0.7976868698994318,-3.907864967981974,0.003705260305044552,194.14238130239735,1000.0,76.0,196.984520356549,14.75983796792657,1000.0,1000.0,0.0,76000
77000,0,8.634394678930434,0.0007879734039306641,2.002716064453125e-05,0.14042901992797852,76988.0,-15.732132911682129,0.7574332690238953,0.006948635176134606,-0.8198513885339102,-4.0514598687489825,0.0035658475826494396,202.25563850452616,1000.0,77.0,202.1441211303542,9.479818796205427,1000.0,1000.0,0.0,77000
78000,0,8.661248870650052,0.001394033432006836,4.506111145019531e-05,0.15060901641845703,77988.0,-15.686836585998535,0.7799374413490295,0.0062715859385207295,-0.84835817416509,-4.174681742986043,0.0034355850075371563,209.23066052649492,1000.0,78.0,202.3945487884527,20.162718770891434,1000.0,1000.0,0.0,78000
79000,0,8.481249708313877,0.0019412040710449219,2.8848648071289062e-05,0.1394031047821045,78988.0,-15.674920043945313,0.8217430877685546,0.005159712066718687,-0.8816579729318619,-4.441406011581421,0.0033101674246912203,207.98544280243124,1000.0,79.0,203.844956142355,4.6723418144801006,1000.0,1000.0,0.0,79000
80000,0,8.645170375424662,0.0007977485656738281,2.002716064453125e-05,0.13628101348876953,79988.0,-15.694009666442872,0.8418791270256043,0.004980549992372592,-0.8900094876686732,-4.440563480059306,0.0031936873177376888,199.30212489796375,1000.0,80.0,205.12731139858124,3.9381678097322688,1000.0,1000.0,0.0,80000
81000,0,8.452876232339626,0.0013477802276611328,2.1219253540039062e-05,0.1396939754486084,80988.0,-15.711863670349121,0.8343553185462952,0.00401653031197687,-0.8883733948071798,-4.697499235471089,0.0030834542315763733,211.71128945354062,1000.0,81.0,203.4723270598938,9.80803984354509,1000.0,1000.0,0.0,81000
82000,0,8.32652807119019,0.0009338855743408203,1.52587890625e-05,0.12873482704162598,81988.0,-15.71868679046631,0.8749110746383667,0.0038864528760313988,-0.9463209807872772,-4.696476141611735,0.0029812509504457316,199.82935482680952,1000.0,82.0,215.0504574867904,7.11078131498523,1000.0,1000.0,0.0,82000
83000,0,8.564981525567088,0.0006582736968994141,1.2874603271484375e-05,0.13048481941223145,82988.0,-15.59049430847168,0.9037830686569214,0.0029455055482685566,-0.9659339835246404,-4.980122288068135,0.002887920301873237,215.63170373578987,1000.0,83.0,212.22633848119932,9.101354655001694,1000.0,1000.0,0.0,83000
84000,0,8.693317831028079,0.0008099079132080078,1.2159347534179688e-05,0.13324213027954102,83988.0,-15.523325691223144,0.9264408874511719,0.0024784370713556805,-0.9794478466113409,-5.114803194999695,0.002799706630563984,222.17191594524212,1000.0,84.0,213.61396511872437,8.237487287892636,1000.0,1000.0,0.0,84000
85000,0,8.63739539088939,0.0010230541229248047,1.621246337890625e-05,0.14127588272094727,84988.0,-15.654183502197265,0.9364503288269043,0.001568033510314611,-0.9977429707845052,-5.423584858576457,0.002720072884888699,213.76929146139713,1000.0,85.0,214.95794961206758,7.73610035389675,1000.0,1000.0,0.0,85000
86000,0,8.402042529923646,0.0012729167938232422,1.430511474609375e-05,0.13381385803222656,85988.0,-15.62904037475586,0.966146194934845,0.0012537537841126323,-1.0378551085789998,-5.526391625404358,0.0026469306321814656,222.99445834896866,1000.0,86.0,212.14946729171135,6.434187726160982,1000.0,1000.0,0.0,86000
87000,0,8.552897529603033,0.001196146011352539,1.9788742065429688e-05,0.14659404754638672,86988.0,-15.473492851257324,0.959337990283966,0.0011191842568223365,-1.0093145966529846,-5.566790501276652,0.002583483913137267,209.59520046887502,1000.0,87.0,206.34402231668432,7.296419809247293,1000.0,1000.0,0.0,87000
88000,0,8.410607457714995,0.0013308525085449219,1.5020370483398438e-05,0.1378920078277588,87988.0,-15.490329551696778,0.9991507530212402,0.0004323465400375426,-1.0560081899166107,-5.829224705696106,0.0025317512530212602,216.732206528851,1000.0,88.0,188.44270858820488,44.475597068083935,1000.0,1000.0,0.0,88000
89000,0,8.641580237211285,0.0007882118225097656,2.1696090698242188e-05,0.13044309616088867,88988.0,-15.549238739013672,1.0067797493934632,0.0003274144034245789,-1.0680023729801178,-5.868668874104817,0.0024928501225076616,207.65242875290087,1000.0,89.0,209.9496462804704,7.198088149376928,1000.0,1000.0,0.0,89000
90000,0,8.612650602657038,0.0008187294006347656,2.2172927856445312e-05,0.1373608112335205,89988.0,-15.654322509765626,1.006825613975525,4.050778746507907e-05,-1.0786282618840535,-5.983540296554565,0.0024601800056795278,209.31175271833453,1000.0,90.0,198.8384184435167,12.764405854154207,1000.0,1000.0,0.0,90000
91000,0,8.401531571925199,0.0013320446014404297,2.193450927734375e-05,0.12861299514770508,90988.0,-15.565223884582519,1.0232730770111085,0.00015479146956446735,-1.0861872335275014,-5.936696887016296,0.0024449537158943713,206.6966438061367,1000.0,91.0,204.2382978204666,11.009068108627662,1000.0,1000.0,0.0,91000
92000,0,8.570890265817296,0.0006589889526367188,1.4066696166992188e-05,0.1408367156982422,91988.0,-15.476275062561035,1.0466781663894653,-0.00013983710111157657,-1.103340248266856,-6.057108124097188,0.002448734303470701,191.86248388523808,1000.0,92.0,204.11722702584444,6.92240854336673,1000.0,1000.0,0.0,92000
93000,0,8.489359721170855,0.0007340908050537109,1.5735626220703125e-05,0.13202404975891113,92988.0,-15.51435489654541,1.041196472644806,0.00026598101067065727,-1.0979750255743663,-5.89177159468333,0.0024574745912104845,188.00375672690117,1000.0,93.0,199.676026920147,13.120719606482837,1000.0,1000.0,0.0,93000
94000,0,8.623493331607389,0.0008337497711181641,2.09808349609375e-05,0.13857293128967285,93988.0,-15.477915229797363,1.0576606249809266,0.00023292394992798413,-1.1066550413767497,-5.905988494555156,0.002477612307605644,193.95842602638388,1000.0,94.0,178.8496684826012,30.83933760853132,1000.0,1000.0,0.0,94000
95000,0,8.473407147239284,0.0009381771087646484,1.3828277587890625e-05,0.13507604598999023,94988.0,-15.517494087219239,1.083318862915039,-0.00029598676428577164,-1.1688204904397328,-6.118566989898682,0.0024963952406930425,185.3757970746036,1000.0,95.0,189.69106488592212,9.843104271556163,1000.0,1000.0,0.0,95000
96000,0,8.53754235282987,0.0005252361297607422,1.3828277587890625e-05,0.12968111038208008,95988.0,-15.500554466247559,1.0872785186767577,-0.0001941293679313579,-1.1652910709381104,-6.077095031738281,0.002518004485561202,187.88217815243877,1000.0,96.0,135.541580760174,64.76429537467907,1000.0,1000.0,0.0,96000
97000,0,8.673460398659099,0.0012860298156738281,2.6941299438476562e-05,0.13098692893981934,96988.0,-15.514365310668945,1.0871343421936035,7.931024689848225e-05,-1.1545447409152985,-5.9689494371414185,0.0025534408632665873,189.00094161831862,1000.0,97.0,179.00495325106107,44.38072580410353,1000.0,1000.0,0.0,97000
98000,0,8.509566380356945,0.0010271072387695312,1.5020370483398438e-05,0.13327288627624512,97988.0,-15.449805221557618,1.1093074131011962,-0.0001778509091915718,-1.1658428311347961,-6.069175481796265,0.00257177862416332,182.2743079898822,1000.0,98.0,162.0995600542648,5.052774000171151,1000.0,1000.0,0.0,98000
99000,0,8.411048677872564,0.0010957717895507812,2.2172927856445312e-05,0.13373994827270508,98988.0,-15.462531280517577,1.1196407651901246,-0.00017312014400279926,-1.1941757599512737,-6.0668654044469195,0.002589293483955165,184.25139695313794,1000.0,99.0,156.94281038197445,28.820604395123045,1000.0,1000.0,0.0,99000
100000,0,8.677990520034236,0.0007770061492919922,1.9073486328125e-05,0.15476083755493164,99988.0,-15.443326416015625,1.1070008516311645,1.4735443680062113e-05,-1.1805952886740367,-5.994305491447449,0.002577653135328243,30.33698100673217,1000.0,100.0,164.34556639003765,14.331862587862359,1000.0,1000.0,0.0,100000
101000,0,8.329096935559306,0.0013408660888671875,2.193450927734375e-05,0.14037704467773438,100988.0,-15.560941276550293,1.1183264875411987,-0.00034426662932673935,-1.1918842295805614,-6.134928663571675,0.0025515063704612353,158.258396036077,1000.0,101.0,159.17502742283892,10.728618317798082,1000.0,1000.0,0.0,101000
102000,0,8.527474858174422,0.0006060600280761719,1.1920928955078125e-05,0.13812994956970215,101988.0,-15.496674079895019,1.120696816444397,-0.00034234917742044974,-1.184970200061798,-6.134914080301921,0.002538085507694632,166.0615239318422,1000.0,102.0,149.78339085393702,6.754950767868369,1000.0,1000.0,0.0,102000
103000,0,8.615867708646853,0.0009400844573974609,2.288818359375e-05,0.1421680450439453,102988.0,-15.549791412353516,1.1444479751586913,-0.00015226851428451482,-1.2016188303629558,-6.060062209765117,0.0025362181671274206,159.42947065763306,1000.0,103.0,162.58702275628215,30.759798462204213,1000.0,1000.0,0.0,103000
104000,0,8.516622372881466,0.0016090869903564453,2.7894973754882812e-05,0.12751293182373047,103988.0,-15.586069984436035,1.150850772857666,0.00015666127607498007,-1.2057602206865947,-5.938057700792949,0.00252823616998891,162.62910486423493,1000.0,104.0,159.72772262401543,3.5410505439314766,1000.0,1000.0,0.0,104000
105000,0,8.605325198217937,0.0007910728454589844,1.3113021850585938e-05,0.14156198501586914,104988.0,-15.606046981811524,1.1707486343383788,-0.0001701819243559536,-1.244122674067815,-6.067014217376709,0.0025400760544774434,171.56456578193306,1000.0,105.0,174.2859593384279,4.984176451808825,1000.0,1000.0,0.0,105000
106000,0,8.612445457438834,0.0008559226989746094,4.410743713378906e-05,0.140610933303833,105988.0,-15.588085174560547,1.1451198482513427,-0.0001570525043158947,-1.2136796017487843,-6.061657826105754,0.0025471888754206398,171.5368545587378,1000.0,106.0,152.92945027831087,45.51980542472036,1000.0,1000.0,0.0,106000
107000,0,8.440400322072312,0.0009338855743408203,1.5020370483398438e-05,0.15023493766784668,106988.0,-15.579405517578126,1.1729568099975587,-0.0001886289258739756,-1.2150253653526306,-6.073328574498494,0.0025725046483178935,178.70269072344914,1000.0,107.0,184.9878283154383,9.07696615229458,1000.0,1000.0,0.0,107000
108000,0,8.462458863002357,0.0004596710205078125,2.193450927734375e-05,0.13254404067993164,107988.0,-15.565469512939453,1.1957165431976318,-0.00019666771413540118,-1.2558577160040538,-6.076181530952454,0.002581650643454244,173.76380649564146,1000.0,108.0,189.58196838470025,2.8649422799016273,1000.0,1000.0,0.0,108000
109000,0,8.453076571906363,0.001374959945678711,2.4080276489257812e-05,0.13308191299438477,108988.0,-15.575229072570801,1.2179390239715575,-0.00011766584611905273,-1.2844958206017811,-6.045144240061442,0.002606435756509503,184.4966708298813,1000.0,109.0,188.6899670051622,17.24188724319072,1000.0,1000.0,0.0,109000
110000,0,8.435503324924184,0.000514984130859375,1.0967254638671875e-05,0.140045166015625,109988.0,-15.611013641357422,1.2156239795684813,-2.13630131232397e-05,-1.296763817469279,-6.008126974105835,0.002634135695795218,191.40084000821034,1000.0,110.0,195.16752491304354,8.470706937874295,1000.0,1000.0,0.0,110000
111000,0,8.168762423642994,0.0012960433959960938,1.5020370483398438e-05,0.12992310523986816,110988.0,-15.639621658325195,1.220560646057129,0.00017580454671891252,-1.269008566935857,-5.933217366536458,0.0026324375648982823,181.4428666036766,1000.0,111.0,198.89881986660868,6.344928857767278,1000.0,1000.0,0.0,111000
112000,0,8.309846609051679,0.0008308887481689453,1.9311904907226562e-05,0.13860297203063965,111988.0,-15.693651123046875,1.2367179441452025,0.00033701284216173616,-1.2985576689243317,-5.871508916219075,0.00262203102465719,200.54850312174744,1000.0,112.0,181.00292883966776,45.496975849022036,1000.0,1000.0,0.0,112000
113000,0,8.496751251225092,0.0008893013000488281,1.4066696166992188e-05,0.1333329677581787,112988.0,-15.424674797058106,1.2451652526855468,-0.0002611904607571584,-1.3095186253388722,-6.099274357159932,0.002631076475760589,195.79585126503167,1000.0,113.0,191.90022880271516,27.652933014009513,1000.0,1000.0,0.0,113000
114000,0,8.39286083044,0.0011951923370361328,1.4066696166992188e-05,0.12729907035827637,113988.0,-15.690797309875489,1.267206163406372,-9.496222628513351e-05,-1.3320097923278809,-6.035915335019429,0.002644923593228062,197.12396516264278,1000.0,114.0,199.98633751633483,8.653413977700266,1000.0,1000.0,0.0,114000
115000,0,8.652983647747673,0.0022640228271484375,2.7179718017578125e-05,0.1468217372894287,114988.0,-15.44664005279541,1.3026421451568604,-4.9438540978978075e-05,-1.351678043603897,-6.018589695294698,0.0026601992237071195,195.76253111841734,1000.0,115.0,197.9954037161518,4.644854987578272,1000.0,1000.0,0.0,115000
116000,0,8.461573843567855,0.000324249267578125,1.1920928955078125e-05,0.1291029453277588,115988.0,-15.662165718078613,1.3115826654434204,-0.00031567613950755913,-1.3727040390173595,-6.117620388666789,0.0026838762763266764,182.94037012475945,1000.0,116.0,201.0268611684555,4.6969218947339915,1000.0,1000.0,0.0,116000
117000,0,8.530233765156135,0.0007817745208740234,2.002716064453125e-05,0.12995505332946777,116988.0,-15.634630317687987,1.3250027418136596,-0.0002496521938155638,-1.3832451005776722,-6.092508673667908,0.0026987105375155807,200.26543994759282,1000.0,117.0,211.0198707756666,10.796283091520944,1000.0,1000.0,0.0,117000
118000,0,8.590575875052842,0.0003142356872558594,1.0967254638671875e-05,0.13240694999694824,117988.0,-15.519675827026367,1.3377882957458496,-0.00031735113528460107,-1.4029486378033955,-6.116805791854858,0.0027170381120716534,180.72797502756003,1000.0,118.0,213.94084156934554,4.523462797796572,1000.0,1000.0,0.0,118000
119000,0,8.580079685447702,0.001171112060546875,1.5020370483398438e-05,0.1505448818206787,118988.0,-15.53379207611084,1.3503067636489867,-9.936268421976517e-05,-1.4112257560094197,-6.0363560517628985,0.00273334300921609,200.98436628046008,1000.0,119.0,205.12240252838714,5.874027180902102,1000.0,1000.0,0.0,119000
120000,0,8.560400863864306,0.00031280517578125,1.0967254638671875e-05,0.1342782974243164,119988.0,-15.595415840148926,1.3678753995895385,-0.00036478720054825925,-1.4376777311166127,-6.132954676946004,0.0027436569216661155,212.61694765846948,1000.0,120.0,223.80553712475003,3.846041262748957,1000.0,1000.0,0.0,120000
121000,0,8.578100995993822,0.0010030269622802734,2.2649765014648438e-05,0.14048409461975098,120988.0,-15.606670570373534,1.3944701719284058,-4.139243507476446e-05,-1.4496051768461864,-6.015021244684855,0.00275534758111462,213.94991418379928,1000.0,121.0,205.3844028319245,13.264413128830833,1000.0,1000.0,0.0,121000
122000,0,7.758979822490961,0.001119852066040039,2.2172927856445312e-05,0.1384119987487793,121988.0,-15.578154449462891,1.374672966003418,-0.00020946692105402084,-1.4492383499940236,-6.075874328613281,0.0027606933338878057,195.7798211623929,1000.0,122.0,182.13224043542306,43.626806289215985,1000.0,1000.0,0.0,122000
123000,0,8.554595206070035,0.0009558200836181641,2.193450927734375e-05,0.13911223411560059,122988.0,-15.547079734802246,1.4037587022781373,-0.00036704417198052397,-1.480288714170456,-6.1326167186101275,0.0027677497904126844,208.3864776952729,1000.0,123.0,213.343074342741,7.6242934580303325,1000.0,1000.0,0.0,123000
124000,0,8.670795215126393,0.0005190372467041016,1.3113021850585938e-05,0.26104283332824707,123988.0,-15.51599723815918,1.4217385721206666,9.167742973659188e-05,-1.4894869724909465,-5.966795722643535,0.002760299733684709,195.55659406911423,1000.0,124.0,217.07417251460646,4.995500463509474,1000.0,1000.0,0.0,124000
125000,0,8.205702240600829,0.001773834228515625,3.0994415283203125e-05,0.17943024635314941,124988.0,-15.599629707336426,1.4159791326522828,0.0005073624482368663,-1.4577062924702961,-5.816344817479451,0.002762318297754973,63.978250870531234,1000.0,125.0,204.25669471772017,22.676333605702617,1000.0,1000.0,0.0,125000
126000,0,7.657746543674473,0.0019118785858154297,2.8133392333984375e-05,0.13707900047302246,125988.0,-15.566453323364257,1.425146884918213,0.00027539415593006805,-1.4822883506615956,-5.90065058072408,0.0027716282250670097,205.35210075222528,1000.0,126.0,191.82090964537704,10.466791551888132,1000.0,1000.0,0.0,126000
127000,0,8.630356009099037,0.00174713134765625,2.5033950805664062e-05,0.13257598876953125,126988.0,-15.57075107574463,1.4234894180297852,-8.645284894252352e-05,-1.4810116390387218,-6.031102736790975,0.002780511237991353,206.5889551084348,1000.0,127.0,193.09813845493005,30.383454705751472,1000.0,1000.0,0.0,127000
128000,0,7.477386734002244,0.0011990070343017578,1.4781951904296875e-05,0.13297200202941895,127988.0,-15.651173248291016,1.4487831830978393,7.786259326773386e-05,-1.5230063100655873,-5.972064057985942,0.0027871289445708194,176.0582045625418,1000.0,128.0,215.6005911311604,3.617031153273173,1000.0,1000.0,0.0,128000
129000,0,8.661909253726312,0.001980304718017578,3.790855407714844e-05,0.1845088005065918,128988.0,-15.606171989440918,1.4207569169998169,0.0003823480304466405,-1.4701047241687775,-5.862808465957642,0.002786861422161261,194.67506724415466,1000.0,129.0,212.29259230974372,42.55661148997151,1000.0,1000.0,0.0,129000
130000,0,8.083292348062848,0.0008289813995361328,1.4066696166992188e-05,0.12489700317382812,129988.0,-15.553411903381347,1.4405542993545533,0.00025627562899899203,-1.4852392474810283,-5.9079844156901045,0.002782382109823326,161.69826283614245,1000.0,130.0,157.1843982265995,42.077453977785034,1000.0,1000.0,0.0,130000
131000,0,8.601176089692485,0.0007312297821044922,1.4066696166992188e-05,0.14119768142700195,130988.0,-15.602221946716309,1.4393819999694824,1.7087898716757384e-06,-1.4717467228571575,-5.9993886550267534,0.0027813746128231287,205.7931914489419,1000.0,131.0,177.05846579349654,7.431364476905252,1000.0,1000.0,0.0,131000
,1.2874603271484375e-05,0.14725494384765625,131988.0,-15.903553771972657,1.38298837184906,-1.613608522651096e-05,-1.4163279334704082,-6.007352272669475,0.0021948903255785504,127.84317809066175,1000.0,132.0,109.40239410925719,67.79457172551537,1000.0,1000.0,0.0,132000
133000,0,8.488338507727915,0.0013549327850341797,1.4781951904296875e-05,0.13457894325256348,132988.0,-15.794309272766114,1.3944647026062011,-0.00019622108766270685,-1.4620883762836456,-6.088586727778117,0.0022148637799546123,324.69014386288757,1000.0,133.0,166.88550961361398,67.80829709501731,1000.0,1000.0,0.0,133000
134000,0,8.580812713052234,0.0010671615600585938,1.9788742065429688e-05,0.13226914405822754,133988.0,-15.871190223693848,1.4032188606262208,-0.00013039510243591698,-1.4948732952276866,-6.0580146710077925,0.002249359618872404,123.39876627763252,1000.0,134.0,104.82634574609412,34.25946103277404,1000.0,1000.0,0.0,134000
135000,0,8.588449540516443,0.0012497901916503906,2.5272369384765625e-05,0.130814790725708,134988.0,-15.841375961303712,1.384882001876831,-0.00019559402880986454,-1.4243458112080891,-6.085916042327881,0.002276852862754216,190.71933776982272,1000.0,135.0,130.7823766514716,80.08791438514449,1000.0,1000.0,0.0,135000
136000,0,8.502152546832438,0.0004749298095703125,1.1920928955078125e-05,0.14351511001586914,135988.0,-15.819960784912109,1.377751545906067,-9.780350713602578e-06,-1.4381124079227448,-6.00428835550944,0.0022834017872810364,41.355896272150815,1000.0,136.0,139.8720061895696,55.586314999732735,1000.0,1000.0,0.0,136000
137000,0,8.557660824211537,0.0017037391662597656,3.0040740966796875e-05,0.13253021240234375,136988.0,-15.796837959289551,1.3646356821060182,-0.0002746902518993011,-1.4242077072461445,-6.120221336682637,0.002284937868049989,275.9592652695469,1000.0,137.0,112.14052938093232,67.15412786144928,1000.0,1000.0,0.0,137000
138000,0,8.53194258780897,0.0011289119720458984,4.601478576660156e-05,0.14460396766662598,137988.0,-15.857367782592773,1.368732771873474,-0.00017115439307720712,-1.440894345442454,-6.074713071187337,0.0022908052002700665,120.72787573589278,1000.0,138.0,119.66576000821199,62.738352660013746,1000.0,1000.0,0.0,138000
139000,0,8.589376780006003,0.00044083595275878906,1.1920928955078125e-05,0.13581323623657227,138988.0,-15.866398391723633,1.345521559715271,0.00022595001579854093,-1.3904848595460255,-5.901426355044047,0.0022919281812695167,73.3391495640036,1000.0,139.0,139.93070306927913,67.10551258726416,1000.0,1000.0,0.0,139000
140000,0,8.278387561197206,0.0007319450378417969,1.4066696166992188e-05,0.12648391723632812,139988.0,-15.823575096130371,1.3717187643051147,-0.00035189032193253905,-1.4230466584364574,-6.154451926549275,0.0022788165564027927,191.39331767211928,1000.0,140.0,180.61670035202022,40.266784107538626,1000.0,1000.0,0.0,140000
